Assets/LUTs/Aden.cube
LUT_3D_SIZE 6
0.111542 0.111542 0.111542
0.111646 0.124176 0.125824
0.129553 0.141858 0.146265
0.157849 0.167944 0.177521
0.203729 0.208631 0.227588
0.280855 0.272918 0.305610
0.128839 0.141174 0.145484
0.156821 0.166993 0.176335
0.202066 0.207138 0.225781
0.278331 0.270802 0.303020
0.390087 0.362363 0.405098
0.519402 0.473544 0.515523
0.200207 0.205524 0.223779
0.275294 0.268310 0.300022
0.386074 0.359061 0.401515
0.515359 0.470023 0.512073
0.634806 0.583599 0.611721
0.727535 0.681765 0.688990
0.381842 0.355554 0.397864
0.511077 0.466194 0.508489
0.631262 0.580035 0.608755
0.724987 0.679015 0.686842
0.794481 0.757697 0.744731
0.846727 0.818771 0.787561
0.627832 0.576398 0.605890
0.722382 0.676090 0.684716
0.792493 0.755388 0.743054
0.845289 0.817051 0.786392
0.886563 0.865770 0.819188
0.919842 0.905190 0.844677
0.790631 0.753185 0.741531
0.843785 0.815255 0.785190
0.885297 0.864279 0.818209
0.918829 0.903979 0.843919
0.946434 0.936677 0.864247
0.969289 0.963717 0.880482
0.111542 0.115680 0.116248
0.116433 0.129952 0.132433
0.138588 0.150178 0.156109
0.171968 0.180725 0.193112
0.227694 0.228981 0.252832
0.318822 0.303845 0.341228
0.137780 0.149428 0.155218
0.170806 0.179642 0.191838
0.225713 0.227285 0.250653
0.315684 0.301292 0.338174
0.437000 0.401739 0.445759
0.565735 0.516072 0.554136
0.223357 0.225277 0.248221
0.312314 0.298557 0.335018
0.432787 0.398208 0.442105
0.561623 0.512391 0.550712
0.672023 0.622046 0.642756
0.755241 0.712727 0.712035
0.428503 0.394542 0.438436
0.557657 0.508654 0.547415
0.668796 0.618670 0.640051
0.752931 0.710170 0.710132
0.815311 0.781918 0.761927
0.862870 0.837773 0.800512
0.665714 0.615376 0.637539
0.750630 0.707519 0.708211
0.813508 0.779828 0.760453
0.861522 0.836182 0.799427
0.899572 0.881181 0.829252
0.930523 0.917840 0.852620
0.811793 0.777810 0.759072
0.860125 0.834556 0.798334
0.898430 0.879787 0.828373
0.929570 0.916727 0.851914
0.955326 0.947214 0.870593
0.976518 0.972270 0.885476
0.111542 0.120404 0.121521
0.123705 0.136475 0.140019
0.149055 0.159896 0.167705
0.189055 0.195858 0.211789
0.256605 0.252988 0.281988
0.360961 0.338265 0.379431
0.148106 0.159004 0.166687
0.187638 0.194587 0.210248
0.254255 0.251035 0.279544
0.357470 0.335471 0.376176
0.484965 0.443027 0.486532
0.609163 0.557839 0.590333
0.251469 0.248722 0.276769
0.353598 0.332320 0.372675
0.480509 0.439243 0.482740
0.605164 0.554077 0.586986
0.705429 0.657672 0.670573
0.779992 0.740963 0.732665
0.476328 0.435520 0.479249
0.601531 0.550483 0.583957
0.702544 0.654567 0.668171
0.777922 0.738616 0.730937
0.834136 0.803962 0.777338
0.877672 0.855263 0.812212
0.699896 0.651585 0.665966
0.775849 0.736210 0.729238
0.832510 0.802051 0.776018
0.876442 0.853794 0.811246
0.911633 0.895452 0.838467
0.940468 0.929616 0.859916
0.830926 0.800174 0.774749
0.875109 0.852227 0.810220
0.910506 0.894138 0.837626
0.939585 0.928582 0.859262
0.963630 0.957022 0.876496
0.983239 0.980196 0.890054
0.111798 0.125672 0.127527
0.131884 0.143996 0.148782
0.161433 0.171216 0.181487
0.209869 0.213863 0.234125
0.290912 0.281120 0.315128
0.406510 0.375966 0.419512
0.160343 0.170215 0.180277
0.208095 0.212334 0.232184
0.288028 0.278760 0.312268
0.402759 0.372913 0.416146
0.532444 0.485381 0.526395
0.648909 0.597882 0.623469
0.284760 0.276091 0.309159
0.398521 0.369420 0.412427
0.527958 0.481437 0.522614
0.645299 0.594293 0.620448
0.735490 0.690603 0.695587
0.802204 0.766651 0.751111
0.523938 0.477728 0.519279
0.641935 0.590862 0.617653
0.732913 0.687763 0.693453
0.800324 0.764496 0.749551
0.851329 0.824158 0.791243
0.891348 0.871433 0.822913
0.730485 0.685012 0.691432
0.798492 0.762346 0.748044
0.849869 0.822436 0.790074
0.890206 0.870095 0.822023
0.922879 0.908778 0.846929
0.949772 0.940630 0.866651
0.848349 0.820613 0.788874
0.888994 0.868641 0.821085
0.921849 0.907562 0.846170
0.948921 0.939628 0.866027
0.971303 0.966109 0.881854
0.989393 0.987474 0.894240
0.118298 0.131622 0.134345
0.141262 0.152688 0.159059
0.176293 0.184590 0.197893
0.235002 0.235113 0.260331
0.329924 0.312893 0.351393
0.453958 0.416086 0.460342
0.174984 0.183403 0.196443
0.232979 0.233363 0.258132
0.326679 0.310282 0.348299
0.450075 0.412886 0.456943
0.578043 0.527744 0.564380
0.684763 0.635420 0.653373
0.322933 0.307197 0.344877
0.445643 0.409152 0.453139
0.573715 0.523763 0.560768
0.681438 0.631970 0.650579
0.762283 0.720708 0.717922
0.822264 0.790039 0.767632
0.569963 0.520134 0.557662
0.678396 0.628765 0.648057
0.759985 0.718114 0.715991
0.820536 0.788036 0.766217
0.867022 0.842665 0.803799
0.904024 0.886433 0.832656
0.757851 0.715679 0.714222
0.818879 0.786103 0.764874
0.865722 0.841129 0.802759
0.902939 0.885179 0.831854
0.933349 0.921157 0.854668
0.958426 0.950872 0.872845
0.864280 0.839426 0.801661
0.901762 0.883771 0.830946
0.932361 0.920039 0.853990
0.957651 0.949951 0.872268
0.978447 0.974535 0.886764
0.994966 0.994044 0.897968
0.125871 0.138385 0.142259
0.152178 0.162769 0.171219
0.194280 0.200442 0.217464
0.265432 0.260272 0.290671
0.373195 0.348391 0.390274
0.502032 0.457939 0.500980
0.192700 0.199033 0.215702
0.262862 0.258178 0.288061
0.369444 0.345322 0.386846
0.498074 0.454569 0.497571
0.620487 0.569094 0.599749
0.716896 0.670060 0.680123
0.365426 0.342007 0.383274
0.493548 0.450673 0.493790
0.616412 0.565157 0.596380
0.713920 0.666867 0.677660
0.786295 0.748249 0.737920
0.840512 0.811422 0.782500
0.613085 0.561786 0.593589
0.711224 0.663920 0.675402
0.784186 0.745801 0.736153
0.838919 0.809571 0.781227
0.881526 0.859818 0.815248
0.915739 0.900327 0.841568
0.782330 0.743622 0.734595
0.837429 0.807808 0.779998
0.880269 0.858321 0.814272
0.914780 0.899197 0.840843
0.943112 0.932736 0.861825
0.966481 0.960411 0.878512
0.878973 0.856790 0.813238
0.913656 0.897862 0.840021
0.942173 0.931645 0.861169
0.965750 0.959540 0.877976
0.984975 0.982258 0.891257
0.999929 0.999915 0.901259
