Assets/LUTs/Aden.cube
LUT_3D_SIZE 16
0.111542 0.111542 0.111542
0.111542 0.115301 0.115775
0.111542 0.119495 0.120508
0.111646 0.124176 0.125824
0.115774 0.129386 0.131789
0.122335 0.135254 0.138560
0.129553 0.141858 0.146265
0.137693 0.149375 0.155149
0.147028 0.158016 0.165463
0.157849 0.167944 0.177521
0.170563 0.179474 0.191630
0.185692 0.192924 0.208170
0.203729 0.208631 0.227588
0.225242 0.226908 0.250293
0.250901 0.248330 0.276438
0.280855 0.272918 0.305610
0.111542 0.119344 0.120331
0.111865 0.124049 0.125675
0.115617 0.129235 0.131628
0.122149 0.135102 0.138352
0.129359 0.141667 0.146057
0.137469 0.149166 0.154917
0.146765 0.157736 0.165186
0.157541 0.167660 0.177151
0.170224 0.179134 0.191183
0.185255 0.192505 0.207666
0.203191 0.208123 0.227002
0.224649 0.226426 0.249630
0.250184 0.247715 0.275614
0.280054 0.272263 0.304778
0.314118 0.300005 0.336790
0.351642 0.330649 0.371053
0.115408 0.129050 0.131392
0.121939 0.134844 0.138120
0.129146 0.141456 0.145791
0.137206 0.148907 0.154623
0.146445 0.157479 0.164856
0.157177 0.167339 0.176783
0.169814 0.178760 0.190743
0.184837 0.192130 0.207207
0.202721 0.207714 0.226474
0.224054 0.225899 0.248985
0.249478 0.247118 0.274867
0.279246 0.271577 0.303962
0.313180 0.299267 0.335948
0.350849 0.329990 0.370294
0.391486 0.363521 0.406361
0.433969 0.399120 0.443229
0.128839 0.141174 0.145484
0.136922 0.148623 0.154274
0.146126 0.157158 0.164454
0.156821 0.166993 0.176335
0.169386 0.178383 0.190277
0.184292 0.191648 0.206596
0.202066 0.207138 0.225781
0.223288 0.225230 0.248159
0.248591 0.246377 0.273945
0.278331 0.270802 0.303020
0.312083 0.298380 0.334867
0.349550 0.328983 0.369080
0.390087 0.362363 0.405098
0.432667 0.398015 0.442053
0.476239 0.435412 0.479174
0.519402 0.473544 0.515523
0.145813 0.156893 0.164112
0.156493 0.166705 0.176002
0.168999 0.178049 0.189861
0.183872 0.191256 0.206136
0.201601 0.206725 0.225256
0.222726 0.224735 0.247552
0.247861 0.245765 0.273178
0.277321 0.270005 0.302035
0.310951 0.297457 0.333792
0.348321 0.327957 0.367945
0.388692 0.361216 0.403856
0.431230 0.396862 0.440787
0.474719 0.434140 0.477889
0.518110 0.472457 0.514419
0.560262 0.511016 0.549625
0.600337 0.549172 0.582921
0.168508 0.177582 0.189290
0.183257 0.190721 0.205469
0.200865 0.206096 0.224486
0.221891 0.224032 0.246688
0.246930 0.244996 0.272218
0.276302 0.269145 0.301016
0.309763 0.296495 0.332662
0.347049 0.326913 0.366769
0.387381 0.360140 0.402678
0.429816 0.395669 0.439535
0.473304 0.432953 0.476677
0.516701 0.471239 0.513219
0.558944 0.509829 0.548486
0.598957 0.547915 0.581836
0.636108 0.584842 0.612793
0.669844 0.619696 0.640969
0.200207 0.205524 0.223779
0.221142 0.223414 0.245904
0.246062 0.244228 0.271355
0.275294 0.268310 0.300022
0.308681 0.295607 0.331644
0.345848 0.325946 0.365684
0.386074 0.359061 0.401515
0.428431 0.394527 0.438354
0.471858 0.431701 0.475432
0.515359 0.470023 0.512073
0.557572 0.508571 0.547345
0.597654 0.546676 0.580724
0.634806 0.583599 0.611721
0.668792 0.618629 0.640051
0.699721 0.651442 0.665784
0.727535 0.681765 0.688990
0.245019 0.243381 0.270347
0.274185 0.267430 0.299003
0.307475 0.294618 0.330531
0.344529 0.324847 0.364517
0.384694 0.357939 0.400297
0.427024 0.393301 0.437127
0.470424 0.430467 0.474212
0.513820 0.468685 0.510799
0.556121 0.507239 0.546112
0.596319 0.545425 0.579593
0.633613 0.582387 0.610695
0.667710 0.617539 0.639166
0.698727 0.650408 0.665007
0.726823 0.681003 0.688380
0.752184 0.709279 0.709504
0.774974 0.735214 0.728521
0.306317 0.293674 0.329480
0.343262 0.323827 0.363417
0.383316 0.356800 0.399139
0.425589 0.392126 0.435940
0.469030 0.429232 0.473025
0.512419 0.467396 0.509600
0.554742 0.505948 0.544987
0.595053 0.544190 0.578557
0.632414 0.581206 0.609709
0.666604 0.616350 0.638224
0.697712 0.649329 0.664137
0.725873 0.679988 0.687587
0.751325 0.708333 0.708794
0.774307 0.734440 0.727954
0.795139 0.758455 0.745232
0.814006 0.780381 0.760849
0.381842 0.355554 0.397864
0.424150 0.390862 0.434690
0.467588 0.427959 0.471829
0.511077 0.466194 0.508489
0.553505 0.504758 0.543928
0.593793 0.542959 0.577521
0.631262 0.580035 0.608755
0.665563 0.615297 0.637376
0.696738 0.648326 0.663330
0.724987 0.679015 0.686842
0.750523 0.707434 0.708118
0.773598 0.733626 0.727339
0.794481 0.757697 0.744731
0.813495 0.779811 0.760425
0.830864 0.800122 0.774699
0.846727 0.818771 0.787561
0.465993 0.426544 0.470500
0.509736 0.464947 0.507382
0.552180 0.503545 0.542860
0.592635 0.541803 0.576518
0.630128 0.578857 0.607806
0.664520 0.614186 0.636481
0.695752 0.647249 0.662545
0.724080 0.678026 0.686102
0.749685 0.706496 0.707430
0.772799 0.732719 0.726678
0.793755 0.756857 0.744104
0.812832 0.779033 0.759888
0.830263 0.799396 0.774166
0.846298 0.818230 0.787213
0.861075 0.835624 0.799067
0.874650 0.851699 0.809845
0.550873 0.502223 0.541752
0.591397 0.540512 0.575483
0.629091 0.577757 0.606908
0.663538 0.613111 0.635697
0.694906 0.646290 0.661793
0.723313 0.677144 0.685459
0.748986 0.705705 0.706852
0.772206 0.732030 0.726189
0.793206 0.756227 0.743661
0.812332 0.778448 0.759480
0.829773 0.798854 0.773791
0.845827 0.817679 0.786834
0.860616 0.835091 0.798707
0.874314 0.851261 0.809577
0.887014 0.866310 0.819547
0.898770 0.880262 0.828672
0.627832 0.576398 0.605890
0.662421 0.611921 0.634769
0.693901 0.645165 0.660968
0.722382 0.676090 0.684716
0.748127 0.704727 0.706162
0.771413 0.731118 0.725527
0.792493 0.755388 0.743054
0.811704 0.777739 0.758973
0.829226 0.798198 0.773345
0.845289 0.817051 0.786392
0.860107 0.834499 0.798295
0.873849 0.850729 0.809189
0.886563 0.865770 0.819188
0.898427 0.879794 0.828374
0.909531 0.892939 0.836844
0.919842 0.905190 0.844677
0.693150 0.644326 0.660366
0.721691 0.675319 0.684128
0.747487 0.703995 0.705620
0.770833 0.730451 0.725044
0.791944 0.754740 0.742608
0.811135 0.777045 0.758501
0.828700 0.797565 0.772894
0.844801 0.816456 0.786010
0.859640 0.833970 0.797935
0.873492 0.850286 0.808931
0.886244 0.865370 0.818943
0.898137 0.879462 0.828147
0.909239 0.892592 0.836641
0.919611 0.904928 0.844504
0.929374 0.916486 0.851739
0.938472 0.927240 0.858440
0.746707 0.703099 0.704954
0.770110 0.729584 0.724434
0.791276 0.753985 0.742080
0.810562 0.776368 0.758034
0.828135 0.796920 0.772483
0.844315 0.815898 0.785615
0.859221 0.833445 0.797589
0.872990 0.849695 0.808533
0.885805 0.864838 0.818598
0.897706 0.878951 0.827825
0.908825 0.892134 0.836347
0.919257 0.904482 0.844250
0.929027 0.916029 0.851488
0.938169 0.926914 0.858246
0.946811 0.937138 0.864519
0.954865 0.946644 0.870244
0.790631 0.753185 0.741531
0.809964 0.775643 0.757530
0.827566 0.796231 0.772034
0.843785 0.815255 0.785190
0.858698 0.832822 0.797188
0.872499 0.849129 0.808133
0.885297 0.864279 0.818209
0.897238 0.878401 0.827482
0.908378 0.891623 0.836019
0.918829 0.903979 0.843919
0.928618 0.915560 0.851178
0.937784 0.926447 0.857954
0.946434 0.936677 0.864247
0.954520 0.946259 0.870062
0.962124 0.955257 0.875447
0.969289 0.963717 0.880482
0.111542 0.112897 0.113058
0.111542 0.116789 0.117459
0.111542 0.121173 0.122384
0.112287 0.125995 0.127937
0.118133 0.131439 0.134180
0.124875 0.137550 0.141255
0.132415 0.144491 0.149356
0.140968 0.152401 0.158730
0.150795 0.161482 0.169659
0.162244 0.171945 0.182377
0.175789 0.184122 0.197313
0.191881 0.198327 0.214881
0.211088 0.214923 0.235402
0.234040 0.234300 0.259383
0.261318 0.256869 0.286677
0.292743 0.282625 0.316894
0.111558 0.120995 0.122231
0.112334 0.125844 0.127730
0.117923 0.131287 0.133972
0.124688 0.137368 0.141018
0.132198 0.144262 0.149107
0.140703 0.152163 0.158470
0.150506 0.161194 0.169310
0.161943 0.171659 0.182018
0.175437 0.183821 0.196920
0.191487 0.197970 0.214427
0.210645 0.214512 0.234936
0.233522 0.233864 0.258772
0.260670 0.256367 0.285982
0.292169 0.282141 0.316283
0.327687 0.311055 0.349321
0.366449 0.342812 0.384315
0.117680 0.131077 0.133712
0.124524 0.137236 0.140823
0.132012 0.144095 0.148899
0.140478 0.151925 0.158228
0.150239 0.160955 0.169051
0.161605 0.171369 0.181670
0.175051 0.183455 0.196497
0.191009 0.197557 0.213910
0.210084 0.214033 0.234306
0.232860 0.233285 0.258051
0.259864 0.255684 0.285128
0.291184 0.281332 0.315274
0.326491 0.310138 0.348174
0.365335 0.341906 0.383262
0.406831 0.376285 0.419728
0.449758 0.412516 0.456683
0.131691 0.143807 0.148571
0.140159 0.151629 0.157854
0.149882 0.160617 0.168642
0.161262 0.171038 0.181274
0.174646 0.183070 0.196059
0.190530 0.197101 0.213352
0.209499 0.213513 0.233687
0.232167 0.232679 0.257326
0.259073 0.255005 0.284308
0.290247 0.280560 0.314384
0.325446 0.309253 0.347196
0.364162 0.340971 0.382185
0.405595 0.375269 0.418623
0.448651 0.411653 0.455752
0.492325 0.449496 0.492775
0.535202 0.487807 0.528656
0.149511 0.160269 0.168236
0.160784 0.170592 0.180753
0.174086 0.182584 0.195457
0.189920 0.196566 0.212714
0.208804 0.212934 0.232925
0.231335 0.231997 0.256427
0.258065 0.254183 0.283280
0.289256 0.279742 0.313411
0.324317 0.308354 0.346112
0.362899 0.339942 0.381029
0.404172 0.374137 0.417393
0.447188 0.410422 0.454444
0.490781 0.448158 0.491440
0.533843 0.486658 0.527549
0.575314 0.525155 0.562125
0.614054 0.562691 0.594407
0.173655 0.182201 0.194971
0.189423 0.196142 0.212134
0.208183 0.212399 0.232297
0.230660 0.231426 0.255743
0.257281 0.253532 0.282526
0.288264 0.278939 0.312448
0.323182 0.307429 0.345057
0.361621 0.338887 0.379869
0.402839 0.373016 0.416193
0.445844 0.409303 0.453317
0.489426 0.447013 0.490281
0.532526 0.485507 0.526431
0.574016 0.523973 0.561029
0.613029 0.561753 0.593540
0.648978 0.598023 0.623553
0.681535 0.632049 0.650696
0.207385 0.211735 0.231464
0.229722 0.230649 0.254801
0.256224 0.252648 0.281482
0.287013 0.277909 0.311262
0.321817 0.306307 0.343803
0.360196 0.337726 0.378576
0.401315 0.371740 0.414840
0.444199 0.407925 0.451893
0.487780 0.445608 0.488898
0.530883 0.484059 0.525069
0.572468 0.522562 0.559745
0.611569 0.560327 0.592325
0.647599 0.596658 0.622386
0.680472 0.630957 0.649784
0.710303 0.662926 0.674619
0.737159 0.692454 0.696992
0.255220 0.251854 0.280508
0.285873 0.277013 0.310222
0.320606 0.305316 0.342706
0.359012 0.336752 0.377540
0.400097 0.370754 0.413805
0.442962 0.406858 0.450825
0.486523 0.444471 0.487809
0.529608 0.482923 0.523987
0.571204 0.521407 0.558694
0.610360 0.559171 0.591314
0.646449 0.595502 0.621420
0.679394 0.629816 0.648893
0.709298 0.661855 0.673790
0.736388 0.691619 0.696361
0.760840 0.719055 0.716704
0.782880 0.744305 0.735084
0.319380 0.304317 0.341612
0.357606 0.335584 0.376310
0.398605 0.369493 0.412514
0.441439 0.405563 0.449532
0.484997 0.443136 0.486539
0.528137 0.481573 0.522781
0.569798 0.520064 0.557535
0.609030 0.557889 0.590216
0.645263 0.594295 0.620438
0.678330 0.628706 0.648004
0.708332 0.660814 0.672987
0.735493 0.690609 0.695599
0.760019 0.718143 0.716039
0.782197 0.743501 0.734502
0.802284 0.766777 0.751177
0.820547 0.788053 0.766227
0.397217 0.368315 0.411335
0.440041 0.404324 0.448331
0.483635 0.441919 0.485377
0.526818 0.480326 0.521689
0.568567 0.518853 0.556490
0.607879 0.556713 0.589241
0.644152 0.593144 0.619523
0.677300 0.627589 0.647136
0.707372 0.659787 0.672202
0.734682 0.689725 0.694927
0.759229 0.717250 0.715364
0.781483 0.742693 0.733902
0.801647 0.766019 0.750640
0.820031 0.787439 0.765799
0.836865 0.807146 0.779557
0.852265 0.825268 0.791997
0.482133 0.440573 0.484166
0.525343 0.478993 0.520455
0.567221 0.517539 0.555380
0.606660 0.555471 0.588226
0.643069 0.591995 0.618602
0.676296 0.626547 0.646303
0.706481 0.658800 0.671456
0.733807 0.688749 0.694184
0.758473 0.716405 0.714735
0.780767 0.741866 0.733318
0.800988 0.765258 0.750111
0.819418 0.786736 0.765302
0.836310 0.806511 0.779114
0.851847 0.824759 0.791663
0.866173 0.841676 0.803124
0.879418 0.857320 0.813593
0.566119 0.516468 0.554439
0.605628 0.554406 0.587388
0.642117 0.590987 0.617803
0.675389 0.625560 0.645564
0.705643 0.657884 0.670743
0.732994 0.687854 0.693516
0.757717 0.715561 0.714119
0.780089 0.741089 0.732767
0.800379 0.764523 0.749598
0.818859 0.786063 0.764855
0.835777 0.805869 0.778676
0.851340 0.824163 0.791249
0.865696 0.841105 0.802747
0.879029 0.856850 0.813276
0.891406 0.871495 0.822959
0.902914 0.885114 0.831819
0.641008 0.589808 0.616886
0.674410 0.624478 0.644746
0.704759 0.656873 0.669994
0.732206 0.686928 0.692885
0.757038 0.714743 0.713546
0.779443 0.740341 0.732232
0.799779 0.763849 0.749112
0.818307 0.785442 0.764408
0.835303 0.805310 0.778284
0.850893 0.823646 0.790914
0.865292 0.840630 0.802418
0.878627 0.856381 0.812959
0.891050 0.871068 0.822698
0.902604 0.884765 0.831608
0.913431 0.897594 0.839801
0.923493 0.909533 0.847383
0.703807 0.655836 0.669253
0.731544 0.686169 0.692345
0.756404 0.714019 0.713028
0.778855 0.739670 0.731740
0.799224 0.763189 0.748673
0.817803 0.784838 0.763986
0.834794 0.804707 0.777877
0.850409 0.823074 0.790526
0.864843 0.840098 0.802092
0.878197 0.855903 0.812647
0.890626 0.870598 0.822349
0.902203 0.884295 0.831281
0.913038 0.897145 0.839519
0.923191 0.909135 0.847161
0.932719 0.920439 0.854227
0.941633 0.931001 0.860744
0.755683 0.713169 0.712412
0.778215 0.738900 0.731205
0.798626 0.762497 0.748177
0.817224 0.784149 0.763504
0.834269 0.804082 0.777453
0.849944 0.822510 0.790128
0.864385 0.839575 0.801726
0.877846 0.855449 0.812364
0.890306 0.870189 0.822104
0.901914 0.883928 0.831062
0.912783 0.896793 0.839330
0.922945 0.908868 0.846978
0.932474 0.920151 0.854066
0.941444 0.930784 0.860609
0.949858 0.940726 0.866709
0.957710 0.950031 0.872325
0.797807 0.761528 0.747476
0.816468 0.783274 0.762918
0.833620 0.803299 0.776909
0.849336 0.821761 0.789645
0.863792 0.838875 0.801253
0.877256 0.854751 0.811910
0.889731 0.869537 0.821680
0.901407 0.883327 0.830673
0.912285 0.896236 0.838966
0.922537 0.908365 0.846673
0.932074 0.919686 0.853760
0.941062 0.930323 0.860334
0.949500 0.940294 0.866440
0.957422 0.949677 0.872092
0.964836 0.958445 0.877342
0.971751 0.966617 0.882158
0.111542 0.114234 0.114604
0.111542 0.118319 0.119179
0.111557 0.122865 0.124310
0.114123 0.127915 0.130120
0.120512 0.133587 0.136621
0.127525 0.139999 0.144093
0.135405 0.147271 0.152639
0.144380 0.155574 0.162561
0.154780 0.165131 0.174073
0.166950 0.176198 0.187608
0.181368 0.189087 0.203466
0.198552 0.204169 0.222080
0.219078 0.221717 0.243858
0.243623 0.242296 0.269056
0.272571 0.266093 0.297547
0.305467 0.292982 0.328830
0.111654 0.122714 0.124174
0.113959 0.127781 0.129958
0.120319 0.133410 0.136434
0.127357 0.139818 0.143884
0.135217 0.147051 0.152417
0.144136 0.155346 0.162281
0.154495 0.164883 0.173757
0.166625 0.175931 0.187233
0.180985 0.188759 0.203017
0.198082 0.203746 0.221530
0.218547 0.221245 0.243241
0.242918 0.241698 0.268329
0.271687 0.265389 0.296669
0.304663 0.292303 0.327997
0.341444 0.322326 0.361874
0.381301 0.355029 0.397416
0.120104 0.133253 0.136236
0.127109 0.139575 0.143615
0.134929 0.146807 0.152129
0.143864 0.155067 0.161953
0.154149 0.164556 0.173407
0.166236 0.175548 0.186807
0.180557 0.188354 0.202536
0.197612 0.203305 0.220995
0.217968 0.220752 0.242616
0.242254 0.241100 0.267596
0.270878 0.264724 0.295865
0.303708 0.291531 0.327061
0.340385 0.321461 0.360845
0.380359 0.354320 0.396561
0.422589 0.389508 0.433406
0.465906 0.426370 0.470433
0.134686 0.146580 0.151845
0.143578 0.154803 0.161673
0.153875 0.164267 0.173080
0.165911 0.175255 0.186432
0.180150 0.187999 0.202096
0.197142 0.202872 0.220473
0.217385 0.220245 0.241972
0.241534 0.240518 0.266836
0.270013 0.264011 0.294982
0.302713 0.290746 0.326110
0.339245 0.320541 0.359778
0.379036 0.353240 0.395365
0.421185 0.388366 0.432128
0.464547 0.425310 0.469280
0.508090 0.463458 0.506023
0.550508 0.501910 0.541441
0.153421 0.163873 0.172597
0.165421 0.174830 0.185902
0.179639 0.187515 0.201511
0.196521 0.202331 0.219820
0.216688 0.219642 0.241236
0.240763 0.239841 0.266012
0.269073 0.263231 0.294034
0.301626 0.289835 0.325064
0.338089 0.319595 0.358692
0.377744 0.352184 0.394208
0.419790 0.387217 0.430924
0.463161 0.424140 0.468078
0.506700 0.462245 0.504823
0.549311 0.500857 0.540467
0.589985 0.539149 0.574324
0.627606 0.576267 0.605713
0.179057 0.187022 0.200885
0.195842 0.201746 0.219078
0.215886 0.218957 0.240397
0.239961 0.239192 0.265206
0.268168 0.262482 0.293149
0.300609 0.289022 0.324098
0.336888 0.318626 0.357575
0.376461 0.351123 0.393040
0.418431 0.386081 0.429743
0.461725 0.422919 0.466847
0.505252 0.460980 0.503594
0.547917 0.499605 0.539284
0.588530 0.537852 0.573126
0.626503 0.575164 0.604777
0.661261 0.610751 0.633763
0.692711 0.643948 0.660001
0.215146 0.218341 0.239641
0.238990 0.238371 0.264269
0.267079 0.261600 0.292120
0.299401 0.288023 0.322991
0.335632 0.317576 0.356438
0.375155 0.350048 0.391878
0.417038 0.384937 0.428513
0.460301 0.421709 0.465619
0.503803 0.459750 0.502369
0.546495 0.498322 0.538107
0.587229 0.536652 0.572032
0.625254 0.573953 0.603737
0.660103 0.609566 0.632826
0.691811 0.643003 0.659227
0.720565 0.674128 0.683176
0.746397 0.702771 0.704706
0.265958 0.260661 0.291023
0.298128 0.286980 0.321810
0.334221 0.316432 0.355167
0.373620 0.348785 0.390549
0.415468 0.383635 0.427163
0.458733 0.420374 0.464305
0.502246 0.458342 0.501048
0.544912 0.496885 0.536765
0.585719 0.535215 0.570773
0.623960 0.572681 0.602648
0.658915 0.608340 0.631802
0.690725 0.641849 0.658324
0.719547 0.673043 0.682328
0.745608 0.701928 0.704041
0.769157 0.728565 0.723645
0.790351 0.752911 0.741282
0.332977 0.315385 0.354049
0.372298 0.347696 0.389386
0.414113 0.382449 0.426004
0.457516 0.419286 0.463254
0.501023 0.457256 0.500039
0.543751 0.495795 0.535792
0.584602 0.534130 0.569848
0.622760 0.571505 0.601664
0.657813 0.607209 0.630889
0.689693 0.640778 0.657467
0.718602 0.672006 0.681546
0.744754 0.700960 0.703337
0.768375 0.727659 0.722983
0.789787 0.752268 0.740828
0.809189 0.774802 0.756889
0.826903 0.795463 0.771448
0.412713 0.381222 0.424821
0.455927 0.417914 0.461936
0.499503 0.455923 0.498792
0.542304 0.494451 0.534598
0.583244 0.532815 0.568720
0.621514 0.570218 0.600609
0.656648 0.606001 0.629936
0.688635 0.639661 0.656599
0.717661 0.670968 0.680762
0.743891 0.700000 0.702598
0.767602 0.726777 0.722344
0.789046 0.751428 0.740203
0.808547 0.774045 0.756349
0.826350 0.794824 0.770993
0.842674 0.813971 0.784292
0.857646 0.831602 0.796326
0.498126 0.454658 0.497644
0.541009 0.493210 0.533500
0.582033 0.531609 0.567727
0.620386 0.569079 0.599699
0.655622 0.604914 0.629079
0.687695 0.638638 0.655823
0.716793 0.670023 0.680031
0.743094 0.699104 0.701944
0.766871 0.725942 0.721736
0.788425 0.750695 0.739678
0.807969 0.773359 0.755863
0.825788 0.794185 0.770542
0.842158 0.813355 0.783837
0.857209 0.831093 0.795982
0.871163 0.847546 0.807074
0.884023 0.862766 0.817191
0.580752 0.530313 0.566627
0.619317 0.567953 0.598795
0.654611 0.603879 0.628242
0.686796 0.637654 0.655058
0.715981 0.669098 0.679346
0.742351 0.698253 0.701316
0.766178 0.725142 0.721169
0.787745 0.749899 0.739109
0.807352 0.772643 0.755370
0.825240 0.793518 0.770067
0.841639 0.812751 0.783437
0.856745 0.830534 0.795596
0.870710 0.847024 0.806731
0.883677 0.862356 0.816943
0.895726 0.876652 0.826319
0.906967 0.889935 0.834898
0.653701 0.602844 0.627493
0.685947 0.636712 0.654358
0.715183 0.668218 0.678710
0.741626 0.697399 0.700707
0.765498 0.724392 0.720616
0.787125 0.749165 0.738594
0.806738 0.771939 0.754879
0.824680 0.792878 0.769615
0.841128 0.812165 0.783025
0.856263 0.829982 0.795226
0.870262 0.846481 0.806381
0.883241 0.861844 0.816596
0.895335 0.876136 0.825982
0.906615 0.889513 0.834644
0.917190 0.902038 0.842659
0.927023 0.913683 0.850034
0.714341 0.667255 0.677987
0.740860 0.696524 0.700065
0.764813 0.723567 0.720019
0.786497 0.748427 0.738089
0.806178 0.771261 0.754398
0.824180 0.792257 0.769216
0.840659 0.811577 0.782624
0.855805 0.829459 0.794870
0.869853 0.846023 0.806071
0.882872 0.861413 0.816312
0.894979 0.875769 0.825729
0.906313 0.889145 0.834414
0.916881 0.901663 0.842441
0.926784 0.913396 0.849847
0.936092 0.924423 0.856709
0.944796 0.934731 0.863044
0.764096 0.722747 0.719445
0.785998 0.747861 0.737697
0.805711 0.770732 0.754029
0.823690 0.791708 0.768829
0.840197 0.811058 0.782272
0.855412 0.828946 0.794544
0.869448 0.845541 0.805729
0.882490 0.860949 0.816001
0.894623 0.875322 0.825461
0.905943 0.888723 0.834143
0.916522 0.901255 0.842173
0.926463 0.913019 0.849598
0.935779 0.924051 0.856487
0.944554 0.934438 0.862845
0.952768 0.944154 0.868777
0.960449 0.953249 0.874267
0.804882 0.769787 0.753376
0.823008 0.790882 0.768251
0.839564 0.810275 0.781751
0.854829 0.828261 0.794042
0.868907 0.844904 0.805312
0.881989 0.860347 0.815617
0.894148 0.874756 0.825102
0.905501 0.888206 0.833822
0.916136 0.900797 0.841885
0.926102 0.912600 0.849349
0.935443 0.923663 0.856244
0.944208 0.934047 0.862649
0.952479 0.943812 0.868571
0.960211 0.952965 0.874079
0.967476 0.961538 0.879153
0.974210 0.969516 0.883858
0.111542 0.115680 0.116248
0.111542 0.119934 0.121011
0.111734 0.124679 0.126391
0.116433 0.129952 0.132433
0.123008 0.135870 0.139263
0.130324 0.142576 0.147109
0.138588 0.150178 0.156109
0.148027 0.158906 0.166588
0.159004 0.169019 0.178796
0.171968 0.180725 0.193112
0.187323 0.194340 0.209937
0.205739 0.210340 0.229748
0.227694 0.228981 0.252832
0.253838 0.250709 0.279295
0.284363 0.275767 0.308914
0.318822 0.303845 0.341228
0.111879 0.124483 0.126202
0.116189 0.129757 0.132238
0.122801 0.135663 0.139047
0.130091 0.142338 0.146833
0.138306 0.149943 0.155841
0.147725 0.158652 0.166270
0.158679 0.168702 0.178448
0.171602 0.180364 0.192718
0.186910 0.193978 0.209464
0.205150 0.209829 0.229098
0.226981 0.228367 0.252045
0.252952 0.249999 0.278358
0.283301 0.274898 0.307853
0.317796 0.303045 0.340230
0.355915 0.334140 0.374864
0.396684 0.367818 0.410931
0.122599 0.135467 0.138842
0.129882 0.142127 0.146612
0.138072 0.149736 0.155574
0.147456 0.158400 0.165954
0.158379 0.168428 0.178103
0.171247 0.180046 0.192325
0.186483 0.193568 0.208987
0.204675 0.209393 0.228570
0.226401 0.227858 0.251413
0.252267 0.249400 0.277608
0.282437 0.274174 0.306981
0.316753 0.302156 0.339201
0.354678 0.333160 0.373721
0.395538 0.366861 0.409904
0.438325 0.402839 0.446948
0.481732 0.440164 0.483823
0.137780 0.149428 0.155218
0.147125 0.158103 0.165578
0.158015 0.168084 0.177696
0.170806 0.179642 0.191838
0.186003 0.193154 0.208443
0.204089 0.208894 0.227933
0.225713 0.227285 0.250653
0.251461 0.248718 0.276769
0.281512 0.273421 0.306037
0.315684 0.301292 0.338174
0.353512 0.332202 0.372635
0.394302 0.365884 0.408780
0.437000 0.401739 0.445759
0.480640 0.439240 0.482874
0.523941 0.477681 0.519300
0.565735 0.516072 0.554136
0.157636 0.167728 0.177236
0.170394 0.179275 0.191353
0.185510 0.192707 0.207910
0.203544 0.208399 0.227334
0.225095 0.226747 0.249974
0.250670 0.248087 0.275953
0.280563 0.272626 0.305120
0.314582 0.300409 0.337140
0.352309 0.331248 0.371530
0.392961 0.364797 0.407576
0.435585 0.400563 0.444533
0.479143 0.437997 0.481627
0.522447 0.476357 0.518030
0.564462 0.514944 0.553084
0.604110 0.552936 0.586130
0.640655 0.589447 0.616584
0.184875 0.192147 0.207228
0.202791 0.207765 0.226541
0.224230 0.226024 0.249099
0.249700 0.247264 0.274982
0.279487 0.271764 0.304082
0.313397 0.299458 0.336015
0.351002 0.330167 0.370339
0.391567 0.363624 0.406328
0.434136 0.399356 0.443301
0.477706 0.436778 0.480379
0.521031 0.475116 0.516819
0.563053 0.513678 0.551885
0.602785 0.551679 0.585013
0.639573 0.588407 0.615698
0.673169 0.623218 0.643710
0.703561 0.655642 0.669039
0.223357 0.225277 0.248221
0.248817 0.246556 0.274143
0.278508 0.270970 0.303139
0.312314 0.298557 0.335018
0.349788 0.329202 0.369271
0.390285 0.362560 0.405204
0.432787 0.398208 0.442105
0.476241 0.435510 0.479127
0.519579 0.473857 0.515603
0.561623 0.512391 0.550712
0.601423 0.550407 0.583888
0.638347 0.587196 0.614651
0.672023 0.622046 0.642756
0.702605 0.654616 0.668246
0.730322 0.684872 0.691306
0.755241 0.712727 0.712035
0.277282 0.269965 0.301996
0.310995 0.297480 0.333809
0.348406 0.328024 0.368001
0.388828 0.361357 0.403949
0.431337 0.396982 0.440862
0.474800 0.434272 0.477921
0.518174 0.472576 0.514413
0.560267 0.511130 0.549575
