Assets/LUTs/Amaro.cube
LUT_3D_SIZE 6
0.063599 0.000000 0.083710
0.336829 0.000000 0.083710
0.607587 0.000000 0.083710
0.763983 0.000000 0.083710
0.885065 0.000000 0.083710
0.975357 0.000000 0.083710
0.063599 0.262836 0.083710
0.336829 0.262836 0.083710
0.607587 0.262836 0.083710
0.763983 0.262836 0.083710
0.885065 0.262836 0.083710
0.975357 0.262836 0.083710
0.063599 0.611218 0.083710
0.336829 0.611218 0.083710
0.607587 0.611218 0.083710
0.763983 0.611218 0.083710
0.885065 0.611218 0.083710
0.975357 0.611218 0.083710
0.063599 0.818939 0.083710
0.336829 0.818939 0.083710
0.607587 0.818939 0.083710
0.763983 0.818939 0.083710
0.885065 0.818939 0.083710
0.975357 0.818939 0.083710
0.063599 0.902356 0.083710
0.336829 0.902356 0.083710
0.607587 0.902356 0.083710
0.763983 0.902356 0.083710
0.885065 0.902356 0.083710
0.975357 0.902356 0.083710
0.063599 0.999809 0.083710
0.336829 0.999809 0.083710
0.607587 0.999809 0.083710
0.763983 0.999809 0.083710
0.885065 0.999809 0.083710
0.975357 0.999809 0.083710
0.063599 0.000000 0.364637
0.336829 0.000000 0.364637
0.607587 0.000000 0.364637
0.763983 0.000000 0.364637
0.885065 0.000000 0.364637
0.975357 0.000000 0.364637
0.063599 0.262836 0.364637
0.336829 0.262836 0.364637
0.607587 0.262836 0.364637
0.763983 0.262836 0.364637
0.885065 0.262836 0.364637
0.975357 0.262836 0.364637
0.063599 0.611218 0.364637
0.336829 0.611218 0.364637
0.607587 0.611218 0.364637
0.763983 0.611218 0.364637
0.885065 0.611218 0.364637
0.975357 0.611218 0.364637
0.063599 0.818939 0.364637
0.336829 0.818939 0.364637
0.607587 0.818939 0.364637
0.763983 0.818939 0.364637
0.885065 0.818939 0.364637
0.975357 0.818939 0.364637
0.063599 0.902356 0.364637
0.336829 0.902356 0.364637
0.607587 0.902356 0.364637
0.763983 0.902356 0.364637
0.885065 0.902356 0.364637
0.975357 0.902356 0.364637
0.063599 0.999809 0.364637
0.336829 0.999809 0.364637
0.607587 0.999809 0.364637
0.763983 0.999809 0.364637
0.885065 0.999809 0.364637
0.975357 0.999809 0.364637
0.063599 0.000000 0.619946
0.336829 0.000000 0.619946
0.607587 0.000000 0.619946
0.763983 0.000000 0.619946
0.885065 0.000000 0.619946
0.975357 0.000000 0.619946
0.063599 0.262836 0.619946
0.336829 0.262836 0.619946
0.607587 0.262836 0.619946
0.763983 0.262836 0.619946
0.885065 0.262836 0.619946
0.975357 0.262836 0.619946
0.063599 0.611218 0.619946
0.336829 0.611218 0.619946
0.607587 0.611218 0.619946
0.763983 0.611218 0.619946
0.885065 0.611218 0.619946
0.975357 0.611218 0.619946
0.063599 0.818939 0.619946
0.336829 0.818939 0.619946
0.607587 0.818939 0.619946
0.763983 0.818939 0.619946
0.885065 0.818939 0.619946
0.975357 0.818939 0.619946
0.063599 0.902356 0.619946
0.336829 0.902356 0.619946
0.607587 0.902356 0.619946
0.763983 0.902356 0.619946
0.885065 0.902356 0.619946
0.975357 0.902356 0.619946
0.063599 0.999809 0.619946
0.336829 0.999809 0.619946
0.607587 0.999809 0.619946
0.763983 0.999809 0.619946
0.885065 0.999809 0.619946
0.975357 0.999809 0.619946
0.063599 0.000000 0.690363
0.336829 0.000000 0.690363
0.607587 0.000000 0.690363
0.763983 0.000000 0.690363
0.885065 0.000000 0.690363
0.975357 0.000000 0.690363
0.063599 0.262836 0.690363
0.336829 0.262836 0.690363
0.607587 0.262836 0.690363
0.763983 0.262836 0.690363
0.885065 0.262836 0.690363
0.975357 0.262836 0.690363
0.063599 0.611218 0.690363
0.336829 0.611218 0.690363
0.607587 0.611218 0.690363
0.763983 0.611218 0.690363
0.885065 0.611218 0.690363
0.975357 0.611218 0.690363
0.063599 0.818939 0.690363
0.336829 0.818939 0.690363
0.607587 0.818939 0.690363
0.763983 0.818939 0.690363
0.885065 0.818939 0.690363
0.975357 0.818939 0.690363
0.063599 0.902356 0.690363
0.336829 0.902356 0.690363
0.607587 0.902356 0.690363
0.763983 0.902356 0.690363
0.885065 0.902356 0.690363
0.975357 0.902356 0.690363
0.063599 0.999809 0.690363
0.336829 0.999809 0.690363
0.607587 0.999809 0.690363
0.763983 0.999809 0.690363
0.885065 0.999809 0.690363
0.975357 0.999809 0.690363
0.063599 0.000000 0.777850
0.336829 0.000000 0.777850
0.607587 0.000000 0.777850
0.763983 0.000000 0.777850
0.885065 0.000000 0.777850
0.975357 0.000000 0.777850
0.063599 0.262836 0.777850
0.336829 0.262836 0.777850
0.607587 0.262836 0.777850
0.763983 0.262836 0.777850
0.885065 0.262836 0.777850
0.975357 0.262836 0.777850
0.063599 0.611218 0.777850
0.336829 0.611218 0.777850
0.607587 0.611218 0.777850
0.763983 0.611218 0.777850
0.885065 0.611218 0.777850
0.975357 0.611218 0.777850
0.063599 0.818939 0.777850
0.336829 0.818939 0.777850
0.607587 0.818939 0.777850
0.763983 0.818939 0.777850
0.885065 0.818939 0.777850
0.975357 0.818939 0.777850
0.063599 0.902356 0.777850
0.336829 0.902356 0.777850
0.607587 0.902356 0.777850
0.763983 0.902356 0.777850
0.885065 0.902356 0.777850
0.975357 0.902356 0.777850
0.063599 0.999809 0.777850
0.336829 0.999809 0.777850
0.607587 0.999809 0.777850
0.763983 0.999809 0.777850
0.885065 0.999809 0.777850
0.975357 0.999809 0.777850
0.063599 0.000000 0.950793
0.336829 0.000000 0.950793
0.607587 0.000000 0.950793
0.763983 0.000000 0.950793
0.885065 0.000000 0.950793
0.975357 0.000000 0.950793
0.063599 0.262836 0.950793
0.336829 0.262836 0.950793
0.607587 0.262836 0.950793
0.763983 0.262836 0.950793
0.885065 0.262836 0.950793
0.975357 0.262836 0.950793
0.063599 0.611218 0.950793
0.336829 0.611218 0.950793
0.607587 0.611218 0.950793
0.763983 0.611218 0.950793
0.885065 0.611218 0.950793
0.975357 0.611218 0.950793
0.063599 0.818939 0.950793
0.336829 0.818939 0.950793
0.607587 0.818939 0.950793
0.763983 0.818939 0.950793
0.885065 0.818939 0.950793
0.975357 0.818939 0.950793
0.063599 0.902356 0.950793
0.336829 0.902356 0.950793
0.607587 0.902356 0.950793
0.763983 0.902356 0.950793
0.885065 0.902356 0.950793
0.975357 0.902356 0.950793
0.063599 0.999809 0.950793
0.336829 0.999809 0.950793
0.607587 0.999809 0.950793
0.763983 0.999809 0.950793
0.885065 0.999809 0.950793
0.975357 0.999809 0.950793
