Assets/LUTs/Amaro.cube
LUT_3D_SIZE 16
0.063599 0.000000 0.083710
0.142365 0.000000 0.083710
0.232292 0.000000 0.083710
0.336829 0.000000 0.083710
0.444122 0.000000 0.083710
0.537913 0.000000 0.083710
0.607587 0.000000 0.083710
0.661648 0.000000 0.083710
0.713006 0.000000 0.083710
0.763983 0.000000 0.083710
0.809387 0.000000 0.083710
0.849447 0.000000 0.083710
0.885065 0.000000 0.083710
0.917240 0.000000 0.083710
0.946966 0.000000 0.083710
0.975357 0.000000 0.083710
0.063599 0.079486 0.083710
0.142365 0.079486 0.083710
0.232292 0.079486 0.083710
0.336829 0.079486 0.083710
0.444122 0.079486 0.083710
0.537913 0.079486 0.083710
0.607587 0.079486 0.083710
0.661648 0.079486 0.083710
0.713006 0.079486 0.083710
0.763983 0.079486 0.083710
0.809387 0.079486 0.083710
0.849447 0.079486 0.083710
0.885065 0.079486 0.083710
0.917240 0.079486 0.083710
0.946966 0.079486 0.083710
0.975357 0.079486 0.083710
0.063599 0.165008 0.083710
0.142365 0.165008 0.083710
0.232292 0.165008 0.083710
0.336829 0.165008 0.083710
0.444122 0.165008 0.083710
0.537913 0.165008 0.083710
0.607587 0.165008 0.083710
0.661648 0.165008 0.083710
0.713006 0.165008 0.083710
0.763983 0.165008 0.083710
0.809387 0.165008 0.083710
0.849447 0.165008 0.083710
0.885065 0.165008 0.083710
0.917240 0.165008 0.083710
0.946966 0.165008 0.083710
0.975357 0.165008 0.083710
0.063599 0.262836 0.083710
0.142365 0.262836 0.083710
0.232292 0.262836 0.083710
0.336829 0.262836 0.083710
0.444122 0.262836 0.083710
0.537913 0.262836 0.083710
0.607587 0.262836 0.083710
0.661648 0.262836 0.083710
0.713006 0.262836 0.083710
0.763983 0.262836 0.083710
0.809387 0.262836 0.083710
0.849447 0.262836 0.083710
0.885065 0.262836 0.083710
0.917240 0.262836 0.083710
0.946966 0.262836 0.083710
0.975357 0.262836 0.083710
0.063599 0.375625 0.083710
0.142365 0.375625 0.083710
0.232292 0.375625 0.083710
0.336829 0.375625 0.083710
0.444122 0.375625 0.083710
0.537913 0.375625 0.083710
0.607587 0.375625 0.083710
0.661648 0.375625 0.083710
0.713006 0.375625 0.083710
0.763983 0.375625 0.083710
0.809387 0.375625 0.083710
0.849447 0.375625 0.083710
0.885065 0.375625 0.083710
0.917240 0.375625 0.083710
0.946966 0.375625 0.083710
0.975357 0.375625 0.083710
0.063599 0.495697 0.083710
0.142365 0.495697 0.083710
0.232292 0.495697 0.083710
0.336829 0.495697 0.083710
0.444122 0.495697 0.083710
0.537913 0.495697 0.083710
0.607587 0.495697 0.083710
0.661648 0.495697 0.083710
0.713006 0.495697 0.083710
0.763983 0.495697 0.083710
0.809387 0.495697 0.083710
0.849447 0.495697 0.083710
0.885065 0.495697 0.083710
0.917240 0.495697 0.083710
0.946966 0.495697 0.083710
0.975357 0.495697 0.083710
0.063599 0.611218 0.083710
0.142365 0.611218 0.083710
0.232292 0.611218 0.083710
0.336829 0.611218 0.083710
0.444122 0.611218 0.083710
0.537913 0.611218 0.083710
0.607587 0.611218 0.083710
0.661648 0.611218 0.083710
0.713006 0.611218 0.083710
0.763983 0.611218 0.083710
0.809387 0.611218 0.083710
0.849447 0.611218 0.083710
0.885065 0.611218 0.083710
0.917240 0.611218 0.083710
0.946966 0.611218 0.083710
0.975357 0.611218 0.083710
0.063599 0.707328 0.083710
0.142365 0.707328 0.083710
0.232292 0.707328 0.083710
0.336829 0.707328 0.083710
0.444122 0.707328 0.083710
0.537913 0.707328 0.083710
0.607587 0.707328 0.083710
0.661648 0.707328 0.083710
0.713006 0.707328 0.083710
0.763983 0.707328 0.083710
0.809387 0.707328 0.083710
0.849447 0.707328 0.083710
0.885065 0.707328 0.083710
0.917240 0.707328 0.083710
0.946966 0.707328 0.083710
0.975357 0.707328 0.083710
0.063599 0.774467 0.083710
0.142365 0.774467 0.083710
0.232292 0.774467 0.083710
0.336829 0.774467 0.083710
0.444122 0.774467 0.083710
0.537913 0.774467 0.083710
0.607587 0.774467 0.083710
0.661648 0.774467 0.083710
0.713006 0.774467 0.083710
0.763983 0.774467 0.083710
0.809387 0.774467 0.083710
0.849447 0.774467 0.083710
0.885065 0.774467 0.083710
0.917240 0.774467 0.083710
0.946966 0.774467 0.083710
0.975357 0.774467 0.083710
0.063599 0.818939 0.083710
0.142365 0.818939 0.083710
0.232292 0.818939 0.083710
0.336829 0.818939 0.083710
0.444122 0.818939 0.083710
0.537913 0.818939 0.083710
0.607587 0.818939 0.083710
0.661648 0.818939 0.083710
0.713006 0.818939 0.083710
0.763983 0.818939 0.083710
0.809387 0.818939 0.083710
0.849447 0.818939 0.083710
0.885065 0.818939 0.083710
0.917240 0.818939 0.083710
0.946966 0.818939 0.083710
0.975357 0.818939 0.083710
0.063599 0.851084 0.083710
0.142365 0.851084 0.083710
0.232292 0.851084 0.083710
0.336829 0.851084 0.083710
0.444122 0.851084 0.083710
0.537913 0.851084 0.083710
0.607587 0.851084 0.083710
0.661648 0.851084 0.083710
0.713006 0.851084 0.083710
0.763983 0.851084 0.083710
0.809387 0.851084 0.083710
0.849447 0.851084 0.083710
0.885065 0.851084 0.083710
0.917240 0.851084 0.083710
0.946966 0.851084 0.083710
0.975357 0.851084 0.083710
0.063599 0.877643 0.083710
0.142365 0.877643 0.083710
0.232292 0.877643 0.083710
0.336829 0.877643 0.083710
0.444122 0.877643 0.083710
0.537913 0.877643 0.083710
0.607587 0.877643 0.083710
0.661648 0.877643 0.083710
0.713006 0.877643 0.083710
0.763983 0.877643 0.083710
0.809387 0.877643 0.083710
0.849447 0.877643 0.083710
0.885065 0.877643 0.083710
0.917240 0.877643 0.083710
0.946966 0.877643 0.083710
0.975357 0.877643 0.083710
0.063599 0.902356 0.083710
0.142365 0.902356 0.083710
0.232292 0.902356 0.083710
0.336829 0.902356 0.083710
0.444122 0.902356 0.083710
0.537913 0.902356 0.083710
0.607587 0.902356 0.083710
0.661648 0.902356 0.083710
0.713006 0.902356 0.083710
0.763983 0.902356 0.083710
0.809387 0.902356 0.083710
0.849447 0.902356 0.083710
0.885065 0.902356 0.083710
0.917240 0.902356 0.083710
0.946966 0.902356 0.083710
0.975357 0.902356 0.083710
0.063599 0.929075 0.083710
0.142365 0.929075 0.083710
0.232292 0.929075 0.083710
0.336829 0.929075 0.083710
0.444122 0.929075 0.083710
0.537913 0.929075 0.083710
0.607587 0.929075 0.083710
0.661648 0.929075 0.083710
0.713006 0.929075 0.083710
0.763983 0.929075 0.083710
0.809387 0.929075 0.083710
0.849447 0.929075 0.083710
0.885065 0.929075 0.083710
0.917240 0.929075 0.083710
0.946966 0.929075 0.083710
0.975357 0.929075 0.083710
0.063599 0.961497 0.083710
0.142365 0.961497 0.083710
0.232292 0.961497 0.083710
0.336829 0.961497 0.083710
0.444122 0.961497 0.083710
0.537913 0.961497 0.083710
0.607587 0.961497 0.083710
0.661648 0.961497 0.083710
0.713006 0.961497 0.083710
0.763983 0.961497 0.083710
0.809387 0.961497 0.083710
0.849447 0.961497 0.083710
0.885065 0.961497 0.083710
0.917240 0.961497 0.083710
0.946966 0.961497 0.083710
0.975357 0.961497 0.083710
0.063599 0.999809 0.083710
0.142365 0.999809 0.083710
0.232292 0.999809 0.083710
0.336829 0.999809 0.083710
0.444122 0.999809 0.083710
0.537913 0.999809 0.083710
0.607587 0.999809 0.083710
0.661648 0.999809 0.083710
0.713006 0.999809 0.083710
0.763983 0.999809 0.083710
0.809387 0.999809 0.083710
0.849447 0.999809 0.083710
0.885065 0.999809 0.083710
0.917240 0.999809 0.083710
0.946966 0.999809 0.083710
0.975357 0.999809 0.083710
0.063599 0.000000 0.173368
0.142365 0.000000 0.173368
0.232292 0.000000 0.173368
0.336829 0.000000 0.173368
0.444122 0.000000 0.173368
0.537913 0.000000 0.173368
0.607587 0.000000 0.173368
0.661648 0.000000 0.173368
0.713006 0.000000 0.173368
0.763983 0.000000 0.173368
0.809387 0.000000 0.173368
0.849447 0.000000 0.173368
0.885065 0.000000 0.173368
0.917240 0.000000 0.173368
0.946966 0.000000 0.173368
0.975357 0.000000 0.173368
0.063599 0.079486 0.173368
0.142365 0.079486 0.173368
0.232292 0.079486 0.173368
0.336829 0.079486 0.173368
0.444122 0.079486 0.173368
0.537913 0.079486 0.173368
0.607587 0.079486 0.173368
0.661648 0.079486 0.173368
0.713006 0.079486 0.173368
0.763983 0.079486 0.173368
0.809387 0.079486 0.173368
0.849447 0.079486 0.173368
0.885065 0.079486 0.173368
0.917240 0.079486 0.173368
0.946966 0.079486 0.173368
0.975357 0.079486 0.173368
0.063599 0.165008 0.173368
0.142365 0.165008 0.173368
0.232292 0.165008 0.173368
0.336829 0.165008 0.173368
0.444122 0.165008 0.173368
0.537913 0.165008 0.173368
0.607587 0.165008 0.173368
0.661648 0.165008 0.173368
0.713006 0.165008 0.173368
0.763983 0.165008 0.173368
0.809387 0.165008 0.173368
0.849447 0.165008 0.173368
0.885065 0.165008 0.173368
0.917240 0.165008 0.173368
0.946966 0.165008 0.173368
0.975357 0.165008 0.173368
0.063599 0.262836 0.173368
0.142365 0.262836 0.173368
0.232292 0.262836 0.173368
0.336829 0.262836 0.173368
0.444122 0.262836 0.173368
0.537913 0.262836 0.173368
0.607587 0.262836 0.173368
0.661648 0.262836 0.173368
0.713006 0.262836 0.173368
0.763969 0.262836 0.173368
0.809387 0.262836 0.173368
0.849447 0.262836 0.173368
0.885065 0.262836 0.173368
0.917240 0.262836 0.173368
0.946966 0.262836 0.173368
0.975357 0.262836 0.173368
0.063599 0.375625 0.173368
0.142365 0.375625 0.173368
0.232292 0.375625 0.173368
0.336829 0.375625 0.173368
0.444122 0.375625 0.173368
0.537913 0.375625 0.173368
0.607587 0.375625 0.173368
0.661648 0.375625 0.173368
0.713006 0.375625 0.173368
0.763983 0.375625 0.173368
0.809387 0.375625 0.173368
0.849447 0.375625 0.173368
0.885065 0.375625 0.173368
0.917240 0.375625 0.173368
0.946966 0.375625 0.173368
0.975357 0.375625 0.173368
0.063599 0.495697 0.173368
0.142365 0.495697 0.173368
0.232292 0.495697 0.173368
0.336829 0.495697 0.173368
0.444122 0.495697 0.173368
0.537913 0.495697 0.173368
0.607587 0.495697 0.173368
0.661648 0.495697 0.173368
0.713006 0.495697 0.173368
0.763971 0.495697 0.173368
0.809387 0.495697 0.173368
0.849447 0.495697 0.173368
0.885065 0.495697 0.173368
0.917240 0.495697 0.173368
0.946966 0.495697 0.173368
0.975357 0.495697 0.173368
0.063599 0.611218 0.173368
0.142365 0.611218 0.173368
0.232292 0.611218 0.173368
0.336829 0.611218 0.173368
0.444122 0.611218 0.173368
0.537913 0.611218 0.173368
0.607587 0.611218 0.173368
0.661648 0.611218 0.173368
0.713006 0.611218 0.173368
0.763973 0.611218 0.173368
0.809387 0.611218 0.173368
0.849447 0.611218 0.173368
0.885065 0.611218 0.173368
0.917240 0.611218 0.173368
0.946966 0.611218 0.173368
0.975357 0.611218 0.173368
0.063599 0.707328 0.173368
0.142365 0.707328 0.173368
0.232292 0.707328 0.173368
0.336829 0.707328 0.173368
0.444122 0.707328 0.173368
0.537913 0.707328 0.173368
0.607587 0.707328 0.173368
0.661648 0.707328 0.173368
0.713006 0.707328 0.173368
0.763983 0.707328 0.173368
0.809387 0.707328 0.173368
0.849447 0.707328 0.173368
0.885065 0.707328 0.173368
0.917240 0.707328 0.173368
0.946966 0.707328 0.173368
0.975357 0.707328 0.173368
0.063599 0.774467 0.173368
0.142365 0.774467 0.173368
0.232292 0.774467 0.173368
0.336829 0.774467 0.173368
0.444122 0.774467 0.173368
0.537913 0.774467 0.173368
0.607587 0.774467 0.173368
0.661648 0.774467 0.173368
0.713006 0.774467 0.173368
0.763983 0.774467 0.173368
0.809387 0.774467 0.173368
0.849447 0.774467 0.173368
0.885065 0.774467 0.173368
0.917240 0.774467 0.173368
0.946966 0.774467 0.173368
0.975357 0.774467 0.173368
0.063599 0.818939 0.173368
0.142365 0.818939 0.173368
0.232292 0.818939 0.173368
0.336829 0.818939 0.173368
0.444122 0.818939 0.173368
0.537913 0.818939 0.173368
0.607587 0.818939 0.173368
0.661648 0.818939 0.173368
0.713006 0.818939 0.173368
0.763983 0.818939 0.173368
0.809387 0.818939 0.173368
0.849447 0.818939 0.173368
0.885065 0.818939 0.173368
0.917240 0.818939 0.173368
0.946966 0.818939 0.173368
0.975357 0.818939 0.173368
0.063599 0.851084 0.173368
0.142365 0.851084 0.173368
0.232292 0.851084 0.173368
0.336829 0.851084 0.173368
0.444122 0.851084 0.173368
0.537913 0.851084 0.173368
0.607587 0.851084 0.173368
0.661648 0.851084 0.173368
0.713006 0.851084 0.173368
0.763983 0.851084 0.173368
0.809387 0.851084 0.173368
0.849447 0.851084 0.173368
0.885065 0.851084 0.173368
0.917240 0.851084 0.173368
0.946966 0.851084 0.173368
0.975357 0.851084 0.173368
0.063599 0.877643 0.173368
0.142365 0.877643 0.173368
0.232292 0.877643 0.173368
0.336829 0.877643 0.173368
0.444122 0.877643 0.173368
0.537913 0.877643 0.173368
0.607587 0.877643 0.173368
0.661648 0.877643 0.173368
0.713006 0.877643 0.173368
0.763983 0.877643 0.173368
0.809387 0.877643 0.173368
0.849447 0.877643 0.173368
0.885065 0.877643 0.173368
0.917240 0.877643 0.173368
0.946966 0.877643 0.173368
0.975357 0.877643 0.173368
0.063599 0.902356 0.173368
0.142365 0.902356 0.173368
0.232292 0.902356 0.173368
0.336829 0.902356 0.173368
0.444122 0.902356 0.173368
0.537913 0.902356 0.173368
0.607587 0.902356 0.173368
0.661648 0.902356 0.173368
0.713006 0.902356 0.173368
0.763983 0.902356 0.173368
0.809387 0.902356 0.173368
0.849447 0.902356 0.173368
0.885065 0.902356 0.173368
0.917240 0.902356 0.173368
0.946966 0.902356 0.173368
0.975357 0.902356 0.173368
0.063599 0.929075 0.173368
0.142365 0.929075 0.173368
0.232292 0.929075 0.173368
0.336829 0.929075 0.173368
0.444122 0.929075 0.173368
0.537913 0.929075 0.173368
0.607587 0.929075 0.173368
0.661648 0.929075 0.173368
0.713006 0.929075 0.173368
0.763983 0.929075 0.173368
0.809387 0.929075 0.173368
0.849447 0.929075 0.173368
0.885065 0.929075 0.173368
0.917240 0.929075 0.173368
0.946966 0.929075 0.173368
0.975357 0.929075 0.173368
0.063599 0.961497 0.173368
0.142365 0.961497 0.173368
0.232292 0.961497 0.173368
0.336829 0.961497 0.173368
0.444122 0.961497 0.173368
0.537913 0.961497 0.173368
0.607587 0.961497 0.173368
0.661648 0.961497 0.173368
0.713006 0.961497 0.173368
0.763983 0.961497 0.173368
0.809387 0.961497 0.173368
0.849447 0.961497 0.173368
0.885065 0.961497 0.173368
0.917240 0.961497 0.173368
0.946966 0.961497 0.173368
0.975357 0.961497 0.173368
0.063599 0.999809 0.173368
0.142365 0.999809 0.173368
0.232292 0.999809 0.173368
0.336829 0.999809 0.173368
0.444122 0.999809 0.173368
0.537913 0.999809 0.173368
0.607587 0.999809 0.173368
0.661648 0.999809 0.173368
0.713006 0.999809 0.173368
0.763983 0.999809 0.173368
0.809387 0.999809 0.173368
0.849447 0.999809 0.173368
0.885065 0.999809 0.173368
0.917240 0.999809 0.173368
0.946966 0.999809 0.173368
0.975357 0.999809 0.173368
0.063599 0.000000 0.266534
0.142365 0.000000 0.266534
0.232292 0.000000 0.266534
0.336829 0.000000 0.266534
0.444122 0.000000 0.266534
0.537913 0.000000 0.266534
0.607587 0.000000 0.266534
0.661648 0.000000 0.266534
0.713006 0.000000 0.266534
0.763983 0.000000 0.266534
0.809387 0.000000 0.266534
0.849447 0.000000 0.266534
0.885065 0.000000 0.266534
0.917240 0.000000 0.266534
0.946966 0.000000 0.266534
0.975357 0.000000 0.266534
0.063599 0.079486 0.266534
0.142365 0.079486 0.266534
0.232292 0.079486 0.266534
0.336829 0.079486 0.266534
0.444122 0.079486 0.266534
0.537913 0.079486 0.266534
0.607587 0.079486 0.266534
0.661648 0.079486 0.266534
0.713006 0.079486 0.266534
0.763983 0.079486 0.266534
0.809387 0.079486 0.266534
0.849447 0.079486 0.266534
0.885065 0.079486 0.266534
0.917240 0.079486 0.266534
0.946966 0.079486 0.266534
0.975357 0.079486 0.266534
0.063599 0.165008 0.266534
0.142365 0.165008 0.266534
0.232292 0.165008 0.266534
0.336829 0.165008 0.266534
0.444122 0.165008 0.266534
0.537913 0.165008 0.266534
0.607587 0.165008 0.266534
0.661648 0.165008 0.266534
0.713006 0.165008 0.266534
0.763983 0.165008 0.266534
0.809387 0.165008 0.266534
0.849447 0.165008 0.266534
0.885065 0.165008 0.266534
0.917240 0.165008 0.266534
0.946966 0.165008 0.266534
0.975357 0.165008 0.266534
0.063599 0.262836 0.266534
0.142365 0.262836 0.266534
0.232292 0.262836 0.266534
0.336829 0.262836 0.266534
0.444122 0.262836 0.266534
0.537913 0.262836 0.266534
0.607587 0.262836 0.266534
0.661648 0.262836 0.266534
0.713006 0.262836 0.266534
0.763970 0.262836 0.266534
0.809387 0.262836 0.266534
0.849447 0.262836 0.266534
0.885065 0.262836 0.266534
0.917240 0.262836 0.266534
0.946966 0.262836 0.266534
0.975357 0.262836 0.266534
0.063599 0.375625 0.266534
0.142365 0.375625 0.266534
0.232292 0.375625 0.266534
0.336829 0.375625 0.266534
0.444122 0.375625 0.266534
0.537913 0.375625 0.266534
0.607587 0.375625 0.266534
0.661648 0.375625 0.266534
0.713006 0.375625 0.266534
0.763983 0.375625 0.266534
0.809387 0.375625 0.266534
0.849447 0.375625 0.266534
0.885065 0.375625 0.266534
0.917240 0.375625 0.266534
0.946966 0.375625 0.266534
0.975357 0.375625 0.266534
0.063599 0.495697 0.266534
0.142365 0.495697 0.266534
0.232292 0.495697 0.266534
0.336829 0.495697 0.266534
0.444122 0.495697 0.266534
0.537913 0.495697 0.266534
0.607587 0.495697 0.266534
0.661648 0.495697 0.266534
0.713006 0.495697 0.266534
0.763983 0.495697 0.266534
0.809387 0.495697 0.266534
0.849447 0.495697 0.266534
0.885065 0.495697 0.266534
0.917240 0.495697 0.266534
0.946966 0.495697 0.266534
0.975357 0.495697 0.266534
0.063599 0.611218 0.266534
0.142365 0.611218 0.266534
0.232292 0.611218 0.266534
0.336829 0.611218 0.266534
0.444122 0.611218 0.266534
0.537913 0.611218 0.266534
0.607587 0.611218 0.266534
0.661648 0.611218 0.266534
0.713006 0.611218 0.266534
0.763983 0.611218 0.266534
0.809387 0.611218 0.266534
0.849447 0.611218 0.266534
0.885065 0.611218 0.266534
0.917240 0.611218 0.266534
0.946966 0.611218 0.266534
0.975357 0.611218 0.266534
0.063599 0.707328 0.266534
0.142365 0.707328 0.266534
0.232292 0.707328 0.266534
0.336829 0.707328 0.266534
0.444122 0.707328 0.266534
0.537913 0.707328 0.266534
0.607587 0.707328 0.266534
0.661648 0.707328 0.266534
0.713006 0.707328 0.266534
0.763983 0.707328 0.266534
0.809387 0.707328 0.266534
0.849447 0.707328 0.266534
0.885065 0.707328 0.266534
0.917240 0.707328 0.266534
0.946966 0.707328 0.266534
0.975357 0.707328 0.266534
0.063599 0.774467 0.266534
0.142365 0.774467 0.266534
0.232292 0.774467 0.266534
0.336829 0.774467 0.266534
0.444122 0.774467 0.266534
0.537913 0.774467 0.266534
0.607587 0.774467 0.266534
0.661648 0.774467 0.266534
0.713006 0.774467 0.266534
0.763983 0.774467 0.266534
0.809387 0.774467 0.266534
0.849447 0.774467 0.266534
0.885065 0.774467 0.266534
0.917240 0.774467 0.266534
0.946966 0.774467 0.266534
0.975357 0.774467 0.266534
0.063599 0.818939 0.266534
0.142365 0.818939 0.266534
0.232292 0.818939 0.266534
0.336829 0.818939 0.266534
0.444122 0.818939 0.266534
0.537913 0.818939 0.266534
0.607587 0.818939 0.266534
0.661648 0.818939 0.266534
0.713006 0.818939 0.266534
0.763983 0.818939 0.266534
0.809387 0.818939 0.266534
0.849447 0.818939 0.266534
0.885065 0.818939 0.266534
0.917240 0.818939 0.266534
0.946966 0.818939 0.266534
0.975357 0.818939 0.266534
0.063599 0.851084 0.266534
0.142365 0.851084 0.266534
0.232292 0.851084 0.266534
0.336829 0.851084 0.266534
0.444122 0.851084 0.266534
0.537913 0.851084 0.266534
0.607587 0.851084 0.266534
0.661648 0.851084 0.266534
0.713006 0.851084 0.266534
0.763983 0.851084 0.266534
0.809387 0.851084 0.266534
0.849447 0.851084 0.266534
0.885065 0.851084 0.266534
0.917240 0.851084 0.266534
0.946966 0.851084 0.266534
0.975357 0.851084 0.266534
0.063599 0.877643 0.266534
0.142365 0.877643 0.266534
0.232292 0.877643 0.266534
0.336829 0.877643 0.266534
0.444122 0.877643 0.266534
0.537913 0.877643 0.266534
0.607587 0.877643 0.266534
0.661648 0.877643 0.266534
0.713006 0.877643 0.266534
0.763983 0.877643 0.266534
0.809387 0.877643 0.266534
0.849447 0.877643 0.266534
0.885065 0.877643 0.266534
0.917240 0.877643 0.266534
0.946966 0.877643 0.266534
0.975357 0.877643 0.266534
0.063599 0.902356 0.266534
0.142365 0.902356 0.266534
0.232292 0.902356 0.266534
0.336829 0.902356 0.266534
0.444122 0.902356 0.266534
0.537913 0.902356 0.266534
0.607587 0.902356 0.266534
0.661648 0.902356 0.266534
0.713006 0.902356 0.266534
0.763983 0.902356 0.266534
0.809387 0.902356 0.266534
0.849447 0.902356 0.266534
0.885065 0.902356 0.266534
0.917240 0.902356 0.266534
0.946966 0.902356 0.266534
0.975357 0.902356 0.266534
0.063599 0.929075 0.266534
0.142365 0.929075 0.266534
0.232292 0.929075 0.266534
0.336829 0.929075 0.266534
0.444122 0.929075 0.266534
0.537913 0.929075 0.266534
0.607587 0.929075 0.266534
0.661648 0.929075 0.266534
0.713006 0.929075 0.266534
0.763983 0.929075 0.266534
0.809387 0.929075 0.266534
0.849447 0.929075 0.266534
0.885065 0.929075 0.266534
0.917240 0.929075 0.266534
0.946966 0.929075 0.266534
0.975357 0.929075 0.266534
0.063599 0.961497 0.266534
0.142365 0.961497 0.266534
0.232292 0.961497 0.266534
0.336829 0.961497 0.266534
0.444122 0.961497 0.266534
0.537913 0.961497 0.266534
0.607587 0.961497 0.266534
0.661648 0.961497 0.266534
0.713006 0.961497 0.266534
0.763983 0.961497 0.266534
0.809387 0.961497 0.266534
0.849447 0.961497 0.266534
0.885065 0.961497 0.266534
0.917240 0.961497 0.266534
0.946966 0.961497 0.266534
0.975357 0.961497 0.266534
0.063599 0.999809 0.266534
0.142365 0.999809 0.266534
0.232292 0.999809 0.266534
0.336829 0.999809 0.266534
0.444122 0.999809 0.266534
0.537913 0.999809 0.266534
0.607587 0.999809 0.266534
0.661648 0.999809 0.266534
0.713006 0.999809 0.266534
0.763983 0.999809 0.266534
0.809387 0.999809 0.266534
0.849447 0.999809 0.266534
0.885065 0.999809 0.266534
0.917240 0.999809 0.266534
0.946966 0.999809 0.266534
0.975357 0.999809 0.266534
0.063599 0.000000 0.364637
0.142365 0.000000 0.364637
0.232292 0.000000 0.364637
0.336829 0.000000 0.364637
0.444122 0.000000 0.364637
0.537913 0.000000 0.364637
0.607587 0.000000 0.364637
0.661648 0.000000 0.364637
0.713006 0.000000 0.364637
0.763983 0.000000 0.364637
0.809387 0.000000 0.364637
0.849447 0.000000 0.364637
0.885065 0.000000 0.364637
0.917240 0.000000 0.364637
0.946966 0.000000 0.364637
0.975357 0.000000 0.364637
0.063599 0.079486 0.364637
0.142365 0.079486 0.364637
0.232292 0.079486 0.364637
0.336829 0.079486 0.364637
0.444122 0.079486 0.364637
0.537913 0.079486 0.364637
0.607587 0.079486 0.364637
0.661648 0.079486 0.364637
0.713006 0.079486 0.364637
0.763969 0.079486 0.364637
0.809387 0.079486 0.364637
0.849447 0.079486 0.364637
0.885065 0.079486 0.364637
0.917240 0.079486 0.364637
0.946966 0.079486 0.364637
0.975357 0.079486 0.364637
0.063599 0.165008 0.364637
0.142365 0.165008 0.364637
0.232292 0.165008 0.364637
0.336829 0.165008 0.364637
0.444122 0.165008 0.364637
0.537913 0.165008 0.364637
0.607587 0.165008 0.364637
0.661648 0.165008 0.364637
0.713006 0.165008 0.364637
0.763970 0.165008 0.364637
0.809387 0.165008 0.364637
0.849447 0.165008 0.364637
0.885065 0.165008 0.364637
0.917240 0.165008 0.364637
0.946966 0.165008 0.364637
0.975357 0.165008 0.364637
0.063599 0.262836 0.364637
0.142365 0.262836 0.364637
0.232292 0.262836 0.364637
0.336829 0.262836 0.364637
0.444122 0.262836 0.364637
0.537913 0.262836 0.364637
0.607587 0.262836 0.364637
0.661648 0.262836 0.364637
0.713006 0.262836 0.364637
0.763983 0.262836 0.364637
0.809387 0.262836 0.364637
0.849447 0.262836 0.364637
0.885065 0.262836 0.364637
0.917240 0.262836 0.364637
0.946966 0.262836 0.364637
0.975357 0.262836 0.364637
0.063599 0.375625 0.364637
0.142365 0.375625 0.364637
0.232292 0.375625 0.364637
0.336829 0.375625 0.364637
0.444122 0.375625 0.364637
0.537913 0.375625 0.364637
0.607587 0.375625 0.364637
0.661648 0.375625 0.364637
0.713006 0.375625 0.364637
0.763983 0.375625 0.364637
0.809387 0.375625 0.364637
0.849447 0.375625 0.364637
0.885065 0.375625 0.364637
0.917240 0.375625 0.364637
0.946966 0.375625 0.364637
0.975357 0.375625 0.364637
0.063599 0.495697 0.364637
0.142365 0.495697 0.364637
0.232292 0.495697 0.364637
0.336829 0.495697 0.364637
0.444122 0.495697 0.364637
0.537913 0.495697 0.364637
0.607587 0.495697 0.364637
0.661648 0.495697 0.364637
0.713006 0.495697 0.364637
0.763983 0.495697 0.364637
0.809387 0.495697 0.364637
0.849447 0.495697 0.364637
0.885065 0.495697 0.364637
0.917240 0.495697 0.364637
0.946966 0.495697 0.364637
0.975357 0.495697 0.364637
0.063599 0.611218 0.364637
0.142365 0.611218 0.364637
0.232292 0.611218 0.364637
0.336829 0.611218 0.364637
0.444122 0.611218 0.364637
0.537913 0.611218 0.364637
0.607587 0.611218 0.364637
0.661648 0.611218 0.364637
0.713006 0.611218 0.364637
0.763983 0.611218 0.364637
0.809387 0.611218 0.364637
0.849447 0.611218 0.364637
0.885065 0.611218 0.364637
0.917240 0.611218 0.364637
0.946966 0.611218 0.364637
0.975357 0.611218 0.364637
0.063599 0.707328 0.364637
0.142365 0.707328 0.364637
0.232292 0.707328 0.364637
0.336829 0.707328 0.364637
0.444122 0.707328 0.364637
0.537913 0.707328 0.364637
0.607587 0.707328 0.364637
0.661648 0.707328 0.364637
