Assets/LUTs/B&W Light.cube
LUT_3D_SIZE 16
0.104279 0.104279 0.104279
0.115759 0.115759 0.115759
0.128797 0.128797 0.128797
0.143872 0.143872 0.143872
0.161259 0.161259 0.161259
0.180806 0.180806 0.180806
0.201666 0.201666 0.201666
0.223149 0.223149 0.223149
0.243948 0.243948 0.243948
0.263208 0.263208 0.263208
0.280202 0.280202 0.280202
0.294924 0.294924 0.294924
0.308130 0.308130 0.308130
0.320296 0.320296 0.320296
0.331578 0.331578 0.331578
0.342810 0.342810 0.342810
0.128149 0.128149 0.128149
0.142256 0.142256 0.142256
0.157781 0.157781 0.157781
0.175299 0.175299 0.175299
0.195032 0.195032 0.195032
0.216771 0.216771 0.216771
0.239635 0.239635 0.239635
0.262790 0.262790 0.262790
0.284956 0.284956 0.284956
0.305335 0.305335 0.305335
0.323205 0.323205 0.323205
0.338587 0.338587 0.338587
0.352360 0.352360 0.352360
0.364967 0.364967 0.364967
0.376656 0.376656 0.376656
0.388257 0.388257 0.388257
0.157640 0.157640 0.157640
0.174074 0.174074 0.174074
0.191801 0.191801 0.191801
0.211425 0.211425 0.211425
0.233138 0.233138 0.233138
0.256745 0.256745 0.256745
0.281221 0.281221 0.281221
0.305732 0.305732 0.305732
0.329037 0.329037 0.329037
0.350316 0.350316 0.350316
0.368735 0.368735 0.368735
0.384805 0.384805 0.384805
0.398980 0.398980 0.398980
0.411936 0.411936 0.411936
0.423976 0.423976 0.423976
0.435829 0.435829 0.435829
0.193011 0.193011 0.193011
0.211522 0.211522 0.211522
0.231305 0.231305 0.231305
0.252695 0.252695 0.252695
0.275953 0.275953 0.275953
0.301052 0.301052 0.301052
0.326991 0.326991 0.326991
0.352560 0.352560 0.352560
0.376815 0.376815 0.376815
0.398721 0.398721 0.398721
0.417804 0.417804 0.417804
0.434285 0.434285 0.434285
0.448759 0.448759 0.448759
0.461895 0.461895 0.461895
0.474290 0.474290 0.474290
0.486156 0.486155 0.486155
0.234873 0.234873 0.234873
0.255108 0.255108 0.255108
0.276440 0.276440 0.276440
0.299218 0.299218 0.299218
0.323997 0.323997 0.323997
0.350328 0.350328 0.350328
0.377359 0.377359 0.377359
0.403851 0.403851 0.403851
0.428784 0.428784 0.428784
0.451259 0.451259 0.451259
0.470726 0.470726 0.470726
0.487474 0.487474 0.487474
0.502189 0.502189 0.502189
0.515524 0.515524 0.515524
0.527978 0.527978 0.527978
0.540011 0.540011 0.540011
0.282236 0.282236 0.282236
0.303922 0.303922 0.303922
0.326540 0.326540 0.326540
0.350493 0.350493 0.350493
0.376377 0.376377 0.376377
0.403714 0.403714 0.403714
0.431539 0.431539 0.431539
0.458691 0.458691 0.458691
0.484151 0.484151 0.484151
0.506952 0.506952 0.506952
0.526662 0.526662 0.526662
0.543547 0.543547 0.543547
0.558400 0.558400 0.558400
0.571824 0.571824 0.571824
0.584378 0.584378 0.584378
0.596387 0.596387 0.596387
0.332856 0.332856 0.332856
0.355616 0.355616 0.355616
0.379121 0.379121 0.379121
0.404077 0.404077 0.404077
0.430652 0.430652 0.430652
0.458730 0.458730 0.458730
0.487029 0.487029 0.487029
0.514638 0.514638 0.514638
0.540325 0.540325 0.540325
0.563362 0.563362 0.563362
0.583079 0.583079 0.583079
0.600081 0.600081 0.600081
0.614875 0.614875 0.614875
0.628251 0.628251 0.628251
0.640661 0.640661 0.640661
0.652671 0.652671 0.652671
0.383905 0.383905 0.383905
0.407362 0.407362 0.407362
0.431679 0.431679 0.431679
0.457220 0.457220 0.457220
0.484296 0.484296 0.484296
0.512693 0.512693 0.512693
0.541377 0.541377 0.541377
0.569092 0.569092 0.569092
0.594922 0.594922 0.594922
0.617895 0.617895 0.617895
0.637642 0.637642 0.637642
0.654460 0.654460 0.654460
0.669121 0.669121 0.669121
0.682287 0.682287 0.682287
0.694553 0.694553 0.694553
0.706237 0.706237 0.706237
0.432753 0.432753 0.432753
0.456798 0.456798 0.456798
0.481433 0.481433 0.481433
0.507353 0.507353 0.507353
0.534763 0.534763 0.534763
0.563378 0.563378 0.563378
0.592083 0.592083 0.592083
0.619853 0.619853 0.619853
0.645546 0.645546 0.645546
0.668343 0.668343 0.668343
0.687726 0.687726 0.687726
0.704246 0.704246 0.704246
0.718603 0.718603 0.718603
0.731485 0.731485 0.731485
0.743310 0.743310 0.743310
0.754753 0.754753 0.754753
0.477124 0.477124 0.477124
0.501487 0.501487 0.501487
0.526414 0.526414 0.526414
0.552451 0.552451 0.552451
0.579981 0.579981 0.579981
0.608647 0.608647 0.608647
0.637302 0.637302 0.637302
0.664806 0.664806 0.664806
0.690158 0.690158 0.690158
0.712514 0.712514 0.712514
0.731527 0.731527 0.731527
0.747595 0.747595 0.747595
0.761491 0.761491 0.761491
0.773920 0.773920 0.773920
0.785400 0.785400 0.785400
0.796254 0.796254 0.796254
0.515787 0.515787 0.515787
0.540214 0.540214 0.540214
0.565329 0.565329 0.565329
0.591382 0.591382 0.591382
0.618887 0.618887 0.618887
0.647349 0.647349 0.647349
0.675785 0.675785 0.675785
0.702916 0.702916 0.702916
0.727798 0.727798 0.727798
0.749626 0.749626 0.749626
0.768135 0.768135 0.768135
0.783704 0.783704 0.783704
0.797133 0.797133 0.797133
0.808998 0.808998 0.808998
0.820073 0.820073 0.820073
0.830395 0.830395 0.830395
0.549032 0.549032 0.549032
0.573623 0.573623 0.573623
0.598622 0.598622 0.598622
0.624662 0.624662 0.624662
0.652059 0.652059 0.652059
0.680353 0.680353 0.680353
0.708346 0.708346 0.708346
0.735015 0.735015 0.735015
0.759316 0.759316 0.759316
0.780628 0.780628 0.780628
0.798498 0.798498 0.798498
0.813506 0.813506 0.813506
0.826401 0.826401 0.826401
0.837881 0.837881 0.837881
0.848433 0.848433 0.848433
0.858318 0.858318 0.858318
0.578174 0.578174 0.578174
0.602775 0.602775 0.602775
0.627846 0.627846 0.627846
0.653760 0.653760 0.653760
0.680818 0.680818 0.680818
0.708773 0.708773 0.708773
0.736371 0.736371 0.736371
0.762469 0.762469 0.762469
0.786211 0.786211 0.786211
0.806848 0.806848 0.806848
0.824150 0.824150 0.824150
0.838714 0.838714 0.838714
0.851123 0.851123 0.851123
0.862041 0.862041 0.862041
0.872121 0.872121 0.872121
0.881523 0.881523 0.881523
0.604637 0.604637 0.604637
0.629171 0.629171 0.629171
0.654004 0.654004 0.654004
0.679750 0.679750 0.679750
0.706647 0.706647 0.706647
0.734183 0.734183 0.734183
0.761201 0.761201 0.761201
0.786799 0.786799 0.786799
0.809881 0.809881 0.809881
0.829943 0.829943 0.829943
0.846593 0.846593 0.846593
0.860564 0.860564 0.860564
0.872446 0.872446 0.872446
0.882993 0.882993 0.882993
0.892523 0.892523 0.892523
0.901582 0.901582 0.901582
0.629277 0.629277 0.629277
0.653714 0.653714 0.653714
0.678373 0.678373 0.678373
0.703833 0.703833 0.703833
0.730290 0.730290 0.730290
0.757374 0.757374 0.757374
0.783931 0.783931 0.783931
0.808799 0.808799 0.808799
0.831227 0.831227 0.831227
0.850602 0.850602 0.850602
0.866760 0.866760 0.866760
0.880184 0.880184 0.880184
0.891555 0.891555 0.891555
0.901515 0.901515 0.901515
0.910652 0.910652 0.910652
0.919121 0.919121 0.919121
0.652809 0.652809 0.652809
0.677085 0.677085 0.677085
0.701452 0.701452 0.701452
0.726655 0.726655 0.726655
0.752672 0.752672 0.752672
0.779303 0.779303 0.779303
0.805202 0.805202 0.805202
0.829470 0.829470 0.829470
0.851245 0.851245 0.851245
0.869806 0.869806 0.869806
0.885328 0.885328 0.885328
0.898203 0.898203 0.898203
0.909029 0.909029 0.909029
0.918597 0.918597 0.918597
0.927141 0.927141 0.927141
0.935278 0.935278 0.935278
0.108294 0.108294 0.108294
0.120241 0.120241 0.120241
0.133899 0.133899 0.133899
0.149371 0.149371 0.149371
0.167231 0.167231 0.167231
0.187170 0.187170 0.187170
0.208614 0.208614 0.208614
0.230328 0.230328 0.230328
0.251425 0.251425 0.251425
0.270837 0.270837 0.270837
0.288004 0.288004 0.288004
0.303015 0.303015 0.303015
0.316321 0.316321 0.316321
0.328482 0.328482 0.328482
0.340020 0.340020 0.340020
0.351107 0.351107 0.351107
0.133147 0.133147 0.133147
0.147714 0.147714 0.147714
0.163763 0.163763 0.163763
0.181591 0.181591 0.181591
0.201708 0.201708 0.201708
0.223820 0.223820 0.223820
0.247137 0.247137 0.247137
0.270482 0.270482 0.270482
0.292910 0.292910 0.292910
0.313371 0.313371 0.313371
0.331376 0.331376 0.331376
0.346905 0.346905 0.346905
0.360854 0.360854 0.360854
0.373397 0.373397 0.373397
0.385372 0.385372 0.385372
0.396810 0.396810 0.396810
0.163496 0.163496 0.163496
0.180305 0.180305 0.180305
0.198565 0.198565 0.198565
0.218357 0.218357 0.218357
0.240444 0.240444 0.240444
0.264321 0.264321 0.264321
0.289074 0.289074 0.289074
0.313828 0.313828 0.313828
0.337349 0.337349 0.337349
0.358669 0.358669 0.358669
0.377329 0.377329 0.377329
0.393390 0.393390 0.393390
0.407695 0.407695 0.407695
0.420617 0.420617 0.420617
0.432877 0.432877 0.432877
0.444548 0.444548 0.444548
0.199767 0.199767 0.199767
0.218581 0.218581 0.218581
0.238554 0.238554 0.238554
0.260222 0.260222 0.260222
0.283779 0.283779 0.283779
0.309140 0.309140 0.309140
0.335216 0.335216 0.335216
0.360980 0.360980 0.360980
0.385333 0.385333 0.385333
0.407376 0.407376 0.407376
0.426507 0.426507 0.426507
0.443060 0.443060 0.443060
0.457595 0.457595 0.457595
0.470732 0.470732 0.470732
0.483170 0.483170 0.483170
0.495019 0.495019 0.495019
0.242279 0.242279 0.242279
0.262657 0.262657 0.262657
0.284287 0.284287 0.284287
0.307304 0.307304 0.307304
0.332190 0.332190 0.332190
0.358711 0.358711 0.358711
0.385927 0.385927 0.385927
0.412530 0.412530 0.412530
0.437559 0.437559 0.437559
0.460092 0.460092 0.460092
0.479566 0.479566 0.479566
0.496390 0.496390 0.496390
0.511155 0.511155 0.511155
0.524461 0.524461 0.524461
0.537002 0.537002 0.537002
0.548972 0.548972 0.548972
0.290177 0.290177 0.290177
0.311954 0.311954 0.311954
0.334820 0.334820 0.334820
0.358957 0.358957 0.358957
0.384894 0.384894 0.384894
0.412340 0.412340 0.412340
0.440313 0.440313 0.440313
0.467516 0.467516 0.467516
0.493037 0.493037 0.493037
0.515889 0.515889 0.515889
0.535603 0.535603 0.535603
0.552584 0.552584 0.552584
0.567401 0.567401 0.567401
0.580781 0.580781 0.580781
0.593357 0.593357 0.593357
0.605313 0.605313 0.605313
0.341125 0.341125 0.341125
0.364040 0.364040 0.364040
0.387724 0.387724 0.387724
0.412690 0.412690 0.412690
0.439473 0.439473 0.439473
0.467579 0.467579 0.467579
0.495958 0.495958 0.495958
0.523602 0.523602 0.523602
0.549365 0.549365 0.549365
0.572333 0.572333 0.572333
0.592111 0.592111 0.592111
0.609038 0.609038 0.609038
0.623874 0.623874 0.623874
0.637263 0.637263 0.637263
0.649668 0.649668 0.649668
0.661612 0.661612 0.661612
0.392514 0.392514 0.392514
0.416152 0.416152 0.416152
0.440435 0.440435 0.440435
0.466027 0.466027 0.466027
0.493199 0.493199 0.493199
0.521744 0.521744 0.521744
0.550415 0.550415 0.550415
0.578163 0.578163 0.578163
0.603962 0.603962 0.603962
0.626868 0.626868 0.626868
0.646571 0.646571 0.646571
0.663373 0.663373 0.663373
0.678014 0.678014 0.678014
0.691203 0.691203 0.691203
0.703309 0.703309 0.703309
0.714967 0.714967 0.714967
0.441538 0.441538 0.441538
0.465657 0.465657 0.465657
0.490410 0.490410 0.490410
0.516253 0.516253 0.516253
0.543752 0.543752 0.543752
0.572400 0.572400 0.572400
0.601151 0.601151 0.601151
0.628842 0.628842 0.628842
0.654512 0.654512 0.654512
0.677178 0.677178 0.677178
0.696572 0.696572 0.696572
0.712973 0.712973 0.712973
0.727219 0.727219 0.727219
0.740053 0.740053 0.740053
0.751867 0.751867 0.751867
0.763090 0.763090 0.763090
0.486033 0.486033 0.486033
0.510463 0.510463 0.510463
0.535446 0.535446 0.535446
0.561457 0.561457 0.561457
0.588957 0.588957 0.588957
0.617604 0.617604 0.617604
0.646218 0.646218 0.646218
0.673664 0.673664 0.673664
0.698924 0.698924 0.698924
0.721175 0.721175 0.721175
0.740064 0.740064 0.740064
0.756055 0.756055 0.756055
0.769857 0.769857 0.769857
0.782130 0.782130 0.782130
0.793528 0.793528 0.793528
0.804250 0.804250 0.804250
0.524797 0.524797 0.524797
0.549247 0.549247 0.549247
0.574315 0.574315 0.574315
0.600405 0.600405 0.600405
0.627869 0.627869 0.627869
0.656289 0.656289 0.656289
0.684649 0.684649 0.684649
0.711670 0.711670 0.711670
0.736404 0.736404 0.736404
0.758045 0.758045 0.758045
0.776383 0.776383 0.776383
0.791870 0.791870 0.791870
0.805114 0.805114 0.805114
0.816955 0.816955 0.816955
0.827782 0.827782 0.827782
0.838100 0.838100 0.838100
0.558037 0.558037 0.558037
0.582599 0.582599 0.582599
0.607697 0.607697 0.607697
0.633610 0.633610 0.633610
0.660964 0.660964 0.660964
0.689143 0.689143 0.689143
0.717056 0.717056 0.717056
0.743553 0.743553 0.743553
0.767714 0.767714 0.767714
0.788761 0.788761 0.788761
0.806496 0.806496 0.806496
0.821415 0.821415 0.821415
0.834193 0.834193 0.834193
0.845437 0.845437 0.845437
0.855838 0.855838 0.855838
0.865606 0.865606 0.865606
0.587321 0.587321 0.587321
0.611861 0.611861 0.611861
0.636765 0.636765 0.636765
0.662643 0.662643 0.662643
0.689673 0.689673 0.689673
0.717494 0.717494 0.717494
0.744903 0.744903 0.744903
0.770881 0.770881 0.770881
0.794330 0.794330 0.794330
0.814779 0.814779 0.814779
0.831942 0.831942 0.831942
0.846239 0.846239 0.846239
0.858496 0.858496 0.858496
0.869372 0.869372 0.869372
0.879166 0.879166 0.879166
0.888446 0.888446 0.888446
0.613569 0.613569 0.613569
0.638079 0.638079 0.638079
0.663010 0.663010 0.663010
0.688533 0.688533 0.688533
0.715315 0.715315 0.715315
0.742689 0.742689 0.742689
0.769555 0.769555 0.769555
0.794930 0.794930 0.794930
0.817785 0.817785 0.817785
0.837567 0.837567 0.837567
0.854111 0.854111 0.854111
0.867809 0.867809 0.867809
0.879507 0.879507 0.879507
0.889880 0.889880 0.889880
0.899316 0.899316 0.899316
0.908077 0.908077 0.908077
0.638188 0.638188 0.638188
0.662526 0.662526 0.662526
0.687131 0.687131 0.687131
0.712543 0.712543 0.712543
0.738893 0.738893 0.738893
0.765809 0.765809 0.765809
0.792041 0.792041 0.792041
0.816751 0.816751 0.816751
0.838936 0.838936 0.838936
0.858068 0.858068 0.858068
0.873888 0.873888 0.873888
0.887068 0.887068 0.887068
0.898289 0.898289 0.898289
0.908157 0.908157 0.908157
0.916986 0.916986 0.916986
0.925421 0.925421 0.925421
0.661643 0.661643 0.661643
0.685851 0.685851 0.685851
0.710156 0.710156 0.710156
0.735192 0.735192 0.735192
0.761154 0.761154 0.761154
0.787512 0.787512 0.787512
0.813127 0.813127 0.813127
0.837122 0.837122 0.837122
0.858564 0.858564 0.858564
0.877031 0.877031 0.877031
0.892298 0.892298 0.892298
0.904765 0.904765 0.904765
0.915447 0.915447 0.915447
0.924807 0.924807 0.924807
0.933146 0.933146 0.933146
0.941079 0.941079 0.941079
0.112602 0.112602 0.112602
0.125093 0.125093 0.125093
0.139136 0.139136 0.139136
0.155149 0.155149 0.155149
0.173477 0.173477 0.173477
0.193912 0.193912 0.193912
0.215616 0.215616 0.215616
0.237720 0.237720 0.237720
0.259088 0.259088 0.259088
0.278791 0.278791 0.278791
0.296111 0.296111 0.296111
0.311149 0.311149 0.311149
0.324568 0.324568 0.324568
0.336897 0.336897 0.336897
0.348549 0.348549 0.348549
0.359737 0.359737 0.359737
0.138460 0.138460 0.138460
0.153445 0.153445 0.153445
0.169857 0.169857 0.169857
0.188187 0.188187 0.188187
0.208682 0.208682 0.208682
0.231182 0.231182 0.231182
0.254691 0.254691 0.254691
0.278353 0.278353 0.278353
0.300988 0.300988 0.300988
0.321703 0.321703 0.321703
0.339848 0.339848 0.339848
0.355471 0.355471 0.355471
0.369409 0.369409 0.369409
0.382179 0.382179 0.382179
0.393997 0.393997 0.393997
0.405676 0.405676 0.405676
0.169691 0.169691 0.169691
0.186874 0.186874 0.186874
0.205352 0.205352 0.205352
0.225632 0.225632 0.225632
0.248008 0.248008 0.248008
0.272170 0.272170 0.272170
0.297174 0.297174 0.297174
0.322120 0.322120 0.322120
0.345778 0.345778 0.345778
0.367318 0.367318 0.367318
0.386076 0.386076 0.386076
0.402178 0.402178 0.402178
0.416516 0.416516 0.416516
0.429570 0.429570 0.429570
0.441689 0.441688 0.441688
0.453598 0.453598 0.453598
0.206636 0.206636 0.206636
0.225749 0.225749 0.225749
0.246103 0.246103 0.246103
0.268006 0.268006 0.268006
0.291830 0.291830 0.291830
0.317366 0.317366 0.317366
0.343713 0.343713 0.343713
0.369599 0.369599 0.369599
0.394134 0.394134 0.394134
0.416218 0.416218 0.416218
0.435481 0.435481 0.435481
0.452058 0.452058 0.452058
0.466647 0.466647 0.466647
0.479871 0.479871 0.479871
0.492281 0.492281 0.492281
0.504179 0.504179 0.504179
0.249772 0.249772 0.249772
0.270503 0.270503 0.270503
0.292310 0.292310 0.292310
0.315592 0.315592 0.315592
0.340658 0.340658 0.340658
0.367370 0.367370 0.367370
0.394661 0.394661 0.394661
0.421396 0.421396 0.421396
0.446548 0.446548 0.446548
0.469138 0.469138 0.469138
0.488702 0.488702 0.488702
0.505522 0.505522 0.505522
0.520262 0.520262 0.520262
0.533633 0.533633 0.533633
0.546176 0.546176 0.546176
0.558186 0.558186 0.558186
0.298208 0.298208 0.298208
0.320289 0.320289 0.320289
0.343274 0.343274 0.343274
0.367506 0.367506 0.367506
0.393699 0.393699 0.393699
0.421262 0.421262 0.421262
0.449279 0.449279 0.449279
0.476624 0.476624 0.476624
0.502166 0.502166 0.502166
0.525050 0.525050 0.525050
0.544816 0.544816 0.544816
0.561745 0.561745 0.561745
0.576583 0.576583 0.576583
0.589981 0.589981 0.589981
0.602541 0.602541 0.602541
0.614525 0.614525 0.614525
0.349643 0.349643 0.349643
0.372678 0.372678 0.372678
0.396468 0.396468 0.396468
0.421626 0.421626 0.421626
0.448388 0.448388 0.448388
0.476645 0.476645 0.476645
0.505076 0.505076 0.505076
0.532757 0.532757 0.532757
0.558506 0.558506 0.558506
0.581526 0.581526 0.581526
0.601325 0.601325 0.601325
0.618238 0.618238 0.618238
0.633033 0.633033 0.633033
0.646392 0.646392 0.646392
0.658720 0.658720 0.658720
0.670638 0.670638 0.670638
0.401276 0.401276 0.401276
0.424993 0.424993 0.424993
0.449436 0.449436 0.449436
0.475110 0.475110 0.475110
0.502327 0.502327 0.502327
0.530839 0.530839 0.530839
0.559559 0.559559 0.559559
0.587300 0.587300 0.587300
0.613106 0.613106 0.613106
0.636068 0.636068 0.636068
0.655680 0.655680 0.655680
0.672411 0.672411 0.672411
0.686986 0.686986 0.686986
0.700062 0.700062 0.700062
0.712182 0.712182 0.712182
0.723816 0.723816 0.723816
0.450577 0.450577 0.450576
0.474715 0.474715 0.474715
0.499470 0.499470 0.499470
0.525454 0.525454 0.525454
0.552926 0.552926 0.552926
0.581586 0.581586 0.581586
0.610264 0.610264 0.610264
0.637977 0.637977 0.637977
0.663551 0.663551 0.663551
0.686204 0.686204 0.686204
0.705469 0.705469 0.705469
0.721815 0.721815 0.721815
0.735999 0.735999 0.735999
0.748705 0.748705 0.748705
0.760417 0.760417 0.760417
0.771644 0.771644 0.771644
0.495128 0.495128 0.495128
0.519599 0.519599 0.519599
0.544627 0.544627 0.544627
0.570632 0.570632 0.570632
0.598170 0.598170 0.598170
0.626764 0.626764 0.626764
0.655328 0.655328 0.655328
0.682691 0.682691 0.682691
0.707837 0.707837 0.707837
0.729966 0.729966 0.729966
0.748749 0.748749 0.748749
0.764611 0.764611 0.764611
0.778272 0.778272 0.778272
0.790506 0.790506 0.790506
0.801753 0.801753 0.801753
0.812388 0.812388 0.812388
0.533922 0.533922 0.533922
0.558475 0.558475 0.558475
0.583551 0.583551 0.583551
0.609612 0.609612 0.609612
0.636999 0.636999 0.636999
0.665399 0.665399 0.665399
0.693601 0.693601 0.693601
0.720523 0.720523 0.720523
0.745101 0.745101 0.745101
0.766604 0.766604 0.766604
0.784833 0.784833 0.784833
0.800093 0.800093 0.800093
0.813241 0.813241 0.813241
0.824896 0.824896 0.824896
0.835664 0.835664 0.835664
0.845784 0.845784 0.845784
0.567222 0.567222 0.567222
0.591807 0.591807 0.591807
0.616879 0.616879 0.616879
0.642772 0.642772 0.642772
0.670019 0.670019 0.670019
0.698122 0.698122 0.698122
0.725858 0.725858 0.725858
0.752240 0.752240 0.752240
0.776156 0.776156 0.776156
0.797068 0.797068 0.797068
0.814600 0.814600 0.814600
0.829279 0.829279 0.829279
0.841887 0.841887 0.841887
0.853095 0.853095 0.853095
0.863305 0.863305 0.863305
0.872906 0.872906 0.872906
0.596401 0.596401 0.596401
0.620948 0.620948 0.620948
0.645910 0.645910 0.645910
0.671733 0.671733 0.671733
0.698618 0.698618 0.698618
0.726286 0.726286 0.726286
0.753553 0.753553 0.753553
0.779248 0.779248 0.779248
0.802579 0.802579 0.802579
0.822782 0.822782 0.822782
0.839707 0.839707 0.839707
0.853874 0.853874 0.853874
0.865947 0.865947 0.865947
0.876550 0.876550 0.876550
0.886276 0.886276 0.886276
0.895409 0.895409 0.895409
0.622797 0.622797 0.622797
0.647267 0.647267 0.647267
0.671973 0.671973 0.671973
0.697523 0.697523 0.697523
0.724156 0.724156 0.724156
0.751370 0.751370 0.751370
0.778006 0.778006 0.778006
0.803139 0.803139 0.803139
0.825749 0.825749 0.825749
0.845315 0.845315 0.845315
0.861558 0.861558 0.861558
0.875102 0.875102 0.875102
0.886602 0.886602 0.886602
0.896810 0.896810 0.896810
0.905987 0.905987 0.905987
0.914678 0.914678 0.914678
0.647345 0.647345 0.647345
0.671660 0.671660 0.671660
0.696152 0.696152 0.696152
0.721405 0.721405 0.721405
0.747523 0.747523 0.747523
0.774240 0.774240 0.774240
0.800327 0.800327 0.800327
0.824731 0.824731 0.824731
0.846590 0.846590 0.846590
0.865447 0.865447 0.865447
0.881107 0.881107 0.881107
0.894092 0.894092 0.894092
0.905075 0.905075 0.905075
0.914735 0.914735 0.914735
0.923400 0.923400 0.923400
0.931535 0.931535 0.931535
0.670772 0.670772 0.670772
0.694862 0.694862 0.694862
0.719024 0.719024 0.719024
0.743934 0.743934 0.743934
0.769705 0.769705 0.769705
0.795803 0.795803 0.795803
0.821157 0.821157 0.821157
0.844849 0.844849 0.844849
0.866044 0.866044 0.866044
0.884095 0.884095 0.884095
0.899049 0.899049 0.899049
0.911427 0.911427 0.911427
0.921851 0.921851 0.921851
0.931004 0.931004 0.931004
0.939177 0.939177 0.939177
0.946903 0.946903 0.946903
0.117315 0.117315 0.117315
0.130349 0.130349 0.130349
0.144865 0.144865 0.144865
0.161382 0.161382 0.161382
0.180168 0.180168 0.180168
0.201001 0.201001 0.201001
0.223117 0.223117 0.223117
0.245542 0.245542 0.245542
0.267165 0.267165 0.267165
0.287070 0.287070 0.287070
0.304602 0.304602 0.304602
0.319759 0.319759 0.319759
0.333305 0.333305 0.333305
0.345758 0.345758 0.345758
0.357426 0.357426 0.357426
0.368700 0.368700 0.368700
0.144167 0.144167 0.144167
0.159590 0.159590 0.159590
0.176428 0.176428 0.176428
0.195157 0.195157 0.195157
0.216048 0.216048 0.216048
0.238897 0.238897 0.238897
0.262737 0.262737 0.262737
0.286671 0.286671 0.286671
0.309531 0.309531 0.309531
0.330403 0.330403 0.330403
0.348686 0.348686 0.348686
0.364445 0.364445 0.364445
0.378439 0.378439 0.378439
0.391250 0.391250 0.391250
0.403169 0.403169 0.403169
0.414846 0.414846 0.414846
0.176259 0.176259 0.176259
0.193873 0.193873 0.193873
0.212689 0.212689 0.212689
0.233286 0.233286 0.233286
0.255945 0.255945 0.255945
0.280416 0.280416 0.280416
0.305674 0.305674 0.305674
0.330818 0.330818 0.330818
0.354655 0.354655 0.354655
0.376317 0.376317 0.376317
0.395177 0.395177 0.395177
0.411395 0.411395 0.411395
0.425783 0.425783 0.425783
0.438865 0.438865 0.438865
0.451047 0.451047 0.451047
0.462933 0.462933 0.462933
0.213973 0.213973 0.213973
0.233406 0.233406 0.233406
0.254029 0.254029 0.254029
0.276208 0.276208 0.276208
0.300270 0.300270 0.300270
0.326077 0.326077 0.326077
0.352574 0.352574 0.352574
0.378644 0.378644 0.378644
0.403265 0.403265 0.403265
0.425510 0.425510 0.425510
0.444825 0.444825 0.444825
0.461403 0.461403 0.461403
0.476019 0.476019 0.476019
0.489320 0.489320 0.489320
0.501785 0.501785 0.501785
0.513718 0.513718 0.513718
0.257770 0.257770 0.257770
0.278756 0.278756 0.278756
0.300764 0.300764 0.300764
0.324248 0.324248 0.324248
0.349534 0.349534 0.349534
0.376392 0.376392 0.376392
0.403840 0.403840 0.403840
0.430666 0.430666 0.430666
0.455914 0.455914 0.455914
0.478548 0.478548 0.478548
0.498198 0.498198 0.498198
0.515022 0.515022 0.515022
0.529809 0.529809 0.529809
0.543175 0.543175 0.543175
0.555710 0.555710 0.555710
0.567724 0.567724 0.567724
0.306750 0.306750 0.306750
0.328983 0.328983 0.328983
0.352130 0.352130 0.352130
0.376613 0.376613 0.376613
0.402861 0.402861 0.402861
0.430544 0.430544 0.430544
0.458668 0.458668 0.458668
0.486083 0.486083 0.486083
0.511667 0.511667 0.511667
0.534577 0.534577 0.534577
0.554378 0.554378 0.554378
0.571295 0.571295 0.571295
0.586128 0.586128 0.586128
0.599546 0.599546 0.599546
0.612074 0.612074 0.612074
0.624073 0.624073 0.624073
0.358571 0.358571 0.358571
0.381757 0.381757 0.381757
0.405632 0.405632 0.405632
0.430900 0.430900 0.430900
0.457779 0.457779 0.457779
0.486088 0.486088 0.486088
0.514595 0.514595 0.514595
0.542301 0.542301 0.542301
0.568056 0.568056 0.568056
0.591091 0.591091 0.591091
0.610864 0.610864 0.610864
0.627781 0.627781 0.627781
0.642546 0.642546 0.642546
0.655873 0.655873 0.655873
0.668163 0.668163 0.668163
0.680016 0.680016 0.680016
0.410506 0.410506 0.410506
0.434271 0.434271 0.434271
0.458834 0.458834 0.458834
0.484537 0.484537 0.484537
0.511795 0.511795 0.511795
0.540382 0.540382 0.540382
0.569105 0.569105 0.569105
0.596861 0.596861 0.596861
