Assets/LUTs/B&W Light.cube
LUT_3D_SIZE 6
0.104279 0.104279 0.104279
0.143872 0.143872 0.143872
0.201666 0.201666 0.201666
0.263208 0.263208 0.263208
0.308130 0.308130 0.308130
0.342810 0.342810 0.342810
0.193011 0.193011 0.193011
0.252695 0.252695 0.252695
0.326991 0.326991 0.326991
0.398721 0.398721 0.398721
0.448759 0.448759 0.448759
0.486156 0.486155 0.486155
0.332856 0.332856 0.332856
0.404077 0.404077 0.404077
0.487029 0.487029 0.487029
0.563362 0.563362 0.563362
0.614875 0.614875 0.614875
0.652671 0.652671 0.652671
0.477124 0.477124 0.477124
0.552451 0.552451 0.552451
0.637302 0.637302 0.637302
0.712514 0.712514 0.712514
0.761491 0.761491 0.761491
0.796254 0.796254 0.796254
0.578174 0.578174 0.578174
0.653760 0.653760 0.653760
0.736371 0.736371 0.736371
0.806848 0.806848 0.806848
0.851123 0.851123 0.851123
0.881523 0.881523 0.881523
0.652809 0.652809 0.652809
0.726655 0.726655 0.726655
0.805202 0.805202 0.805202
0.869806 0.869806 0.869806
0.909029 0.909029 0.909029
0.935278 0.935278 0.935278
0.117315 0.117315 0.117315
0.161382 0.161382 0.161382
0.223117 0.223117 0.223117
0.287070 0.287070 0.287070
0.333305 0.333305 0.333305
0.368700 0.368700 0.368700
0.213973 0.213973 0.213973
0.276208 0.276208 0.276208
0.352574 0.352574 0.352574
0.425510 0.425510 0.425510
0.476019 0.476019 0.476019
0.513718 0.513718 0.513718
0.358571 0.358571 0.358571
0.430900 0.430900 0.430900
0.514595 0.514595 0.514595
0.591091 0.591091 0.591091
0.642546 0.642546 0.642546
0.680016 0.680016 0.680016
0.504636 0.504636 0.504636
0.580209 0.580209 0.580209
0.664768 0.664768 0.664768
0.739079 0.739079 0.739079
0.786979 0.786979 0.786979
0.820771 0.820771 0.820771
0.605922 0.605922 0.605922
0.681101 0.681101 0.681101
0.762475 0.762475 0.762475
0.831042 0.831042 0.831042
0.873543 0.873543 0.873543
0.902478 0.902478 0.902478
0.680141 0.680141 0.680141
0.752980 0.752980 0.752980
0.829413 0.829413 0.829413
0.891411 0.891411 0.891411
0.928399 0.928399 0.928399
0.952726 0.952726 0.952726
0.134003 0.134003 0.134003
0.182670 0.182670 0.182670
0.248380 0.248380 0.248380
0.314765 0.314765 0.314765
0.362236 0.362236 0.362236
0.398302 0.398302 0.398302
0.238767 0.238767 0.238767
0.303502 0.303502 0.303502
0.381870 0.381870 0.381870
0.455941 0.455941 0.455941
0.506901 0.506901 0.506901
0.544757 0.544757 0.544757
0.387968 0.387968 0.387968
0.461378 0.461378 0.461378
0.545622 0.545622 0.545622
0.622179 0.622179 0.622179
0.673305 0.673305 0.673305
0.710410 0.710410 0.710410
0.535696 0.535696 0.535696
0.611323 0.611323 0.611323
0.695350 0.695350 0.695350
0.768237 0.768237 0.768237
0.814779 0.814779 0.814779
0.847219 0.847219 0.847219
0.637071 0.637071 0.637071
0.711417 0.711417 0.711417
0.791010 0.791010 0.791010
0.857066 0.857066 0.857066
0.897435 0.897435 0.897435
0.924567 0.924567 0.924567
0.710485 0.710485 0.710485
0.781746 0.781746 0.781746
0.855514 0.855514 0.855514
0.914258 0.914258 0.914258
0.948491 0.948491 0.948491
0.970625 0.970625 0.970625
0.150769 0.150769 0.150769
0.203288 0.203288 0.203288
0.272024 0.272024 0.272024
0.340383 0.340383 0.340383
0.388827 0.388827 0.388827
0.425360 0.425360 0.425360
0.262077 0.262077 0.262077
0.328870 0.328870 0.328870
0.408733 0.408733 0.408733
0.483545 0.483545 0.483545
0.534874 0.534874 0.534874
0.572858 0.572858 0.572858
0.414888 0.414888 0.414888
0.489063 0.489063 0.489063
0.573689 0.573689 0.573689
0.650087 0.650087 0.650087
0.700794 0.700794 0.700794
0.737309 0.737309 0.737309
0.563693 0.563693 0.563693
0.639363 0.639363 0.639363
0.722477 0.722477 0.722477
0.793832 0.793832 0.793832
0.838941 0.838941 0.838941
0.870072 0.870072 0.870072
0.664874 0.664874 0.664874
0.738346 0.738346 0.738346
0.815976 0.815976 0.815976
0.879490 0.879490 0.879490
0.917680 0.917680 0.917680
0.943128 0.943128 0.943128
0.737355 0.737355 0.737355
0.806987 0.806987 0.806987
0.878044 0.878044 0.878044
0.933461 0.933461 0.933461
0.965082 0.965082 0.965082
0.985131 0.985131 0.985131
0.162983 0.162983 0.162983
0.217769 0.217769 0.217769
0.288430 0.288430 0.288430
0.357932 0.357932 0.357932
0.406915 0.406915 0.406915
0.443870 0.443870 0.443870
0.278224 0.278224 0.278224
0.346178 0.346178 0.346178
0.427047 0.427047 0.427047
0.502367 0.502367 0.502367
0.553797 0.553797 0.553797
0.591769 0.591769 0.591769
0.433233 0.433233 0.433233
0.507858 0.507858 0.507858
0.592629 0.592629 0.592629
0.668759 0.668759 0.668759
0.719088 0.719088 0.719088
0.755173 0.755173 0.755173
0.582660 0.582660 0.582660
0.658064 0.658064 0.658064
0.740526 0.740526 0.740526
0.810741 0.810741 0.810741
0.854647 0.854647 0.854647
0.884906 0.884906 0.884906
0.683439 0.683439 0.683439
0.756112 0.756112 0.756112
0.832338 0.832338 0.832338
0.893970 0.893970 0.893970
0.930659 0.930659 0.930659
0.954743 0.954743 0.954743
0.755299 0.755299 0.755299
0.823605 0.823605 0.823605
0.892542 0.892542 0.892542
0.945613 0.945613 0.945613
0.975446 0.975446 0.975446
0.993874 0.993874 0.993874
0.172409 0.172409 0.172409
0.228852 0.228852 0.228852
0.300725 0.300725 0.300725
0.371024 0.371024 0.371024
0.420371 0.420371 0.420371
0.457382 0.457382 0.457382
0.290393 0.290393 0.290393
0.359216 0.359216 0.359215
0.440555 0.440555 0.440555
0.516233 0.516233 0.516233
0.567683 0.567683 0.567683
0.605755 0.605755 0.605755
0.446794 0.446794 0.446794
0.521682 0.521682 0.521682
0.606491 0.606491 0.606491
0.682486 0.682486 0.682486
0.732384 0.732384 0.732384
0.768090 0.768090 0.768090
0.596628 0.596628 0.596628
0.671830 0.671830 0.671830
0.753631 0.753631 0.753631
0.822823 0.822823 0.822823
0.866007 0.866007 0.866007
0.895424 0.895424 0.895424
0.697098 0.697098 0.697098
0.769103 0.769103 0.769103
0.844078 0.844078 0.844078
0.904331 0.904331 0.904331
0.939752 0.939752 0.939752
0.962948 0.962948 0.962948
0.768125 0.768125 0.768125
0.835434 0.835434 0.835434
0.902975 0.902975 0.902975
0.954172 0.954172 0.954172
0.982591 0.982591 0.982591
0.999917 0.999917 0.999917
