Assets/LUTs/B&W.cube
LUT_3D_SIZE 16
0.141724 0.141724 0.141724
0.148041 0.148041 0.148041
0.153481 0.153481 0.153481
0.158001 0.158001 0.158001
0.161670 0.161670 0.161670
0.164795 0.164795 0.164795
0.167981 0.167981 0.167981
0.172129 0.172129 0.172129
0.178424 0.178424 0.178424
0.188391 0.188391 0.188391
0.203572 0.203572 0.203572
0.224288 0.224288 0.224288
0.250049 0.250049 0.250049
0.280222 0.280222 0.280222
0.314034 0.314034 0.314034
0.349951 0.349951 0.349951
0.153249 0.153249 0.153249
0.157866 0.157866 0.157866
0.161567 0.161567 0.161567
0.164700 0.164700 0.164700
0.167913 0.167913 0.167913
0.172050 0.172050 0.172050
0.178344 0.178344 0.178344
0.188196 0.188196 0.188196
0.203196 0.203196 0.203196
0.223685 0.223685 0.223685
0.249259 0.249259 0.249259
0.279276 0.279276 0.279276
0.312872 0.312872 0.312872
0.348845 0.348845 0.348845
0.385728 0.385728 0.385728
0.421773 0.421773 0.421773
0.161418 0.161418 0.161418
0.164585 0.164585 0.164585
0.167830 0.167830 0.167830
0.171955 0.171955 0.171955
0.178167 0.178167 0.178167
0.187956 0.187956 0.187956
0.202754 0.202754 0.202754
0.223143 0.223143 0.223143
0.248525 0.248525 0.248525
0.278398 0.278398 0.278398
0.311858 0.311858 0.311858
0.347740 0.347740 0.347740
0.384617 0.384617 0.384617
0.420839 0.420839 0.420839
0.455460 0.455460 0.455460
0.488158 0.488157 0.488157
0.167670 0.167670 0.167670
0.171790 0.171790 0.171790
0.177947 0.177947 0.177947
0.187650 0.187650 0.187650
0.202263 0.202263 0.202263
0.222394 0.222394 0.222394
0.247596 0.247596 0.247596
0.277272 0.277272 0.277272
0.310597 0.310597 0.310597
0.346506 0.346506 0.346506
0.383279 0.383279 0.383279
0.419496 0.419496 0.419496
0.454188 0.454188 0.454188
0.487068 0.487068 0.487068
0.518098 0.518098 0.518098
0.547048 0.547048 0.547048
0.177696 0.177696 0.177696
0.187287 0.187287 0.187287
0.201820 0.201820 0.201820
0.221810 0.221810 0.221810
0.246933 0.246933 0.246933
0.276456 0.276456 0.276456
0.309603 0.309603 0.309603
0.345283 0.345283 0.345283
0.382014 0.382014 0.382014
0.418214 0.418214 0.418214
0.452926 0.452926 0.452926
0.485909 0.485909 0.485909
0.516990 0.516990 0.516990
0.546145 0.546145 0.546145
0.573320 0.573320 0.573320
0.598615 0.598615 0.598615
0.201121 0.201121 0.201121
0.220952 0.220952 0.220952
0.245884 0.245884 0.245884
0.275327 0.275327 0.275327
0.308395 0.308395 0.308395
0.343978 0.343978 0.343978
0.380680 0.380680 0.380680
0.416937 0.416937 0.416937
0.451735 0.451735 0.451735
0.484778 0.484778 0.484778
0.515944 0.515944 0.515944
0.545181 0.545181 0.545181
0.572448 0.572448 0.572448
0.597762 0.597762 0.597762
0.621238 0.621238 0.621238
0.642802 0.642802 0.642802
0.244983 0.244983 0.244983
0.274314 0.274314 0.274314
0.307327 0.307327 0.307327
0.342875 0.342875 0.342875
0.379556 0.379556 0.379556
0.415785 0.415785 0.415785
0.450619 0.450619 0.450619
0.483680 0.483680 0.483680
0.514911 0.514911 0.514911
0.544244 0.544244 0.544244
0.571535 0.571535 0.571535
0.596925 0.596925 0.596925
0.620416 0.620416 0.620416
0.642165 0.642165 0.642165
0.662250 0.662250 0.662250
0.680826 0.680826 0.680826
0.306057 0.306057 0.306057
0.341699 0.341699 0.341699
0.378362 0.378362 0.378362
0.414658 0.414658 0.414658
0.449518 0.449518 0.449518
0.482626 0.482626 0.482626
0.513884 0.513884 0.513884
0.543206 0.543206 0.543206
0.570610 0.570610 0.570610
0.596062 0.596062 0.596062
0.619642 0.619642 0.619642
0.641450 0.641450 0.641450
0.661608 0.661608 0.661608
0.680336 0.680336 0.680336
0.697782 0.697782 0.697782
0.714123 0.714123 0.714123
0.377252 0.377252 0.377252
0.413595 0.413595 0.413595
0.448471 0.448471 0.448471
0.481633 0.481633 0.481633
0.512933 0.512933 0.512933
0.542299 0.542299 0.542299
0.569737 0.569737 0.569737
0.595234 0.595234 0.595234
0.618873 0.618873 0.618873
0.640717 0.640717 0.640717
0.660958 0.660958 0.660958
0.679707 0.679707 0.679707
0.697180 0.697180 0.697180
0.713635 0.713635 0.713635
0.729295 0.729295 0.729295
0.744341 0.744341 0.744341
0.447388 0.447388 0.447388
0.480616 0.480616 0.480616
0.512003 0.512003 0.512003
0.541436 0.541436 0.541436
0.568932 0.568932 0.568932
0.594485 0.594485 0.594485
0.618143 0.618143 0.618143
0.640070 0.640070 0.640070
0.660309 0.660309 0.660309
0.679096 0.679096 0.679096
0.696633 0.696633 0.696633
0.713120 0.713120 0.713120
0.728787 0.728787 0.728787
0.743926 0.743926 0.743926
0.758782 0.758782 0.758782
0.773464 0.773464 0.773464
0.510935 0.510935 0.510935
0.540611 0.540611 0.540611
0.568112 0.568112 0.568112
0.593750 0.593750 0.593750
0.617430 0.617430 0.617430
0.639381 0.639381 0.639381
0.659678 0.659678 0.659678
0.678490 0.678490 0.678490
0.696034 0.696034 0.696034
0.712524 0.712524 0.712524
0.728224 0.728224 0.728224
0.743409 0.743409 0.743409
0.758231 0.758231 0.758231
0.773051 0.773051 0.773051
0.788017 0.788017 0.788017
0.803240 0.803240 0.803240
0.567303 0.567303 0.567303
0.592966 0.592966 0.592966
0.616745 0.616745 0.616745
0.638749 0.638749 0.638749
0.659094 0.659094 0.659094
0.677954 0.677954 0.677954
0.695530 0.695530 0.695530
0.712070 0.712070 0.712070
0.727814 0.727814 0.727814
0.742972 0.742972 0.742972
0.757816 0.757816 0.757816
0.772591 0.772591 0.772591
0.787543 0.787543 0.787543
0.802842 0.802842 0.802842
0.818700 0.818700 0.818700
0.835096 0.835096 0.835096
0.615985 0.615985 0.615985
0.637992 0.637992 0.637992
0.658411 0.658411 0.658411
0.677310 0.677310 0.677310
0.694939 0.694939 0.694939
0.711499 0.711499 0.711499
0.727243 0.727243 0.727243
0.742455 0.742455 0.742455
0.757296 0.757296 0.757296
0.772060 0.772060 0.772060
0.787016 0.787016 0.787016
0.802289 0.802289 0.802289
0.818101 0.818101 0.818101
0.834584 0.834584 0.834584
0.851588 0.851588 0.851588
0.868915 0.868915 0.868915
0.657942 0.657942 0.657942
0.676847 0.676847 0.676847
0.694453 0.694453 0.694453
0.711058 0.711058 0.711058
0.726792 0.726792 0.726792
0.741957 0.741957 0.741957
0.756775 0.756775 0.756775
0.771558 0.771558 0.771558
0.786456 0.786456 0.786456
0.801836 0.801836 0.801836
0.817641 0.817641 0.817641
0.834106 0.834106 0.834106
0.851133 0.851133 0.851133
0.868483 0.868483 0.868483
0.886029 0.886029 0.886029
0.903403 0.903403 0.903403
0.693902 0.693902 0.693902
0.710502 0.710502 0.710502
0.726233 0.726233 0.726233
0.741452 0.741452 0.741452
0.756287 0.756287 0.756287
0.771031 0.771031 0.771031
0.785940 0.785940 0.785940
0.801196 0.801196 0.801196
0.817006 0.817006 0.817006
0.833434 0.833434 0.833434
0.850450 0.850450 0.850450
0.867825 0.867825 0.867825
0.885337 0.885337 0.885337
0.902824 0.902824 0.902824
0.920102 0.920102 0.920102
0.936896 0.936896 0.936896
0.725711 0.725711 0.725711
0.740876 0.740876 0.740876
0.755750 0.755750 0.755750
0.770484 0.770484 0.770484
0.785364 0.785364 0.785364
0.800555 0.800555 0.800555
0.816299 0.816299 0.816299
0.832704 0.832704 0.832704
0.849696 0.849696 0.849696
0.867059 0.867059 0.867059
0.884559 0.884559 0.884559
0.902038 0.902038 0.902038
0.919325 0.919325 0.919325
0.936231 0.936231 0.936231
0.952542 0.952542 0.952542
0.968313 0.968313 0.968313
0.144146 0.144146 0.144146
0.150169 0.150169 0.150169
0.155279 0.155279 0.155279
0.159425 0.159425 0.159425
0.162850 0.162850 0.162850
0.165920 0.165920 0.165920
0.169334 0.169334 0.169334
0.174127 0.174127 0.174127
0.181568 0.181568 0.181568
0.193306 0.193306 0.193306
0.210485 0.210485 0.210485
0.233092 0.233092 0.233092
0.260531 0.260531 0.260531
0.292122 0.292121 0.292121
0.326820 0.326820 0.326820
0.363318 0.363318 0.363318
0.155080 0.155080 0.155080
0.159263 0.159263 0.159263
0.162727 0.162727 0.162727
0.165810 0.165810 0.165810
0.169266 0.169266 0.169266
0.174048 0.174048 0.174048
0.181438 0.181438 0.181438
0.193062 0.193062 0.193062
0.210105 0.210105 0.210105
0.232525 0.232525 0.232525
0.259839 0.259839 0.259839
0.291268 0.291268 0.291268
0.325873 0.325873 0.325873
0.362456 0.362456 0.362456
0.399280 0.399280 0.399280
0.434799 0.434799 0.434799
0.162605 0.162605 0.162605
0.165744 0.165744 0.165744
0.169185 0.169185 0.169185
0.173930 0.173930 0.173930
0.181292 0.181292 0.181292
0.192806 0.192806 0.192806
0.209643 0.209643 0.209643
0.231868 0.231868 0.231868
0.259012 0.259012 0.259012
0.290291 0.290291 0.290291
0.324735 0.324735 0.324735
0.361135 0.361135 0.361135
0.397906 0.397906 0.397906
0.433587 0.433587 0.433587
0.467574 0.467574 0.467574
0.499599 0.499599 0.499599
0.169034 0.169034 0.169034
0.173754 0.173754 0.173754
0.181047 0.181047 0.181047
0.192466 0.192466 0.192466
0.209120 0.209120 0.209120
0.231179 0.231179 0.231179
0.258129 0.258129 0.258129
0.289265 0.289265 0.289265
0.323638 0.323638 0.323638
0.359962 0.359962 0.359962
0.396727 0.396727 0.396727
0.432416 0.432416 0.432416
0.466467 0.466467 0.466467
0.498740 0.498740 0.498740
0.529072 0.529072 0.529072
0.557288 0.557288 0.557288
0.180664 0.180664 0.180664
0.191906 0.191906 0.191906
0.208427 0.208427 0.208427
0.230337 0.230337 0.230337
0.257093 0.257093 0.257093
0.288092 0.288092 0.288092
0.322327 0.322327 0.322327
0.358739 0.358739 0.358739
0.395472 0.395472 0.395472
0.431208 0.431208 0.431208
0.465273 0.465273 0.465273
0.497546 0.497546 0.497546
0.527924 0.527924 0.527924
0.556360 0.556360 0.556360
0.582830 0.582830 0.582830
0.607295 0.607295 0.607295
0.207800 0.207800 0.207800
0.229598 0.229598 0.229598
0.256271 0.256271 0.256271
0.287173 0.287173 0.287173
0.321329 0.321329 0.321329
0.357553 0.357553 0.357553
0.394215 0.394215 0.394215
0.429963 0.429963 0.429963
0.464135 0.464135 0.464135
0.496522 0.496522 0.496522
0.526973 0.526973 0.526973
0.555472 0.555472 0.555472
0.582003 0.582003 0.582003
0.606620 0.606620 0.606620
0.629409 0.629409 0.629409
0.650374 0.650374 0.650374
0.255191 0.255191 0.255191
0.286004 0.286004 0.286004
0.320069 0.320069 0.320069
0.356182 0.356182 0.356182
0.392870 0.392870 0.392870
0.428665 0.428665 0.428665
0.462848 0.462848 0.462848
0.495279 0.495279 0.495279
0.525824 0.525824 0.525824
0.554392 0.554392 0.554392
0.581005 0.581005 0.581005
0.605702 0.605702 0.605702
0.628558 0.628558 0.628558
0.649690 0.649690 0.649690
0.669268 0.669268 0.669268
0.687358 0.687358 0.687358
0.318896 0.318896 0.318896
0.355055 0.355055 0.355055
0.391778 0.391778 0.391778
0.427712 0.427712 0.427712
0.461929 0.461929 0.461929
0.494387 0.494387 0.494387
0.524913 0.524913 0.524913
0.553538 0.553538 0.553538
0.580195 0.580195 0.580195
0.604908 0.604908 0.604908
0.627814 0.627814 0.627814
0.648976 0.648976 0.648976
0.668589 0.668589 0.668589
0.686827 0.686827 0.686827
0.703873 0.703873 0.703873
0.719976 0.719976 0.719976
0.390658 0.390658 0.390658
0.426555 0.426555 0.426555
0.460839 0.460839 0.460839
0.493335 0.493335 0.493335
0.523960 0.523960 0.523960
0.552588 0.552588 0.552588
0.579316 0.579316 0.579316
0.604103 0.604103 0.604103
0.627046 0.627046 0.627046
0.648285 0.648285 0.648285
0.667946 0.667946 0.667946
0.686222 0.686222 0.686222
0.703339 0.703339 0.703339
0.719456 0.719456 0.719456
0.734893 0.734893 0.734893
0.749814 0.749814 0.749814
0.459816 0.459816 0.459816
0.492372 0.492372 0.492372
0.523058 0.523058 0.523058
0.551756 0.551756 0.551756
0.578521 0.578521 0.578521
0.603372 0.603372 0.603372
0.626372 0.626372 0.626372
0.647638 0.647638 0.647638
0.667318 0.667318 0.667318
0.685689 0.685689 0.685689
0.702765 0.702765 0.702765
0.718948 0.718948 0.718948
0.734392 0.734392 0.734392
0.749370 0.749370 0.749370
0.764162 0.764162 0.764162
0.778922 0.778922 0.778922
0.522087 0.522087 0.522087
0.550869 0.550869 0.550869
0.577702 0.577702 0.577702
0.602601 0.602601 0.602601
0.625659 0.625659 0.625659
0.646986 0.646986 0.646986
0.666732 0.666732 0.666732
0.685073 0.685073 0.685073
0.702234 0.702234 0.702234
0.718409 0.718409 0.718409
0.733879 0.733879 0.733879
0.748906 0.748906 0.748906
0.763698 0.763698 0.763698
0.778495 0.778495 0.778495
0.793556 0.793556 0.793556
0.809045 0.809045 0.809045
0.577017 0.577017 0.577017
0.601971 0.601971 0.601971
0.625053 0.625053 0.625053
0.646384 0.646384 0.646384
0.666157 0.666157 0.666157
0.684514 0.684514 0.684514
0.701675 0.701675 0.701675
0.717905 0.717905 0.717905
0.733379 0.733379 0.733379
0.748390 0.748390 0.748390
0.763188 0.763188 0.763188
0.778005 0.778005 0.778005
0.793055 0.793055 0.793055
0.808556 0.808556 0.808556
0.824643 0.824643 0.824643
0.841249 0.841249 0.841249
0.624321 0.624321 0.624321
0.645748 0.645748 0.645748
0.665590 0.665590 0.665590
0.683975 0.683975 0.683975
0.701181 0.701181 0.701181
0.717401 0.717401 0.717401
0.732901 0.732901 0.732901
0.747909 0.747909 0.747909
0.762717 0.762717 0.762717
0.777540 0.777540 0.777540
0.792572 0.792572 0.792572
0.808055 0.808055 0.808055
0.824145 0.824145 0.824145
0.840811 0.840811 0.840811
0.858013 0.858013 0.858013
0.875354 0.875354 0.875354
0.664949 0.664949 0.664949
0.683523 0.683523 0.683523
0.700683 0.700683 0.700683
0.716934 0.716934 0.716934
0.732428 0.732428 0.732428
0.747435 0.747435 0.747435
0.762233 0.762233 0.762233
0.777028 0.777028 0.777028
0.792045 0.792045 0.792045
0.807521 0.807521 0.807521
0.823541 0.823541 0.823541
0.840182 0.840182 0.840182
0.857362 0.857362 0.857362
0.874785 0.874785 0.874785
0.892334 0.892334 0.892334
0.909676 0.909676 0.909676
0.700152 0.700152 0.700152
0.716448 0.716448 0.716448
0.731920 0.731920 0.731920
0.746930 0.746930 0.746930
0.761721 0.761721 0.761721
0.776491 0.776491 0.776491
0.791491 0.791491 0.791491
0.806988 0.806988 0.806988
0.823013 0.823013 0.823013
0.839692 0.839692 0.839692
0.856881 0.856881 0.856881
0.874309 0.874309 0.874309
0.891858 0.891858 0.891858
0.909260 0.909260 0.909260
0.926387 0.926387 0.926387
0.943021 0.943021 0.943021
0.731272 0.731272 0.731272
0.746247 0.746247 0.746247
0.761060 0.761060 0.761060
0.775829 0.775829 0.775829
0.790802 0.790802 0.790802
0.806227 0.806227 0.806227
0.822201 0.822201 0.822201
0.838838 0.838838 0.838838
0.856007 0.856007 0.856007
0.873519 0.873519 0.873519
0.891077 0.891077 0.891077
0.908501 0.908501 0.908501
0.925654 0.925654 0.925654
0.942349 0.942349 0.942349
0.958444 0.958444 0.958444
0.973742 0.973742 0.973742
0.146417 0.146417 0.146417
0.152143 0.152143 0.152143
0.156867 0.156867 0.156867
0.160726 0.160726 0.160726
0.163977 0.163977 0.163977
0.167097 0.167097 0.167097
0.170869 0.170869 0.170869
0.176454 0.176454 0.176454
0.185287 0.185287 0.185287
0.198966 0.198966 0.198966
0.218200 0.218200 0.218200
0.242643 0.242643 0.242643
0.271739 0.271739 0.271739
0.304647 0.304647 0.304647
0.340233 0.340233 0.340233
0.377018 0.377018 0.377018
0.156750 0.156750 0.156750
0.160620 0.160620 0.160620
0.163889 0.163889 0.163889
0.167006 0.167006 0.167006
0.170809 0.170809 0.170809
0.176398 0.176398 0.176398
0.185142 0.185142 0.185142
0.198662 0.198662 0.198662
0.217717 0.217717 0.217717
0.241986 0.241986 0.241986
0.270854 0.270854 0.270854
0.303585 0.303585 0.303585
0.339036 0.339036 0.339036
0.375896 0.375896 0.375896
0.412375 0.412375 0.412375
0.447223 0.447223 0.447223
0.163760 0.163760 0.163760
0.166914 0.166914 0.166914
0.170689 0.170689 0.170689
0.176251 0.176251 0.176251
0.184923 0.184923 0.184923
0.198284 0.198284 0.198284
0.217138 0.217138 0.217138
0.241262 0.241262 0.241262
0.270028 0.270028 0.270028
0.302584 0.302584 0.302584
0.337927 0.337927 0.337927
0.374668 0.374668 0.374668
0.411186 0.411186 0.411186
0.446296 0.446296 0.446296
0.479656 0.479656 0.479656
0.510963 0.510963 0.510963
0.170570 0.170570 0.170570
0.176061 0.176061 0.176061
0.184692 0.184692 0.184692
0.197949 0.197949 0.197949
0.216620 0.216620 0.216620
0.240563 0.240563 0.240563
0.269160 0.269160 0.269160
0.301549 0.301549 0.301549
0.336789 0.336789 0.336789
0.373462 0.373462 0.373462
0.409950 0.409950 0.409950
0.445049 0.445049 0.445049
0.478455 0.478455 0.478455
0.509980 0.509980 0.509980
0.539604 0.539604 0.539604
0.567112 0.567112 0.567112
0.184234 0.184234 0.184234
0.197358 0.197358 0.197358
0.215911 0.215911 0.215911
0.239717 0.239717 0.239717
0.268147 0.268147 0.268147
0.300448 0.300448 0.300448
0.335569 0.335569 0.335569
0.372162 0.372162 0.372162
0.408692 0.408692 0.408692
0.443837 0.443837 0.443837
0.477296 0.477296 0.477296
0.508920 0.508920 0.508920
0.538593 0.538593 0.538593
0.566318 0.566318 0.566318
0.592111 0.592111 0.592111
0.615843 0.615843 0.615843
0.215107 0.215107 0.215107
0.238741 0.238741 0.238741
0.267052 0.267052 0.267052
0.299437 0.299437 0.299437
0.334454 0.334454 0.334454
0.371007 0.371007 0.371007
0.407479 0.407479 0.407479
0.442685 0.442685 0.442685
0.476189 0.476189 0.476189
0.507839 0.507839 0.507839
0.537571 0.537571 0.537571
0.565379 0.565379 0.565379
0.591179 0.591179 0.591179
0.615149 0.615149 0.615149
0.637288 0.637288 0.637288
0.657673 0.657673 0.657673
0.266076 0.266076 0.266076
0.298209 0.298209 0.298209
0.333245 0.333245 0.333245
0.369775 0.369775 0.369775
0.406274 0.406274 0.406274
0.441527 0.441527 0.441527
0.475088 0.475088 0.475088
0.506783 0.506783 0.506783
0.536582 0.536582 0.536582
0.564446 0.564446 0.564446
0.590344 0.590344 0.590344
0.614342 0.614342 0.614342
0.636531 0.636531 0.636531
0.657071 0.657071 0.657071
0.676101 0.676101 0.676101
0.693743 0.693743 0.693743
0.331963 0.331963 0.331963
0.368489 0.368489 0.368489
0.405010 0.405010 0.405010
0.440320 0.440320 0.440320
0.473894 0.473894 0.473894
0.505677 0.505677 0.505677
0.535500 0.535500 0.535500
0.563388 0.563388 0.563388
0.589377 0.589377 0.589377
0.613530 0.613530 0.613530
0.635796 0.635796 0.635796
0.656380 0.656380 0.656380
0.675427 0.675427 0.675427
0.693207 0.693207 0.693207
0.709876 0.709876 0.709876
0.725613 0.725613 0.725613
0.403934 0.403934 0.403934
0.439278 0.439278 0.439278
0.472924 0.472924 0.472924
0.504828 0.504828 0.504828
0.534755 0.534755 0.534755
0.562674 0.562674 0.562674
0.588663 0.588663 0.588663
0.612752 0.612752 0.612752
0.635062 0.635062 0.635062
0.655697 0.655697 0.655697
0.674814 0.674814 0.674814
0.692627 0.692627 0.692627
0.709318 0.709318 0.709318
0.725210 0.725210 0.725210
0.740440 0.740440 0.740440
0.755277 0.755277 0.755277
0.471943 0.471943 0.471943
0.503794 0.503794 0.503794
0.533762 0.533762 0.533762
0.561758 0.561758 0.561758
0.587822 0.587822 0.587822
0.611960 0.611960 0.611960
0.634312 0.634312 0.634312
0.654983 0.654983 0.654983
0.674165 0.674165 0.674165
0.692008 0.692008 0.692008
0.708764 0.708764 0.708764
0.724648 0.724648 0.724648
0.739917 0.739917 0.739917
0.754815 0.754815 0.754815
0.769592 0.769592 0.769592
0.784398 0.784398 0.784398
0.532908 0.532908 0.532908
0.560957 0.560957 0.560957
0.587074 0.587074 0.587074
0.611296 0.611296 0.611296
0.633669 0.633669 0.633669
0.654395 0.654395 0.654395
0.673583 0.673583 0.673583
0.691449 0.691449 0.691449
0.708234 0.708234 0.708234
0.724157 0.724157 0.724157
0.739431 0.739431 0.739431
0.754329 0.754329 0.754329
0.769106 0.769106 0.769106
0.783984 0.783984 0.783984
0.799185 0.799185 0.799185
0.814810 0.814810 0.814810
0.586273 0.586273 0.586273
0.610591 0.610591 0.610591
0.633019 0.633019 0.633019
0.653796 0.653796 0.653796
0.673029 0.673029 0.673029
0.690938 0.690938 0.690938
0.707735 0.707735 0.707735
0.723638 0.723638 0.723638
0.738944 0.738944 0.738944
0.753851 0.753851 0.753851
0.768626 0.768626 0.768626
0.783495 0.783495 0.783495
0.798683 0.798683 0.798683
0.814373 0.814373 0.814373
0.830704 0.830704 0.830704
0.847555 0.847555 0.847555
0.632452 0.632452 0.632452
0.653228 0.653228 0.653228
0.672528 0.672528 0.672528
0.690413 0.690413 0.690413
0.707236 0.707236 0.707236
0.723127 0.723127 0.723127
0.738421 0.738421 0.738421
0.753335 0.753335 0.753335
0.768107 0.768107 0.768107
0.782979 0.782979 0.782979
0.798172 0.798172 0.798172
0.813810 0.813810 0.813810
0.830134 0.830134 0.830134
0.846998 0.846998 0.846998
0.864318 0.864318 0.864318
0.881721 0.881721 0.881721
0.671901 0.671901 0.671901
0.689853 0.689853 0.689853
0.706719 0.706719 0.706719
0.722650 0.722650 0.722650
0.737931 0.737931 0.737931
0.752853 0.752853 0.752853
0.767628 0.767628 0.767628
0.782485 0.782485 0.782485
0.797678 0.797678 0.797678
0.813334 0.813334 0.813334
0.829608 0.829608 0.829608
0.846515 0.846515 0.846515
0.863798 0.863798 0.863798
0.881274 0.881274 0.881274
0.898778 0.898778 0.898778
0.916030 0.916030 0.916030
0.706132 0.706132 0.706132
0.722252 0.722252 0.722252
0.737525 0.737525 0.737525
0.752411 0.752411 0.752411
0.767157 0.767157 0.767157
0.782003 0.782003 0.782003
0.797147 0.797147 0.797147
0.812766 0.812766 0.812766
0.829029 0.829029 0.829029
0.845894 0.845894 0.845894
0.863180 0.863180 0.863180
0.880660 0.880660 0.880660
0.898149 0.898149 0.898149
0.915488 0.915488 0.915488
0.932479 0.932479 0.932479
0.948896 0.948896 0.948896
0.736837 0.736837 0.736837
0.751751 0.751751 0.751751
0.766478 0.766478 0.766478
0.781322 0.781322 0.781322
0.796457 0.796457 0.796457
0.812078 0.812078 0.812078
0.828325 0.828325 0.828325
0.845173 0.845173 0.845173
0.862457 0.862457 0.862457
0.879964 0.879964 0.879964
0.897474 0.897474 0.897474
0.914840 0.914840 0.914840
0.931854 0.931854 0.931854
0.948356 0.948356 0.948356
0.964270 0.964270 0.964270
0.979282 0.979282 0.979282
0.148608 0.148608 0.148608
0.154001 0.154001 0.154001
0.158380 0.158380 0.158380
0.161991 0.161991 0.161991
0.165108 0.165108 0.165108
0.168327 0.168327 0.168327
0.172647 0.172647 0.172647
0.179231 0.179231 0.179231
0.189656 0.189657 0.189657
0.205405 0.205405 0.205405
0.226585 0.226585 0.226585
0.252961 0.252961 0.252961
0.283550 0.283550 0.283550
0.317613 0.317613 0.317613
0.353916 0.353916 0.353916
0.390745 0.390745 0.390745
0.158247 0.158247 0.158247
0.161842 0.161842 0.161842
0.165003 0.165003 0.165003
0.168258 0.168258 0.168258
0.172572 0.172572 0.172572
0.179117 0.179117 0.179117
0.189446 0.189446 0.189446
0.204991 0.204991 0.204991
0.226005 0.226005 0.226005
0.252050 0.252050 0.252050
0.282470 0.282470 0.282470
0.316334 0.316334 0.316334
0.352466 0.352466 0.352466
0.389486 0.389486 0.389486
0.425536 0.425535 0.425535
0.459703 0.459703 0.459703
0.164880 0.164880 0.164880
0.168165 0.168165 0.168165
0.172466 0.172466 0.172466
0.178994 0.178994 0.178994
0.189235 0.189235 0.189235
0.204624 0.204624 0.204624
0.225438 0.225438 0.225438
0.251321 0.251321 0.251321
0.281560 0.281560 0.281560
0.315296 0.315296 0.315296
0.351313 0.351313 0.351313
0.388143 0.388143 0.388143
0.424194 0.424194 0.424194
0.458644 0.458644 0.458644
0.491287 0.491287 0.491287
0.521954 0.521954 0.521954
0.172272 0.172272 0.172272
0.178738 0.178738 0.178738
0.188903 0.188903 0.188903
0.204115 0.204115 0.204115
0.224783 0.224783 0.224783
0.250463 0.250463 0.250463
0.280558 0.280558 0.280558
0.314186 0.314186 0.314186
0.350114 0.350114 0.350114
0.386890 0.386890 0.386890
0.422986 0.422986 0.422986
0.457489 0.457489 0.457489
0.490230 0.490230 0.490230
0.521076 0.521076 0.521076
0.549965 0.549965 0.549965
0.576800 0.576800 0.576800
0.188453 0.188453 0.188453
0.203522 0.203522 0.203522
0.224087 0.224087 0.224087
0.249674 0.249674 0.249674
0.279664 0.279664 0.279664
0.313131 0.313131 0.313131
0.348951 0.348951 0.348951
0.385652 0.385652 0.385652
0.421773 0.421773 0.421773
0.456321 0.456321 0.456321
0.489082 0.489082 0.489082
0.519994 0.519994 0.519994
0.548941 0.548941 0.548941
0.575959 0.575959 0.575959
0.601016 0.601016 0.601016
0.624113 0.624113 0.624113
0.223232 0.223232 0.223232
0.248653 0.248653 0.248653
0.278499 0.278499 0.278499
0.311887 0.311887 0.311887
0.347666 0.347666 0.347666
0.384365 0.384365 0.384365
0.420475 0.420475 0.420475
0.455110 0.455110 0.455110
0.487948 0.487948 0.487948
0.518957 0.518957 0.518957
0.547974 0.547974 0.547974
0.575032 0.575032 0.575032
0.600152 0.600152 0.600152
0.623434 0.623434 0.623434
0.644950 0.644950 0.644950
0.664805 0.664805 0.664805
0.277355 0.277355 0.277355
0.310852 0.310852 0.310852
0.346591 0.346591 0.346591
0.383287 0.383287 0.383287
0.419405 0.419405 0.419405
0.454051 0.454051 0.454051
0.486886 0.486886 0.486886
0.517905 0.517905 0.517905
0.546987 0.546987 0.546987
0.574119 0.574119 0.574119
0.599300 0.599300 0.599300
0.622630 0.622630 0.622630
0.644212 0.644212 0.644212
0.664165 0.664165 0.664165
0.682699 0.682699 0.682699
0.699940 0.699940 0.699940
0.345295 0.345295 0.345295
0.382047 0.382047 0.382047
0.418217 0.418217 0.418217
0.452904 0.452904 0.452904
0.485843 0.485843 0.485843
0.516912 0.516912 0.516912
0.546046 0.546046 0.546046
0.573215 0.573215 0.573215
