Assets/LUTs/B&W.cube
LUT_3D_SIZE 6
0.141724 0.141724 0.141724
0.158001 0.158001 0.158001
0.167981 0.167981 0.167981
0.188391 0.188391 0.188391
0.250049 0.250049 0.250049
0.349951 0.349951 0.349951
0.167670 0.167670 0.167670
0.187650 0.187650 0.187650
0.247596 0.247596 0.247596
0.346506 0.346506 0.346506
0.454188 0.454188 0.454188
0.547048 0.547048 0.547048
0.244983 0.244983 0.244983
0.342875 0.342875 0.342875
0.450619 0.450619 0.450619
0.544244 0.544244 0.544244
0.620416 0.620416 0.620416
0.680826 0.680826 0.680826
0.447388 0.447388 0.447388
0.541436 0.541436 0.541436
0.618143 0.618143 0.618143
0.679096 0.679096 0.679096
0.728787 0.728787 0.728787
0.773464 0.773464 0.773464
0.615985 0.615985 0.615985
0.677310 0.677310 0.677310
0.727243 0.727243 0.727243
0.772060 0.772060 0.772060
0.818101 0.818101 0.818101
0.868915 0.868915 0.868915
0.725711 0.725711 0.725711
0.770484 0.770484 0.770484
0.816299 0.816299 0.816299
0.867059 0.867059 0.867059
0.919325 0.919325 0.919325
0.968313 0.968313 0.968313
0.148608 0.148608 0.148608
0.161991 0.161991 0.161991
0.172647 0.172647 0.172647
0.205405 0.205405 0.205405
0.283550 0.283550 0.283550
0.390745 0.390745 0.390745
0.172272 0.172272 0.172272
0.204115 0.204115 0.204115
0.280558 0.280558 0.280558
0.386890 0.386890 0.386890
0.490230 0.490230 0.490230
0.576800 0.576800 0.576800
0.277355 0.277355 0.277355
0.383287 0.383287 0.383287
0.486886 0.486886 0.486886
0.574119 0.574119 0.574119
0.644212 0.644212 0.644212
0.699940 0.699940 0.699940
0.483873 0.483873 0.483873
0.571600 0.571600 0.571600
0.642134 0.642134 0.642134
0.698339 0.698339 0.698339
0.745447 0.745447 0.745447
0.789968 0.789968 0.789968
0.640182 0.640182 0.640182
0.696683 0.696683 0.696683
0.743931 0.743931 0.743931
0.788517 0.788517 0.788517
0.836281 0.836281 0.836281
0.888172 0.888172 0.888172
0.742385 0.742385 0.742385
0.786864 0.786864 0.786864
0.834416 0.834416 0.834416
0.886374 0.886374 0.886374
0.937917 0.937917 0.937917
0.984489 0.984489 0.984489
0.154486 0.154486 0.154486
0.165405 0.165405 0.165405
0.180105 0.180105 0.180105
0.229058 0.229058 0.229058
0.320995 0.320995 0.320995
0.430120 0.430120 0.430120
0.179469 0.179469 0.179469
0.227105 0.227105 0.227105
0.317658 0.317658 0.317658
0.426477 0.426477 0.426477
0.524026 0.524026 0.524026
0.604198 0.604198 0.604198
0.314186 0.314186 0.314186
0.422860 0.422860 0.422860
0.520801 0.520801 0.520801
0.601648 0.601648 0.601648
0.666029 0.666029 0.666029
0.717804 0.717804 0.717804
0.518088 0.518088 0.518088
0.599356 0.599356 0.599356
0.664133 0.664133 0.664133
0.716313 0.716313 0.716313
0.761735 0.761735 0.761735
0.806922 0.806922 0.806922
0.662354 0.662354 0.662354
0.714743 0.714743 0.714743
0.760235 0.760235 0.760235
0.805416 0.805416 0.805416
0.855083 0.855083 0.855083
0.907347 0.907347 0.907347
0.758660 0.758660 0.758660
0.803665 0.803665 0.803665
0.853127 0.853127 0.853127
0.905578 0.905578 0.905578
0.955823 0.955823 0.955823
0.999211 0.999211 0.999211
0.159204 0.159204 0.159204
0.169072 0.169072 0.169072
0.192380 0.192380 0.192380
0.258774 0.258774 0.258774
0.361166 0.361166 0.361166
0.467568 0.467568 0.467568
0.191332 0.191332 0.191332
0.256142 0.256142 0.256142
0.357451 0.357451 0.357451
0.464192 0.464192 0.464192
0.555475 0.555475 0.555475
0.629373 0.629373 0.629373
0.353816 0.353816 0.353816
0.460699 0.460699 0.460699
0.552461 0.552461 0.552461
0.627049 0.627049 0.627049
0.686221 0.686221 0.686221
0.734802 0.734802 0.734802
0.549904 0.549904 0.549904
0.624946 0.624946 0.624946
0.684465 0.684465 0.684465
0.733383 0.733383 0.733383
0.778040 0.778040 0.778040
0.824597 0.824597 0.824597
0.682795 0.682795 0.682795
0.731878 0.731878 0.731878
0.776527 0.776527 0.776527
0.823042 0.823042 0.823042
0.874263 0.874263 0.874263
0.926246 0.926246 0.926246
0.774848 0.774848 0.774848
0.821193 0.821193 0.821193
0.872333 0.872333 0.872333
0.924492 0.924492 0.924492
0.972834 0.972834 0.972834
0.999998 0.999998 0.999998
0.162970 0.162970 0.162970
0.174275 0.174275 0.174275
0.211210 0.211210 0.211210
0.293328 0.293328 0.293328
0.401563 0.401563 0.401563
0.502711 0.502711 0.502711
0.209525 0.209525 0.209525
0.290331 0.290331 0.290331
0.397856 0.397856 0.397856
0.499653 0.499653 0.499653
0.584563 0.584563 0.584563
0.652472 0.652472 0.652472
0.394164 0.394164 0.394164
0.496378 0.496378 0.496378
0.581772 0.581772 0.581772
0.650319 0.650319 0.650319
0.704930 0.704930 0.704930
0.751280 0.751280 0.751280
0.579452 0.579452 0.579452
0.648348 0.648348 0.648348
0.703302 0.703302 0.703302
0.749856 0.749856 0.749856
0.794560 0.794560 0.794560
0.843020 0.843020 0.843020
0.701724 0.701724 0.701724
0.748393 0.748393 0.748393
0.793071 0.793071 0.793071
0.841393 0.841393 0.841393
0.893517 0.893517 0.893517
0.944569 0.944569 0.944569
0.791265 0.791265 0.791265
0.839404 0.839404 0.839404
0.891651 0.891651 0.891651
0.942855 0.942855 0.942855
0.988854 0.988854 0.988854
1.000000 1.000000 1.000000
0.166315 0.166315 0.166315
0.182795 0.182795 0.182795
0.236533 0.236533 0.236533
0.331778 0.331778 0.331778
0.440527 0.440527 0.440527
0.535726 0.535726 0.535726
0.234239 0.234239 0.234239
0.328316 0.328316 0.328316
0.436920 0.436920 0.436920
0.532858 0.532858 0.532858
0.611368 0.611368 0.611368
0.673642 0.673642 0.673642
0.433471 0.433471 0.433471
0.529759 0.529759 0.529759
0.608758 0.608758 0.608758
0.671670 0.671670 0.671670
0.722550 0.722550 0.722550
0.767505 0.767505 0.767505
0.606641 0.606641 0.606641
0.669866 0.669866 0.669866
0.720979 0.720979 0.720979
0.766111 0.766111 0.766111
0.811708 0.811708 0.811708
0.861868 0.861868 0.861868
0.719498 0.719498 0.719498
0.764660 0.764660 0.764660
0.810099 0.810099 0.810099
0.860309 0.860309 0.860309
0.912635 0.912635 0.912635
0.962151 0.962151 0.962151
0.808268 0.808268 0.808268
0.858297 0.858297 0.858297
0.910711 0.910711 0.910711
0.960496 0.960496 0.960496
0.999664 0.999664 0.999664
1.000000 1.000000 1.000000
