Assets/LUTs/Cinema Contrast.cube
TITLE "Generated by Resolve"
LUT_3D_SIZE 9
0 0 0
0.0393072 0.0126345 0.00944533
0.124895 0.013489 0.00436408
0.266056 0 0
0.429297 0 0
0.582986 0 0
0.717662 0 0
0.830304 0 0
0.92874 0 0
0.0425269 0.0790265 0
0.0742809 0.0915541 0
0.126436 0.103502 0
0.274922 0.0910201 0
0.444846 0.0762798 0
0.605432 0.0640879 0
0.741741 0.0614939 0
0.854658 0.0692607 0
0.958907 0.082475 0
0.0823529 0.166705 0
0.153262 0.173465 0
0.197528 0.192676 0
0.305867 0.200748 0
0.480064 0.194629 0
0.642863 0.191897 0
0.77792 0.198764 0
0.888853 0.21471 0
0.994018 0.232822 0
0.108309 0.286992 0
0.188861 0.300877 0
0.273579 0.316564 0
0.344518 0.342397 0
0.483894 0.353292 0
0.64538 0.355032 0
0.77969 0.363561 0
0.891844 0.378653 0
0.997772 0.396216 0
0.151675 0.435538 0
0.234394 0.45481 0
0.330297 0.46981 0
0.409552 0.492012 0
0.495079 0.51696 0
0.634913 0.525078 0
0.772503 0.53315 0
0.887388 0.548211 0
0.994232 0.564752 0
0.205966 0.590555 0
0.286793 0.609781 0
0.386664 0.623301 0
0.485908 0.639323 0
0.54844 0.669963 0
0.645472 0.688884 0
0.766079 0.699657 0
0.879667 0.710887 0
0.983505 0.722545 0
0.283818 0.735576 0
0.363485 0.754971 0
0.464012 0.76643 0
0.574441 0.775189 0
0.64004 0.798733 0.00515755
0.696803 0.821942 0.0100557
0.778836 0.836622 0.00274662
0.877394 0.844678 0
0.976715 0.849912 0
0.380392 0.865583 0
0.455283 0.880903 0
0.551492 0.886763 0
0.665248 0.886549 0
0.74081 0.898177 0.0184939
0.775982 0.918929 0.0274205
0.818479 0.93727 0.0224765
0.885634 0.947951 0.0108644
0.976806 0.949889 0.00128176
0.466789 0.974334 0
0.534997 0.98378 0
0.626139 0.983505 0
0.740627 0.975692 0
0.82652 0.976959 0.0177157
0.859739 0.991714 0.0308995
0.872053 1 0.0316777
0.907164 1 0.0221561
0.977203 1 0.00822461
0 0.020264 0.0493629
0.0169375 0.0187533 0.101808
0.130922 0.0111696 0.0958114
0.274571 0 0.0741131
0.438941 0 0.0465095
0.594217 0 0.0193484
0.728893 0 0
0.8392 0 0
0.939635 0 0
0.0106203 0.0790875 0.128283
0.0313878 0.101595 0.1084
0.138384 0.101274 0.0763256
0.288334 0.0892805 0.0579995
0.45893 0.0754559 0.0372168
0.619486 0.0644388 0.0192721
0.755337 0.0631723 0.0105592
0.867826 0.0722972 0.0116426
0.971801 0.0866102 0.0175174
0 0.196887 0.0153506
0.0764172 0.202487 0.00827039
0.227298 0.190356 0.0523995
0.321874 0.202075 0.0625315
0.496132 0.197192 0.0503853
0.658228 0.195636 0.0418402
0.792767 0.203265 0.0419928
0.90312 0.219654 0.0499733
1 0.237903 0.0595254
0.0159915 0.321386 0
0.118959 0.331991 0
0.260502 0.331243 0.0193027
0.376272 0.342092 0.0627909
0.500328 0.357458 0.0601968
0.661662 0.359274 0.0544289
0.794659 0.367849 0.0548714
0.906096 0.383413 0.0616617
1 0.401312 0.0705425
0.0705425 0.47013 0
0.170672 0.485634 0
0.301915 0.489906 0
0.437461 0.493339 0.0493019
0.515206 0.519753 0.0683909
0.649516 0.529717 0.0607767
0.787274 0.537789 0.0607919
0.901411 0.552926 0.0670787
1 0.569406 0.0744182
0.130892 0.623667 0
0.226001 0.639719 0
0.351568 0.645747 0
0.495888 0.646998 0.0319829
0.580987 0.669154 0.0697032
0.6607 0.692393 0.072282
0.778759 0.703471 0.0667277
0.891783 0.714229 0.0683604
0.994553 0.725429 0.0700542
0.213031 0.767773 0
0.304372 0.784009 0
0.424613 0.789242 0
0.569619 0.786236 0.0308843
0.672023 0.796506 0.0768444
0.718959 0.821057 0.0885786
0.78941 0.838254 0.0818341
0.886839 0.846006 0.0745251
0.985473 0.850797 0.0694285
0.311345 0.895705 0
0.395636 0.907912 0
0.508019 0.908263 0
0.649165 0.898543 0.0358892
0.761837 0.897017 0.0834821
0.805737 0.913481 0.101396
0.83209 0.935576 0.100145
0.893034 0.947646 0.0877394
0.983978 0.949386 0.0763409
0.39791 1 0
0.474418 1 0
0.579309 1 0
0.716548 0.98793 0.0295567
0.83534 0.977844 0.0769818
0.890425 0.984695 0.100618
0.89279 1 0.10724
0.916259 1 0.0993668
0.983673 1 0.0839094
0 0.0392462 0.120989
0 0.0424048 0.173129
0.109163 0.0145266 0.21236
0.277165 0 0.18497
0.444739 0 0.157382
0.601251 0 0.129747
0.736187 0 0.109804
0.846372 0 0.0993057
0.946624 0 0.0943465
0.0117494 0.0798047 0.207034
0.0262303 0.106325 0.169757
0.100587 0.113939 0.161425
0.297856 0.0860914 0.169085
0.47042 0.0727245 0.148058
0.631037 0.0627909 0.130037
0.76643 0.0627604 0.12166
0.878431 0.073106 0.123323
0.982132 0.0883345 0.129747
0.0297093 0.166155 0.281636
0.0577859 0.193729 0.271595
0.120806 0.217075 0.233829
0.335805 0.201495 0.171038
0.509926 0.197665 0.159625
0.671107 0.197055 0.15201
0.804547 0.205447 0.152956
0.914733 0.222034 0.161456
1 0.240314 0.171252
0 0.323507 0.216464
0.00852979 0.357794 0.184848
0.153811 0.36878 0.125963
0.394354 0.344549 0.153338
0.517617 0.358373 0.169375
0.676631 0.360662 0.16376
0.807584 0.369589 0.164584
0.918059 0.385641 0.172122
1 0.40383 0.181506
0 0.498955 0.0938125
0.0477455 0.523873 0.0772717
0.214115 0.523949 0.079408
0.416861 0.507942 0.131258
0.542199 0.517876 0.176028
0.663142 0.531609 0.171115
0.800366 0.539773 0.170871
0.913268 0.555001 0.177188
1 0.571405 0.184482
0.0109255 0.659968 0.00724804
0.113954 0.678126 0.0184787
0.273747 0.677668 0.0504158
0.461921 0.666102 0.110079
0.609628 0.667124 0.169512
0.676249 0.692699 0.182528
0.789441 0.704616 0.176425
0.901656 0.714839 0.177203
1 0.725612 0.178286
0.099321 0.805127 0
0.202152 0.820417 0.00334173
0.351614 0.818814 0.0466316
0.528862 0.805859 0.105898
0.682597 0.798413 0.167163
0.74522 0.815991 0.193317
0.798169 0.837186 0.190295
0.893965 0.844724 0.181857
0.991791 0.849073 0.175967
0.203738 0.931044 0
0.299489 0.940993 0.00846876
0.436774 0.934813 0.0531472
0.603525 0.916976 0.107942
0.756374 0.901656 0.165988
0.834257 0.905699 0.199329
0.846571 0.930571 0.205829
0.898116 0.9449 0.194156
0.988769 0.946426 0.18204
0.294789 1 0
0.382223 1 0.00561532
0.508904 1 0.0487984
0.667628 1 0.0993973
0.818708 0.984298 0.154208
0.910658 0.978408 0.192157
0.916503 1 0.20914
0.924193 1 0.205432
0.987869 1 0.189746
0 0.0539864 0.230823
0 0.0579385 0.279683
0.0291905 0.033341 0.342229
0.26183 0 0.337713
0.443763 0 0.30518
0.602213 0 0.278798
0.738109 0 0.259815
0.848646 0 0.250385
0.949096 0 0.246525
0 0.108705 0.266819
0 0.128832 0.247684
0.047776 0.128435 0.269413
0.269703 0.0896162 0.322347
0.473869 0.0681468 0.298955
0.636469 0.0585641 0.282383
0.772335 0.0594644 0.274998
0.884291 0.0708171 0.277653
0.987839 0.0868086 0.285145
0.0597543 0.154391 0.419821
0.0901961 0.182788 0.404547
0.158221 0.207233 0.351888
0.301213 0.214054 0.290669
0.518135 0.195087 0.31284
0.679286 0.195117 0.305837
0.811124 0.204318 0.3075
0.921508 0.220966 0.316152
1 0.239063 0.326085
0.0429541 0.288106 0.467842
0.0793622 0.323995 0.466026
0.151339 0.35407 0.439445
0.267369 0.375265 0.38616
0.534218 0.354879 0.318227
0.687266 0.358495 0.314366
0.81622 0.36791 0.316396
0.925933 0.38436 0.325017
1 0.402716 0.335225
0 0.469383 0.450614
0.0296178 0.509621 0.434546
0.112337 0.54081 0.370871
0.306813 0.541787 0.28159
0.56347 0.514351 0.311574
0.675654 0.529244 0.321157
0.810468 0.537911 0.321538
0.921431 0.553353 0.328542
1 0.569635 0.3364
0 0.656931 0.358862
0.0164187 0.692592 0.325994
0.147448 0.710201 0.262974
0.371496 0.696162 0.239307
0.593729 0.675059 0.294499
0.694347 0.687633 0.330739
0.797055 0.701793 0.325994
0.907973 0.711589 0.326452
1 0.721981 0.327642
0 0.822416 0.271077
0.0787671 0.848203 0.246448
0.231998 0.852171 0.217197
0.447425 0.831998 0.22739
0.650309 0.809415 0.285206
0.769116 0.807263 0.332723
0.804211 0.832059 0.338384
0.897353 0.839689 0.329213
0.994202 0.84361 0.323064
0.0823224 0.956664 0.218662
0.173281 0.971344 0.208148
0.325368 0.965057 0.201801
0.526177 0.939498 0.224613
0.715541 0.91284 0.279576
0.843565 0.899611 0.329213
0.861921 0.920729 0.349615
0.899428 0.938521 0.340505
0.989715 0.939895 0.327977
0.169772 1 0.179355
0.259632 1 0.178363
0.403937 1 0.185016
0.59263 1 0.213077
0.773022 0.9953 0.265263
0.905226 0.975967 0.314961
0.939834 0.987686 0.347845
0.929992 1 0.351034
0.988296 1 0.335653
0 0.0687266 0.354467
0 0.0728771 0.402121
0 0.0534524 0.465293
0.196414 0.00315862 0.50634
0.432898 0 0.475746
0.59968 0 0.446494
0.736996 0 0.429419
0.848432 0 0.42121
0.949599 0 0.418143
0 0.131655 0.358663
0 0.145937 0.360159
0 0.142962 0.393317
0.188266 0.111635 0.458625
0.461723 0.066865 0.472404
0.637201 0.0548409 0.452766
0.774136 0.0563211 0.447517
0.885878 0.0685435 0.451423
0.991302 0.0846571 0.458381
0.00495918 0.172564 0.516915
0.0215763 0.207614 0.488304
0.0708934 0.2392 0.431708
0.217884 0.240269 0.427192
0.480797 0.204105 0.492866
0.674449 0.195483 0.481544
0.811856 0.203342 0.48249
0.925078 0.219242 0.489769
1 0.23682 0.498283
0.0841077 0.275166 0.627192
0.122606 0.311391 0.624613
0.194781 0.342336 0.594232
0.314946 0.363653 0.529595
0.474907 0.374182 0.469276
0.687221 0.357443 0.488457
0.820661 0.365866 0.489113
0.931548 0.382208 0.496849
1 0.400504 0.506264
0.0763256 0.437125 0.685664
0.115679 0.475212 0.687755
0.188724 0.505165 0.663203
0.307027 0.524804 0.616587
0.441749 0.543511 0.549706
0.689982 0.525032 0.488685
0.819425 0.53489 0.490425
0.928344 0.550469 0.497627
1 0.566552 0.505058
0.0361028 0.616419 0.693919
0.0741436 0.655818 0.688487
0.146212 0.688777 0.646677
0.271855 0.709987 0.560845
0.487938 0.70663 0.454047
0.719112 0.68011 0.486641
0.805707 0.697139 0.492576
0.913817 0.706844 0.492638
1 0.716991 0.493294
0.0149996 0.793484 0.662562
0.0572366 0.830823 0.640421
0.143893 0.858167 0.569482
0.314015 0.86186 0.468299
0.559716 0.835782 0.425742
0.758923 0.808728 0.474647
0.813443 0.824552 0.503426
0.900343 0.833219 0.493675
0.995773 0.836851 0.486625
0.031693 0.947158 0.601099
0.0846113 0.975021 0.564523
0.197055 0.986709 0.489235
0.395392 0.970581 0.418097
0.631479 0.935271 0.413352
0.813504 0.905303 0.462821
0.884733 0.907668 0.507591
0.900313 0.930892 0.504753
0.989868 0.932235 0.490974
0.0710918 1 0.519707
0.13608 1 0.482719
0.265995 1 0.423133
0.46978 1 0.382696
0.692454 1 0.395987
0.865171 0.98378 0.444755
0.956741 0.976287 0.498299
0.939132 1 0.514412
0.987991 1 0.499489
0 0.0849165 0.478965
0 0.0885176 0.524544
0 0.0717479 0.58497
0.105959 0.0256504 0.646372
0.387366 0 0.653758
0.590539 0 0.618845
0.733913 0 0.600977
0.846525 0 0.595987
0.948821 0 0.596674
0 0.152758 0.46804
0 0.164416 0.482124
0 0.161044 0.521782
0.109804 0.134661 0.585595
0.388098 0.084535 0.648951
0.621408 0.0560311 0.633783
0.767773 0.0560311 0.626947
0.884459 0.0675364 0.632395
0.993255 0.0831922 0.640162
0 0.20766 0.587289
0 0.241215 0.563134
0 0.26566 0.538643
0.147051 0.264027 0.561547
0.378698 0.236301 0.643458
0.651316 0.201144 0.667262
0.806729 0.204318 0.663951
0.925261 0.218524 0.671748
1 0.234958 0.67985
0.0588693 0.287266 0.746624
0.0873121 0.328069 0.734813
0.133501 0.368978 0.685512
0.224399 0.400244 0.609476
0.391226 0.402579 0.608087
0.649516 0.367117 0.675227
0.816754 0.366308 0.671168
0.933806 0.380972 0.678767
1 0.398566 0.687587
0.123415 0.424079 0.852186
0.162814 0.462058 0.851987
0.234241 0.492821 0.824247
0.349401 0.514183 0.771893
0.477134 0.536507 0.690562
0.632212 0.543709 0.648417
0.82089 0.533639 0.670909
0.933227 0.547875 0.67718
1 0.563287 0.68397
0.122042 0.58616 0.916762
0.161608 0.624308 0.91873
0.235523 0.654704 0.894926
0.35436 0.673548 0.849134
0.490425 0.688731 0.789273
0.618143 0.702296 0.722896
0.816587 0.691722 0.664698
0.919905 0.701823 0.666545
1 0.71165 0.667872
0.113909 0.750652 0.965011
0.14963 0.787488 0.960708
0.217456 0.816068 0.925231
0.328634 0.832929 0.858289
0.462104 0.845548 0.754284
0.653605 0.836973 0.634546
0.837018 0.813367 0.666499
0.90486 0.826276 0.66363
0.997986 0.829847 0.657542
0.104295 0.902205 0.976867
0.134844 0.934157 0.956207
0.199191 0.957855 0.894926
0.317632 0.967956 0.791028
0.494041 0.962509 0.658763
0.721584 0.929168 0.601526
0.887037 0.902281 0.654276
0.902693 0.922911 0.673472
0.9906 0.924514 0.659983
0.0885786 1 0.931365
0.120272 1 0.892882
0.195026 1 0.808576
0.342718 1 0.690959
0.557778 1 0.590631
0.780392 1 0.576867
0.936965 0.977661 0.634714
0.95761 0.992782 0.678294
0.98822 1 0.668116
0 0.102327 0.569039
0 0.105364 0.613733
0 0.090013 0.672435
0.0277562 0.0489967 0.738506
0.31371 0 0.783276
0.560296 0 0.765591
0.727916 0 0.741009
0.843153 0 0.737774
0.948791 0 0.739956
0 0.173114 0.550988
0 0.183597 0.572534
0 0.180819 0.616938
0.0404517 0.157961 0.680659
0.294057 0.114412 0.762371
0.572137 0.0697948 0.786221
0.758602 0.0596933 0.771954
0.882811 0.0698558 0.776333
0.995254 0.0848096 0.785153
0 0.240238 0.635523
0 0.269947 0.6262
0 0.290166 0.624842
0.0870527 0.28777 0.660578
0.301778 0.265782 0.742123
0.581933 0.223926 0.813993
0.796262 0.209705 0.810422
0.923858 0.22121 0.816236
1 0.236225 0.824933
0 0.319936 0.799649
0.00723278 0.36408 0.779721
0.05037 0.406439 0.728084
0.156435 0.430106 0.68249
0.327062 0.428214 0.708858
0.555886 0.399619 0.794888
0.802548 0.372625 0.818692
0.932906 0.383642 0.823926
1 0.399741 0.833204
0.118822 0.432822 0.947143
0.151827 0.472923 0.940917
0.207248 0.509804 0.902541
0.293324 0.54197 0.830686
0.394507 0.573022 0.741039
0.556771 0.572595 0.75169
0.798505 0.541772 0.820203
0.93315 0.549294 0.822339
1 0.562799 0.828397
0.168948 0.576272 1
0.208652 0.614466 1
0.28098 0.645319 1
0.396368 0.665202 0.970596
0.524468 0.683024 0.902449
0.633661 0.703563 0.813993
0.771008 0.705776 0.800351
0.922347 0.700023 0.808972
1 0.708537 0.808988
0.190631 0.727199 1
0.227604 0.762661 1
0.297658 0.788998 1
0.411612 0.802518 1
0.541955 0.811276 0.987655
0.66482 0.817105 0.91899
0.764187 0.828244 0.846387
0.912291 0.821042 0.798749
1 0.824842 0.794018
0.197833 0.865583 1
0.22768 0.89572 1
0.289601 0.916991 1
0.394827 0.926299 1
0.515312 0.932219 0.998886
0.633722 0.936141 0.888457
0.802106 0.925536 0.766629
0.91194 0.915816 0.805936
0.993439 0.918975 0.793591
0.178317 0.988373 1
0.202029 1 1
0.257939 1 1
0.360159 1 1
0.489036 1 0.922225
0.651545 1 0.784878
0.86157 0.998734 0.734218
0.978943 0.983032 0.798901
0.990433 1 0.801602
0 0.122133 0.628733
0 0.124453 0.672877
0 0.109957 0.730724
0 0.0727703 0.797482
0.230365 0.016846 0.864027
0.500359 0 0.880446
0.704555 0 0.861677
0.84007 0 0.84976
0.949935 0 0.852903
0 0.195193 0.607172
0 0.205112 0.633875
0 0.202976 0.681697
0 0.182544 0.745602
0.212329 0.145495 0.831418
0.494072 0.0971237 0.893217
0.730541 0.0714733 0.89546
0.880995 0.0754864 0.89015
0.997848 0.0894636 0.899565
0 0.271366 0.667872
0 0.298405 0.671275
0 0.316167 0.685466
0.031693 0.313497 0.728862
0.237781 0.294759 0.809583
0.493538 0.258457 0.901076
0.758465 0.225467 0.934462
0.921324 0.227222 0.930114
1 0.240696 0.939254
0 0.361074 0.809812
0 0.404288 0.791714
0 0.441733 0.756497
0.0976883 0.45893 0.738018
0.270176 0.454765 0.777874
0.480247 0.432059 0.863462
0.746944 0.39408 0.938842
0.92961 0.390158 0.938231
1 0.404181 0.947936
0.0695659 0.460533 0.984726
0.093431 0.50399 0.970245
0.133455 0.546944 0.919768
0.211978 0.58204 0.842435
0.330739 0.604349 0.787182
0.496284 0.600336 0.821591
0.714961 0.572915 0.920378
0.927703 0.555245 0.9364
1 0.565652 0.942397
0.17792 0.583535 1
0.213504 0.62327 1
0.274952 0.657801 1
0.370459 0.684398 1
0.463645 0.71429 0.92636
0.554849 0.739467 0.837156
0.695445 0.735286 0.868238
0.912947 0.704402 0.92256
1 0.70869 0.921614
0.239322 0.718914 1
0.275822 0.754009 1
0.343877 0.780301 1
0.454444 0.794263 1
0.578424 0.804608 1
0.688212 0.814557 0.993347
0.752377 0.83827 0.891936
0.897551 0.824338 0.912352
1 0.822354 0.904555
0.270619 0.844511 1
0.301091 0.873442 1
0.364477 0.893065 1
0.472221 0.900084 1
0.596384 0.902586 1
0.713634 0.902586 1
0.810407 0.90808 1
0.8851 0.920165 0.930617
0.998886 0.91545 0.899367
0.268177 0.955337 1
0.292393 0.979263 1
0.349645 0.994797 1
0.451591 0.998993 1
0.569329 1 1
0.679759 1 1
0.774929 1 0.975082
0.930541 0.998993 0.870466
0.995026 1 0.905531
0 0.142596 0.679042
0 0.144091 0.723049
0 0.130159 0.780743
0 0.0964828 0.848264
0.14403 0.0467689 0.925902
0.419028 0 0.972305
0.660716 0 0.97348
0.827146 0 0.959152
0.950835 0 0.955596
0 0.217716 0.656123
0 0.227436 0.686748
0 0.225864 0.736904
0 0.207324 0.801221
0.141222 0.175067 0.887373
0.407294 0.130419 0.969787
0.675776 0.0927138 1
0.86656 0.0851759 1
0.99968 0.0954299 1
0 0.300862 0.701152
0 0.326223 0.71429
0 0.34258 0.739193
0 0.339818 0.787564
0.179278 0.32314 0.867903
0.414542 0.292744 0.963287
0.688182 0.252995 1
0.902388 0.238071 1
1 0.246662 1
0 0.401328 0.815808
0 0.441459 0.80705
0 0.47425 0.789319
0.0423438 0.487068 0.789441
0.216052 0.481529 0.837079
0.416648 0.462089 0.921172
0.661906 0.427955 1
0.904372 0.403204 1
1 0.410163 1
0 0.49987 0.991943
0.0122072 0.544625 0.973098
0.0511177 0.588296 0.921233
0.140948 0.618433 0.859815
0.273915 0.633341 0.834989
0.440818 0.627512 0.881056
0.635843 0.606561 0.980972
0.889784 0.570809 1
1 0.570199 1
0.146227 0.60618 1
0.174411 0.648539 1
0.221195 0.688075 1
0.297047 0.721477 1
0.382666 0.753445 0.928725
0.492622 0.76846 0.87631
0.634501 0.761257 0.925277
0.850156 0.725444 1
1 0.711055 1
0.254627 0.72372 1
0.287678 0.759426 1
0.347524 0.787823 1
0.444129 0.805951 1
0.543603 0.824247 1
0.617777 0.846342 1
0.6804 0.868055 0.916136
0.8112 0.853437 0.979141
1 0.822721 1
0.31754 0.834958 1
0.347189 0.863447 1
0.408728 0.883009 1
0.513527 0.890425 1
0.632761 0.894163 1
0.741375 0.896895 1
0.816373 0.909911 1
0.8439 0.93843 0.958328
0.999008 0.914031 0.999557
0.335637 0.934707 1
0.360342 0.957839 1
0.418692 0.972381 1
0.522515 0.97528 1
0.643366 0.974563 1
0.757961 0.972213 1
0.853895 0.976349 1
0.929412 0.98735 1
1 1 1
