Assets/LUTs/Cinema Contrast.cube
TITLE "Generated by Resolve"
LUT_3D_SIZE 33
0 0 0
0.004654 0.00381476 0.00321965
0.0138705 0.00743114 0.00595102
0.0254215 0.0103609 0.00816358
0.0393072 0.0126345 0.00944533
0.0556344 0.0142672 0.00935378
0.0754864 0.0148318 0.0093843
0.0982528 0.014725 0.00706493
0.124895 0.013489 0.00436408
0.15555 0.011017 0.00175479
0.189197 0.0078584 0
0.226535 0.00401312 0
0.266056 0 0
0.305867 0 0
0.347311 0 0
0.387274 0 0
0.429297 0 0
0.470161 0 0
0.510063 0 0
0.548165 0 0
0.582986 0 0
0.619562 0 0
0.654597 0 0
0.68629 0 0
0.717662 0 0
0.747234 0 0
0.77528 0 0
0.802152 0 0
0.830304 0 0
0.85359 0 0
0.878752 0 0
0.906416 0 0
0.92874 0 0
0.0090486 0.0203708 0
0.0132296 0.0244755 0
0.0112306 0.0307622 0
0.0176547 0.035111 0.00180056
0.0319677 0.0371862 0.00271611
0.0490272 0.0385138 0.00282292
0.0691997 0.0390021 0.00207523
0.0928817 0.0385443 0.000350958
0.120165 0.0371405 0
0.151019 0.0347753 0
0.185077 0.0315404 0
0.22269 0.0276493 0
0.262608 0.0233463 0
0.303639 0.0188754 0
0.344717 0.0144808 0
0.386145 0.0100099 0
0.42768 0.00538643 0
0.469001 0.000732433 0
0.509331 0 0
0.547967 0 0
0.584405 0 0
0.619516 0 0
0.654368 0 0
0.687922 0 0
0.719539 0 0
0.749355 0 0
0.777661 0 0
0.804776 0 0
0.831037 0 0
0.856748 0 0
0.882155 0 0
0.907637 0 0
0.933196 0 0
0.0198825 0.0402228 0
0.0253605 0.0438544 0
0.0310216 0.0474556 0
0.028748 0.0537881 0
0.0314946 0.0591745 3.0518e-05
0.0470283 0.0610056 0
0.0678264 0.0613718 0
0.0921492 0.0608225 0
0.120027 0.0593423 0
0.151476 0.0569619 0
0.186084 0.0537118 0
0.224063 0.0498512 0
0.264439 0.0456245 0
0.305882 0.0412604 0
0.347372 0.0370031 0
0.389212 0.0327306 0
0.431189 0.0283207 0
0.472877 0.0239261 0
0.513573 0.0197147 0
0.55259 0.0158083 0
0.589303 0.0123598 0
0.624491 0.00956741 0
0.659327 0.00747692 0
0.69308 0.00608835 0
0.724865 0.00538643 0
0.754849 0.00534066 0
0.783307 0.00588998 0
0.810575 0.00694286 0
0.836957 0.00840772 0
0.862791 0.0102235 0
0.88838 0.0122835 0
0.914015 0.0145266 0
0.939803 0.0169223 0
0.0311589 0.0596017 0
0.0378119 0.0628977 0
0.0466011 0.0655375 0
0.0513008 0.0695506 0
0.0493935 0.0759747 0
0.0530709 0.0812543 0
0.0691844 0.0831922 0
0.0938735 0.0827039 0
0.122393 0.081239 0
0.154452 0.0789044 0
0.189624 0.075761 0
0.228016 0.0720226 0
0.268803 0.0679637 0
0.310674 0.0638132 0
0.35256 0.0598001 0
0.394766 0.0558022 0
0.437156 0.0517128 0
0.479179 0.0476844 0
0.520226 0.0438849 0
0.559609 0.0404364 0
0.596582 0.0374914 0
0.631891 0.0351873 0
0.666712 0.0336309 0
0.700633 0.0327764 0
0.732586 0.0326085 0
0.762661 0.0331273 0
0.791211 0.0342718 0
0.818586 0.0358892 0
0.84509 0.0379492 0
0.871061 0.0403449 0
0.896819 0.0429999 0
0.922652 0.0458228 0
0.948669 0.0488136 0
0.0425269 0.0790265 0
0.0511788 0.0819715 0
0.0614481 0.0841688 0
0.0705119 0.0869154 0
0.0742809 0.0915541 0
0.0737163 0.0979629 0
0.0802472 0.102754 0
0.0986038 0.104433 0
0.126436 0.103502 0
0.159121 0.101289 0
0.194873 0.0983291 0
0.233677 0.0948196 0
0.274922 0.0910201 0
0.317205 0.0871748 0
0.359472 0.0835126 0
0.40206 0.0799268 0
0.444846 0.0762798 0
0.487205 0.0727398 0
0.528557 0.0694285 0
0.568231 0.0664988 0
0.605432 0.0640879 0
0.640848 0.0623331 0
0.6757 0.061326 0
0.709728 0.0610513 0
0.741741 0.0614939 0
0.771908 0.0626078 0
0.800549 0.0643473 0
0.828031 0.0665904 0
0.854658 0.0692607 0
0.880781 0.0722667 0
0.906691 0.0755322 0
0.932708 0.0789349 0
0.958907 0.082475 0
0.053666 0.09897 0
0.0642252 0.101564 0
0.0762036 0.103502 0
0.0880903 0.105608 0
0.096788 0.108888 0
0.100114 0.114183 0
0.102068 0.120394 0
0.112535 0.124559 0
0.134066 0.125872 0
0.164889 0.124681 0
0.201221 0.121996 0
0.240497 0.118807 0
0.282216 0.115404 0
0.324926 0.111986 0
0.367605 0.108782 0
0.410529 0.105669 0
0.453651 0.102525 0
0.496284 0.0995041 0
0.537881 0.0967422 0
0.577783 0.094377 0
0.615183 0.0925307 0
0.65066 0.091371 0
0.685481 0.0909743 0
0.719585 0.09131 0
0.751675 0.0923781 0
0.781918 0.0941176 0
0.810651 0.0964828 0
0.838224 0.0993515 0
0.864942 0.102617 0
0.891127 0.106203 0
0.917128 0.109972 0
0.943236 0.113863 0
0.969528 0.11783 0
0.0642863 0.119905 0
0.0770886 0.122164 0
0.0907301 0.123919 0
0.104829 0.125704 0
0.117052 0.128222 0
0.125338 0.132265 0
0.129137 0.138125 0
0.134707 0.143984 0
0.149523 0.147616 0
0.174716 0.148623 0
0.208392 0.147341 0
0.247959 0.14464 0
0.290135 0.14168 0
0.333227 0.138735 0
0.376242 0.136019 0
0.419471 0.13344 0
0.462852 0.130846 0
0.505684 0.128389 0
0.547509 0.126192 0
0.587579 0.124422 0
0.625086 0.123201 0
0.660609 0.122667 0
0.69543 0.122896 0
0.72958 0.123888 0
0.761715 0.125566 0
0.791974 0.127932 0
0.820706 0.130861 0
0.848249 0.134264 0
0.874952 0.138018 0
0.901137 0.142046 0
0.926909 0.146304 0
0.952911 0.150591 0
0.979294 0.154879 0
0.074052 0.142336 0
0.0894026 0.144259 0
0.104753 0.145937 0
0.120775 0.14757 0
0.135714 0.149722 0
0.147906 0.153002 0
0.155993 0.157961 0
0.161669 0.164157 0
0.171511 0.16965 0
0.190707 0.172854 0
0.219394 0.173617 0
0.255787 0.172503 0
0.297948 0.170153 0
0.341405 0.167727 0
0.384695 0.16556 0
0.428168 0.163531 0
0.471778 0.161517 0
0.514778 0.159655 0
0.556725 0.158099 0
0.596902 0.15697 0
0.634485 0.15639 0
0.670024 0.156481 0
0.704753 0.157321 0
0.738842 0.158877 0
0.770886 0.161105 0
0.801053 0.163973 0
0.829648 0.167376 0
0.856779 0.171298 0
0.882994 0.175555 0
0.908919 0.17998 0
0.934844 0.184482 0
0.961074 0.188937 0
0.98764 0.193347 0
0.0823529 0.166705 0
0.10016 0.168383 0
0.118227 0.169787 0
0.13608 0.171435 0
0.153262 0.173465 0
0.168566 0.176333 0
0.180621 0.18056 0
0.189197 0.186313 0
0.197528 0.192676 0
0.211826 0.197757 0
0.235187 0.20061 0
0.266972 0.20145 0
0.305867 0.200748 0
0.349096 0.199023 0
0.39263 0.197452 0
0.436301 0.196017 0
0.480064 0.194629 0
0.523156 0.193408 0
0.565164 0.192462 0
0.605341 0.191928 0
0.642863 0.191897 0
0.678264 0.192538 0
0.712779 0.193881 0
0.746685 0.195911 0
0.77792 0.198764 0
0.807263 0.202213 0
0.835309 0.206104 0
0.862409 0.2103 0
0.888853 0.21471 0
0.914961 0.219272 0
0.941039 0.22385 0
0.967391 0.228367 0
0.994018 0.232822 0
0.0891585 0.193439 0
0.107134 0.195636 0
0.125597 0.197498 0
0.145937 0.198993 0
0.166873 0.200473 0
0.187167 0.202411 0
0.202976 0.206043 0
0.215137 0.211215 0
0.224765 0.21767 0
0.236393 0.224018 0
0.255039 0.228748 0
0.281895 0.231586 0
0.316472 0.232807 0
0.356542 0.232746 0
0.399725 0.231922 0
0.443473 0.231083 0
0.487266 0.230259 0
0.530297 0.229557 0
0.572183 0.229129 0
0.612207 0.229084 0
0.648875 0.229725 0
0.683085 0.231067 0
0.716579 0.233051 0
0.749691 0.235599 0
0.780972 0.238682 0
0.810575 0.242267 0
0.838834 0.246235 0
0.866087 0.250507 0
0.892653 0.254963 0
0.918868 0.259525 0
0.944991 0.264088 0
0.971344 0.268559 0
0.99794 0.272923 0
0.0952621 0.222492 0
0.113481 0.225223 0
0.132036 0.227649 0
0.152453 0.22974 0
0.173632 0.231769 0
0.19472 0.234058 0
0.214527 0.237064 0
0.231922 0.24123 0
0.246189 0.246815 0
0.259342 0.253239 0
0.275685 0.259159 0
0.29868 0.26363 0
0.328801 0.266682 0
0.364675 0.268391 0
0.404349 0.269169 0
0.446983 0.269139 0
0.489952 0.268971 0
0.532097 0.26894 0
0.573098 0.269123 0
0.612284 0.269627 0
0.648875 0.270558 0
0.683452 0.272023 0
0.717235 0.274083 0
0.750607 0.276692 0
0.782086 0.27982 0
0.811856 0.283406 0
0.840208 0.287373 0
0.867536 0.2916 0
0.894148 0.295979 0
0.920333 0.300435 0
0.946395 0.304875 0
0.972656 0.309178 0
0.99913 0.313359 0
0.101381 0.253727 0
0.119905 0.256992 0
0.138659 0.260029 0
0.159228 0.262699 0
0.180728 0.265278 0
0.202487 0.268025 0
0.223606 0.271244 0
0.243091 0.275334 0
0.259953 0.280644 0
0.274403 0.287129 0
0.28954 0.293812 0
0.308949 0.299702 0
0.334859 0.304311 0
0.366888 0.307515 0
0.403418 0.30959 0
0.443854 0.310597 0
0.486992 0.310689 0
0.529641 0.31075 0
0.571084 0.311009 0
0.610666 0.311559 0
0.647593 0.31252 0
0.682429 0.313985 0
0.716426 0.316014 0
0.74995 0.318593 0
0.781552 0.32163 0
0.811383 0.325124 0
0.83975 0.328954 0
0.867048 0.333013 0
0.893584 0.337209 0
0.919661 0.341482 0
0.945708 0.3458 0
0.972045 0.350103 0
0.998703 0.354391 0
0.108309 0.286992 0
0.127199 0.290822 0
0.146197 0.294453 0
0.167025 0.297749 0
0.188861 0.300877 0
0.21117 0.304036 0
0.233295 0.307485 0
0.254444 0.311543 0
0.273579 0.316564 0
0.289967 0.322789 0
0.305318 0.329671 0
0.322377 0.336492 0
0.344518 0.342397 0
0.372473 0.346975 0
0.405371 0.350301 0
0.442832 0.352392 0
0.483894 0.353292 0
0.526604 0.353445 0
0.568383 0.353674 0
0.60824 0.354177 0
0.64538 0.355032 0
0.680385 0.35639 0
0.714488 0.358297 0
0.748089 0.360693 0
0.77969 0.363561 0
0.809476 0.366827 0
0.837812 0.370459 0
0.865171 0.374441 0
0.891844 0.378653 0
0.918166 0.383017 0
0.944427 0.387457 0
0.970962 0.391852 0
0.997772 0.396216 0
0.116869 0.322164 0
0.13611 0.326558 0
0.155367 0.330724 0
0.176394 0.334508 0
0.198459 0.338064 0
0.221195 0.341573 0
0.244053 0.34519 0
0.266453 0.349203 0
0.287297 0.353964 0
0.305943 0.359701 0
0.322393 0.366415 0
0.338613 0.373571 0
0.357473 0.380514 0
0.381643 0.386206 0
0.410636 0.390707 0
0.444663 0.39382 0
0.482902 0.39559 0
0.523644 0.396338 0
0.565347 0.396521 0
0.605356 0.396857 0
0.642618 0.397528 0
0.677668 0.398672 0
0.711818 0.40032 0
0.745464 0.402548 0
0.777218 0.405341 0
0.807248 0.408652 0
0.835859 0.412406 0
0.863447 0.41648 0
0.890364 0.420768 0
0.916854 0.425208 0
0.943282 0.429679 0
0.96994 0.434104 0
0.996872 0.438483 0
0.12752 0.35874 0
0.147036 0.363577 0
0.166445 0.368154 0
0.187594 0.37232 0
0.209827 0.376196 0
0.232837 0.379934 0
0.256245 0.383658 0
0.279576 0.387594 0
0.301885 0.39205 0
0.322454 0.397284 0
0.340414 0.403555 0
0.356847 0.41062 0
0.373877 0.418021 0
0.39443 0.424659 0
0.419455 0.430182 0
0.449744 0.434241 0
0.484749 0.436805 0
0.522789 0.438209 0
0.562585 0.438788 0
0.602457 0.438941 0
0.639841 0.439475 0
0.675135 0.440574 0
0.709606 0.442298 0
0.743587 0.444617 0
0.775616 0.447486 0
0.80589 0.450858 0
0.83473 0.454643 0
0.862531 0.458747 0
0.889586 0.46305 0
0.916228 0.467491 0
0.942748 0.471946 0
0.969482 0.476341 0
0.996445 0.480659 0
0.139361 0.396551 0
0.15906 0.401709 0
0.178561 0.406592 0
0.199756 0.411032 0
0.222065 0.415152 0
0.245228 0.419028 0
0.269001 0.422797 0
0.293019 0.426596 0
0.316426 0.430747 0
0.338384 0.435508 0
0.358221 0.441108 0
0.375494 0.447761 0
0.39176 0.455161 0
0.409369 0.46244 0
0.430793 0.468711 0
0.457191 0.47361 0
0.488685 0.476967 0
0.523857 0.479133 0
0.561379 0.480491 0
0.599802 0.4813 0
0.637339 0.481941 0
0.672984 0.483101 0
0.707759 0.484855 0
0.742 0.487205 0
0.774258 0.490074 0
0.80473 0.493431 0
0.833738 0.4972 0
0.861646 0.501259 0
0.888823 0.505501 0
0.915511 0.50985 0
0.942077 0.514229 0
0.968826 0.518502 0
0.995789 0.522698 0
0.151675 0.435538 0
0.17145 0.440925 0
0.190951 0.446006 0
0.212131 0.450599 0
0.234394 0.45481 0
0.257603 0.458732 0
0.281575 0.462425 0
0.30605 0.466041 0
0.330297 0.46981 0
0.353475 0.474037 0
0.374899 0.478904 0
0.393332 0.484916 0
0.409552 0.492012 0
0.425528 0.499504 0
0.443854 0.506584 0
0.466835 0.51252 0
0.495079 0.51696 0
0.527337 0.520119 0
0.562356 0.522332 0
0.598718 0.523903 0
0.634913 0.525078 0
0.670634 0.526284 0
0.705653 0.528038 0
0.740093 0.530327 0
0.772503 0.53315 0
0.803113 0.536446 0
0.832212 0.540124 0
0.860212 0.544076 0
0.887388 0.548211 0
0.914107 0.552422 0
0.940673 0.556634 0
0.967361 0.560739 0
0.994232 0.564752 0
0.164477 0.475059 0
0.184237 0.480537 0
0.203632 0.485695 0
0.224674 0.490318 0
0.246815 0.49453 0
0.269947 0.49836 0
0.293965 0.5019 0
0.3187 0.505241 0
0.343511 0.508583 0
0.367651 0.512245 0
0.390249 0.516579 0
0.410437 0.522042 0
0.427695 0.528893 0
0.443305 0.536583 0
0.459342 0.544396 0
0.479362 0.551247 0
0.50428 0.55668 0
0.533486 0.560769 0
0.56582 0.563806 0
0.599832 0.566094 0
0.634043 0.56791 0
0.668452 0.569528 0
0.703548 0.571237 0
0.738094 0.573449 0
0.770596 0.576165 0
0.801251 0.579339 0
0.830396 0.582849 0
0.858381 0.586648 0
0.885557 0.590616 0
0.91223 0.594629 0
0.938689 0.598627 0
0.96527 0.602518 0
0.99202 0.606271 0
0.177752 0.514488 0
0.197375 0.519921 0
0.216587 0.525017 0
0.237415 0.529549 0
0.259312 0.533639 0
0.282246 0.537285 0
0.306264 0.540642 0
0.331289 0.543816 0
0.356771 0.547021 0
0.38201 0.550484 0
0.406027 0.554513 0
0.42797 0.559518 0
0.446525 0.566033 0
0.462394 0.573648 0
0.477256 0.581811 0
0.494438 0.589426 0
0.516396 0.595666 0
0.542458 0.600626 0
0.571878 0.604456 0
0.603387 0.607416 0
0.635447 0.609796 0
0.667903 0.611933 0
0.701701 0.613977 0
0.736217 0.616053 0
0.768734 0.618601 0
0.79939 0.621576 0
0.828504 0.624918 0
0.856428 0.628489 0
0.883513 0.632212 0
0.910063 0.635981 0
0.936385 0.639719 0
0.962814 0.643305 0
0.989349 0.646769 0
0.191531 0.55317 0
0.21091 0.558434 0
0.229816 0.563348 0
0.250446 0.567788 0
0.272251 0.571862 0
0.295293 0.575616 0
0.319524 0.579049 0
0.344945 0.582254 0
0.371054 0.585351 0
0.397177 0.588632 0
0.422385 0.592325 0
0.445731 0.596918 0
0.465858 0.602914 0
0.482444 0.610254 0
0.496803 0.618463 0
0.512078 0.626535 0
0.531228 0.633463 0
0.554223 0.639155 0
0.580682 0.643702 0
0.609461 0.647303 0
0.639185 0.650202 0
0.669596 0.652811 0
0.701442 0.655283 0
0.734707 0.657572 0
0.767163 0.659907 0
0.797742 0.662654 0
0.826749 0.665736 0
0.854551 0.669047 0
0.881483 0.67248 0
0.907851 0.675944 0
0.933959 0.679377 0
0.960159 0.682643 0
0.986435 0.68574 0
0.205966 0.590555 0
0.225315 0.59588 0
0.244266 0.600946 0
0.264927 0.605554 0
0.286793 0.609781 0
0.309926 0.613626 0
0.33434 0.617121 0
0.360082 0.620295 0
0.386664 0.623301 0
0.413489 0.626383 0
0.439673 0.62974 0
0.46421 0.633906 0
0.485908 0.639323 0
0.503487 0.646235 0
0.517891 0.654246 0
0.53196 0.66247 0
0.54844 0.669963 0
0.568826 0.676173 0
0.592325 0.681331 0
0.618296 0.685481 0
0.645472 0.688884 0
0.67364 0.691875 0
0.70341 0.694713 0
0.734676 0.697307 0
0.766079 0.699657 0
0.796506 0.702083 0
0.825345 0.704845 0
0.852949 0.707805 0
0.879667 0.710887 0
0.905791 0.71397 0
0.931624 0.716991 0
0.957519 0.71986 0
0.983505 0.722545 0
0.222446 0.627665 0
0.241856 0.633112 0
0.260822 0.6383 0
0.281483 0.643015 0
0.303349 0.647318 0
0.326497 0.651209 0
0.351003 0.654688 0
0.376989 0.657771 0
0.403876 0.66067 0
0.43125 0.663493 0
0.458259 0.666514 0
0.483894 0.670207 0
0.506981 0.675013 0
0.525658 0.681361 0
0.54049 0.689006 0
0.553933 0.697139 0
0.568643 0.704845 0
0.586328 0.711528 0
0.606943 0.717174 0
0.63006 0.721813 0
0.654582 0.725628 0
0.680278 0.729 0
0.70779 0.732143 0
0.736889 0.735012 0
0.766339 0.73756 0
0.795926 0.739834 0
0.824506 0.742184 0
0.85185 0.744732 0
0.878279 0.747387 0
0.904112 0.750057 0
0.929656 0.752651 0
0.955261 0.755093 0
0.980941 0.757366 0
0.241108 0.664317 0
0.260517 0.669841 0
0.279423 0.67509 0
0.300023 0.679835 0
0.321828 0.684153 0
0.344945 0.688014 0
0.369604 0.691386 0
0.395575 0.694392 0
0.42269 0.697093 0
0.450477 0.699657 0
0.478111 0.702281 0
0.504677 0.705486 0
0.528664 0.709758 0
0.548806 0.715373 0
0.564324 0.722484 0
0.577585 0.730312 0
0.591058 0.737987 0
0.606195 0.745022 0.000122072
0.624338 0.750957 0.00114443
0.644602 0.755993 0.000961318
0.666407 0.760143 0
0.689525 0.763821 0
0.714565 0.767254 0
0.741329 0.770336 0
0.768643 0.773037 0
0.796338 0.775402 0
0.824262 0.777447 0
0.851316 0.779583 0
0.87747 0.781811 0
0.902998 0.78407 0
0.928267 0.786252 0
0.953567 0.788296 0
0.978973 0.790158 0
0.261677 0.700343 0
0.280491 0.705913 0
0.299825 0.711116 0
0.320287 0.715846 0
0.34197 0.720088 0
0.365164 0.723812 0
0.389593 0.727123 0
0.415579 0.729961 0
0.442817 0.732418 0
0.470909 0.734646 0
0.499016 0.736873 0
0.52636 0.739559 0
0.551324 0.743191 0
0.572625 0.748074 0
0.588952 0.754528 0
0.602365 0.761883 0
0.615045 0.769329 0.0012665
0.628458 0.776379 0.00418097
0.644022 0.782559 0.00561532
0.66154 0.787869 0.00576791
0.680583 0.792279 0.0049897
0.70103 0.796201 0.00361639
0.723476 0.799878 0.00181582
0.747738 0.803189 0
0.772824 0.806027 0
0.798459 0.80853 0
0.82472 0.81062 0
0.851301 0.81239 0
0.87718 0.814221 0
0.902434 0.816068 0
0.927413 0.817853 0
0.952453 0.819501 0
0.977554 0.820996 0
0.283818 0.735576 0
0.302525 0.74107 0
0.321691 0.746212 0
0.341985 0.750835 0
0.363485 0.754971 0
0.386511 0.758541 0
0.410819 0.761654 0
0.436744 0.764263 0
0.464012 0.76643 0
0.492271 0.768292 0
0.520729 0.770062 0
0.548653 0.772213 0
0.574441 0.775189 0
0.596811 0.779293 0
0.613977 0.785016 0
0.627771 0.79173 0.000198367
0.64004 0.798733 0.00515755
0.65214 0.8056 0.0083772
0.665263 0.811933 0.0101167
0.68043 0.817319 0.0105898
0.696803 0.821942 0.0100557
0.71458 0.826108 0.00885023
0.734401 0.830045 0.00708019
0.7561 0.83357 0.00494392
0.778836 0.836622 0.00274662
0.802411 0.839246 0.00123598
0.826703 0.841459 0
0.851865 0.843214 0
0.877394 0.844678 0
0.902388 0.846128 0
0.927108 0.847547 0
0.951858 0.848814 0
0.976715 0.849912 0
0.307286 0.769802 0
0.32578 0.775174 0
0.344747 0.780179 0
0.364797 0.784649 0
0.386236 0.788525 0
0.40885 0.791959 0
0.432944 0.794827 0
0.458732 0.797131 0
0.485969 0.798962 0
0.514275 0.800412 0
0.542947 0.801694 0
0.571328 0.80325 0
0.597787 0.805539 0
0.620661 0.808957 0
0.639063 0.813733 0
0.653361 0.819699 0.00384527
0.665537 0.826154 0.00906386
0.676768 0.832685 0.0125734
0.688228 0.838926 0.0145876
0.700923 0.844465 0.0153353
0.714885 0.849241 0.0150759
0.730068 0.853635 0.0140688
0.74725 0.857816 0.0124666
0.766354 0.861601 0.0103304
0.786694 0.864866 0.00796521
0.808042 0.867674 0.00560006
0.830381 0.870008 0.00392157
0.853712 0.871885 0.00210575
0.87808 0.873243 0.000732433
0.902831 0.874327 0
0.927275 0.875364 0
0.951782 0.876265 0
0.976364 0.877012 0
0.331563 0.802945 0
0.349813 0.808133 0
0.36849 0.812924 0
0.388464 0.817075 0
0.4094 0.820783 0
0.431708 0.823941 0
0.455543 0.826505 0
0.481117 0.828458 0
0.508186 0.829892 0
0.536477 0.830869 0
0.565225 0.831617 0
0.593927 0.832547 0
0.62089 0.834134 0
0.644495 0.836774 0
0.663798 0.840696 0
0.678752 0.845914 0.00729381
0.691112 0.851713 0.0127718
0.701869 0.857832 0.0165255
0.712077 0.863874 0.0187991
0.722652 0.869474 0.0198215
0.734447 0.874342 0.0198215
0.747143 0.87895 0.0190738
0.76173 0.883406 0.0176547
0.778225 0.887434 0.0156405
0.796109 0.890929 0.0132143
0.815198 0.893935 0.0106203
0.835447 0.896452 0.00807202
0.856916 0.898451 0.0061799
0.879591 0.899901 0.00411994
0.903487 0.900816 0.00244144
0.927703 0.901488 0.000869764
0.951965 0.902052 0
0.976349 0.902495 0
0.3561 0.834897 0
0.374044 0.839826 0
0.39237 0.844358 0
0.411978 0.848234 0
0.432578 0.851621 0
0.454505 0.854444 0
0.478019 0.856626 0
0.503288 0.858167 0
0.530159 0.859129 0
