Assets/LUTs/Cinema Contrast.cube
TITLE "Generated by Resolve"
LUT_3D_SIZE 5
0 0 0
0.124895 0.013489 0.00436408
0.429297 0 0
0.717662 0 0
0.92874 0 0
0.0823529 0.166705 0
0.197528 0.192676 0
0.480064 0.194629 0
0.77792 0.198764 0
0.994018 0.232822 0
0.151675 0.435538 0
0.330297 0.46981 0
0.495079 0.51696 0
0.772503 0.53315 0
0.994232 0.564752 0
0.283818 0.735576 0
0.464012 0.76643 0
0.64004 0.798733 0.00515755
0.778836 0.836622 0.00274662
0.976715 0.849912 0
0.466789 0.974334 0
0.626139 0.983505 0
0.82652 0.976959 0.0177157
0.872053 1 0.0316777
0.977203 1 0.00822461
0 0.0392462 0.120989
0.109163 0.0145266 0.21236
0.444739 0 0.157382
0.736187 0 0.109804
0.946624 0 0.0943465
0.0297093 0.166155 0.281636
0.120806 0.217075 0.233829
0.509926 0.197665 0.159625
0.804547 0.205447 0.152956
1 0.240314 0.171252
0 0.498955 0.0938125
0.214115 0.523949 0.079408
0.542199 0.517876 0.176028
0.800366 0.539773 0.170871
1 0.571405 0.184482
0.099321 0.805127 0
0.351614 0.818814 0.0466316
0.682597 0.798413 0.167163
0.798169 0.837186 0.190295
0.991791 0.849073 0.175967
0.294789 1 0
0.508904 1 0.0487984
0.818708 0.984298 0.154208
0.916503 1 0.20914
0.987869 1 0.189746
0 0.0687266 0.354467
0 0.0534524 0.465293
0.432898 0 0.475746
0.736996 0 0.429419
0.949599 0 0.418143
0.00495918 0.172564 0.516915
0.0708934 0.2392 0.431708
0.480797 0.204105 0.492866
0.811856 0.203342 0.48249
1 0.23682 0.498283
0.0763256 0.437125 0.685664
0.188724 0.505165 0.663203
0.441749 0.543511 0.549706
0.819425 0.53489 0.490425
1 0.566552 0.505058
0.0149996 0.793484 0.662562
0.143893 0.858167 0.569482
0.559716 0.835782 0.425742
0.813443 0.824552 0.503426
0.995773 0.836851 0.486625
0.0710918 1 0.519707
0.265995 1 0.423133
0.692454 1 0.395987
0.956741 0.976287 0.498299
0.987991 1 0.499489
0 0.102327 0.569039
0 0.090013 0.672435
0.31371 0 0.783276
0.727916 0 0.741009
0.948791 0 0.739956
0 0.240238 0.635523
0 0.290166 0.624842
0.301778 0.265782 0.742123
0.796262 0.209705 0.810422
1 0.236225 0.824933
0.118822 0.432822 0.947143
0.207248 0.509804 0.902541
0.394507 0.573022 0.741039
0.798505 0.541772 0.820203
1 0.562799 0.828397
0.190631 0.727199 1
0.297658 0.788998 1
0.541955 0.811276 0.987655
0.764187 0.828244 0.846387
1 0.824842 0.794018
0.178317 0.988373 1
0.257939 1 1
0.489036 1 0.922225
0.86157 0.998734 0.734218
0.990433 1 0.801602
0 0.142596 0.679042
0 0.130159 0.780743
0.14403 0.0467689 0.925902
0.660716 0 0.97348
0.950835 0 0.955596
0 0.300862 0.701152
0 0.34258 0.739193
0.179278 0.32314 0.867903
0.688182 0.252995 1
1 0.246662 1
0 0.49987 0.991943
0.0511177 0.588296 0.921233
0.273915 0.633341 0.834989
0.635843 0.606561 0.980972
1 0.570199 1
0.254627 0.72372 1
0.347524 0.787823 1
0.543603 0.824247 1
0.6804 0.868055 0.916136
1 0.822721 1
0.335637 0.934707 1
0.418692 0.972381 1
0.643366 0.974563 1
0.853895 0.976349 1
1 1 1
