Assets/LUTs/Cityscape.cube
TITLE "Generated by Resolve"
LUT_3D_SIZE 33
0 0 0
0 0.00952163 0.0144656
0 0.0294499 0.0450752
0 0.044892 0.0706645
0 0.0450446 0.0743725
0 0.0355993 0.0649271
0 0.0225528 0.0518807
0.0346838 0.0149691 0.0442969
0.0789807 0.00772107 0.0370489
0.123857 0.000518807 0.0298466
0.170153 0 0.0220035
0.218173 0 0.0136721
0.267613 0 0.00495918
0.31754 0 0
0.366812 0 0
0.415167 0 0
0.461967 0 0
0.50634 0 0
0.548333 0 0
0.588617 0 0
0.627405 0 0
0.663005 0 0
0.696559 0 0
0.72813 0 0
0.757702 0 0
0.785351 0 0
0.811139 0 0
0.83534 0 0
0.858488 0 0
0.880919 0 0
0.902922 0 0
0.925017 0 0
0.946715 0 0
0 0.0172122 0
0.0173037 0.0173037 0
0 0.039826 0.0361639
0 0.0552071 0.0632334
0 0.0607614 0.0766308
0 0.0519112 0.0683452
0 0.0386358 0.0552682
0.0379187 0.030869 0.0475319
0.0821546 0.0235447 0.0402075
0.126802 0.0161288 0.0327916
0.173098 0.00827039 0.0249332
0.221149 0 0.0166476
0.270649 0 0.00799573
0.320851 0 0
0.370153 0 0
0.418509 0 0
0.465461 0 0
0.510018 0 0
0.552285 0 0
0.592966 0 0
0.631815 0 0
0.667689 0 0
0.701564 0 0
0.733501 0 0
0.763516 0 0
0.791562 0 0
0.81767 0 0
0.842329 0 0
0.86598 0 0
0.888869 0 0
0.911406 0 0
0.933959 0 0
0.956146 0 0
0 0.0352483 0
0.0175631 0.0352026 1.5259e-05
0.0351568 0.0351568 0
0 0.0685435 0.0596323
0 0.0758984 0.077409
0 0.0681315 0.0713664
0 0.0549783 0.0582132
0.0406806 0.0470436 0.0502785
0.084947 0.0397803 0.0430152
0.129671 0.0324254 0.0356603
0.176059 0.0246586 0.0279088
0.224216 0.0164645 0.0197147
0.274037 0.00813306 0.0113832
0.324208 0 0.0027924
0.373739 0 0
0.422309 0 0
0.469505 0 0
0.514336 0 0
0.557031 0 0
0.59791 0 0
0.63714 0 0
0.67335 0 0
0.707607 0 0
0.740139 0 0
0.770581 0 0
0.799023 0 0
0.825574 0 0
0.85066 0 0
0.874876 0 0
0.898528 0 0
0.921569 0 0
0.944549 0 0
0.967269 0 0
0 0.0527047 0
0.0175784 0.0525521 0
0.0351263 0.0524453 0
0.0524147 0.0524147 0
0.0179904 0.0635538 0.0225681
0 0.0845655 0.0742199
0 0.0713359 0.0611124
0.0436408 0.0634775 0.053254
0.0880293 0.0563211 0.0460975
0.132891 0.0491035 0.0388952
0.179629 0.0416876 0.0314641
0.228031 0.0337377 0.0235294
0.277897 0.025452 0.0152438
0.328313 0.0171054 0.00689708
0.378103 0.0090486 0
0.426993 0.00138857 0
0.474769 0 0
0.519951 0 0
0.562829 0 0
0.604074 0 0
0.643748 0 0
0.68043 0 0
0.715358 0 0
0.748165 0 0
0.779049 0 0
0.808042 0 0
0.835187 0 0
0.860899 0 0
0.885756 0 0
0.909804 0 0
0.933516 0 0
0.957259 0 0
0.980652 0 0
0 0.070161 0
0.0171359 0.0700542 0
0.0347448 0.0700084 0
0.0522316 0.0701762 0
0.070222 0.070222 0
0.0873884 0.0703136 0.000518807
0.00721752 0.0869917 0.0592508
0.0465095 0.0806744 0.0561227
0.0911269 0.0737469 0.0491951
0.13637 0.0669108 0.042359
0.18323 0.059617 0.0350805
0.231891 0.0519265 0.0273747
0.282094 0.0439765 0.01944
0.332906 0.0360266 0.01149
0.383078 0.028336 0.00381476
0.432517 0.0212558 0
0.480537 0.0145724 0
0.526177 0.00860609 0
0.569558 0.00321965 0
0.611261 0 0
0.651331 0 0
0.688655 0 0
0.72398 0 0
0.757397 0 0
0.78883 0 0
0.818326 0 0
0.846296 0 0
0.872694 0 0
0.898116 0 0
0.922789 0 0
0.947082 0 0
0.971496 0 0
0.995895 0 0
0 0.0882277 0
0.0160525 0.0882124 0
0.033875 0.0883955 0
0.0515297 0.088716 0
0.0696422 0.0888991 0
0.0888533 0.0888533 0
0.109789 0.0884413 0
0.0841688 0.094255 0.033341
0.0941939 0.092668 0.0522621
0.139651 0.0860609 0.0456397
0.186862 0.079118 0.0387121
0.235889 0.071809 0.0313878
0.286488 0.0642405 0.0238346
0.337865 0.0568551 0.0164492
0.388632 0.0497597 0.00936904
0.438422 0.0430152 0.00260929
0.486885 0.0367742 0
0.532937 0.0312657 0
0.576822 0.0264286 0
0.619287 0.0223087 0
0.659937 0.018555 0
0.697551 0.0153964 0
0.73341 0.0130617 0
0.767452 0.0115663 0
0.799649 0.0108949 0
0.830076 0.0112154 0
0.858427 0.0119936 0
0.885405 0.013489 0
0.911528 0.0155795 0
0.937011 0.0181582 0
0.96199 0.0210117 0
0.987182 0.0243076 0
1 0.0277104 0
0 0.107393 0
0.0142519 0.107759 0
0.0322271 0.108095 0
0.0500038 0.108553 0
0.0683909 0.108995 0
0.0879225 0.109285 0
0.109316 0.109316 0
0.133227 0.108858 0
0.142382 0.109209 0.0128634
0.145907 0.107012 0.0447852
0.190249 0.100664 0.0420844
0.239811 0.0938582 0.0352941
0.29102 0.0869306 0.0283665
0.342809 0.0799573 0.0213931
0.393988 0.0732738 0.0147097
0.444358 0.0670939 0.00854505
0.493477 0.0615244 0.00297551
0.540063 0.056611 0
0.584588 0.0524605 0
0.627497 0.0488289 0
0.668711 0.0457618 0
0.707057 0.0434272 0
0.743572 0.0417792 0
0.778195 0.0409094 0
0.811231 0.0411536 0
0.842191 0.0420233 0
0.871321 0.0436408 0
0.898939 0.0458076 0
0.925566 0.0484474 0
0.951812 0.0518502 0
0.977462 0.055436 0
1 0.0591592 0.000610361
1 0.0630961 0.00453193
0 0.128328 0
0.010956 0.128832 0
0.0292668 0.129519 0
0.0474556 0.130358 0
0.0662089 0.131182 0
0.086183 0.131914 0
0.108064 0.132433 0
0.132357 0.132357 0
0.15964 0.131655 0
0.186221 0.130159 6.10361e-05
0.202533 0.125628 0.0293431
0.243305 0.118685 0.0388037
0.295033 0.112245 0.0323644
0.347372 0.105837 0.0259556
0.3991 0.0997177 0.0198367
0.450019 0.0940871 0.0142061
0.499886 0.08925 0.00936904
0.547311 0.0852522 0.00537118
0.592386 0.0817426 0.0018616
0.635843 0.0786908 0
0.677485 0.0762341 0
0.716487 0.0746014 0
0.753948 0.0739757 0
0.789395 0.0739757 0
0.822782 0.0745861 0
0.854246 0.0759899 0
0.88394 0.078233 0
0.91223 0.081117 0.00123598
0.939666 0.0846418 0.00476081
0.966171 0.0883192 0.00843824
0.992172 0.0922866 0.0123903
1 0.0964675 0.0165713
1 0.100923 0.0210422
0 0.151324 0
0.00631724 0.152193 0
0.0250248 0.153262 0
0.0436561 0.154574 0
0.0631418 0.156115 0
0.0835737 0.157305 0
0.105776 0.158145 0
0.130541 0.158526 0
0.158373 0.158373 0
0.189883 0.157504 0
0.225071 0.155871 0
0.255634 0.150103 0.0141756
0.298741 0.141222 0.0321508
0.351247 0.134813 0.0298314
0.403784 0.129503 0.0245212
0.455543 0.124697 0.0197299
0.506065 0.120546 0.0155642
0.553933 0.117037 0.0120699
0.599695 0.11429 0.00932326
0.643931 0.112093 0.00712596
0.686076 0.110369 0.00540169
0.72578 0.109438 0.00447089
0.763714 0.109331 0.00436408
0.79968 0.109911 0.00492866
0.833738 0.111238 0.00627146
0.865736 0.113222 0.00823987
0.895827 0.115877 0.0109102
0.924773 0.119493 0.0145113
0.952453 0.123278 0.0182956
0.97937 0.127428 0.022446
1 0.131762 0.0267796
1 0.136202 0.0312047
1 0.141115 0.0361334
0 0.176959 0
0.000106813 0.178363 0
0.0193027 0.179919 0
0.0386053 0.181888 0
0.058381 0.183734 0
0.079408 0.185504 0
0.102251 0.186999 0
0.127596 0.187976 0
0.155993 0.188373 0
0.188281 0.188281 0
0.224369 0.187259 0
0.263966 0.185534 0
0.304768 0.180255 0.00158694
0.353399 0.170565 0.0216373
0.407752 0.163088 0.0284428
0.460243 0.159014 0.0244297
0.511437 0.155535 0.0209506
0.559884 0.152682 0.0180972
0.606134 0.150469 0.0158846
0.65095 0.148928 0.0143435
0.693767 0.148135 0.01355
0.734005 0.147738 0.0131533
0.772305 0.148013 0.0134279
0.808652 0.148989 0.0144198
0.843107 0.150759 0.0161746
0.875715 0.153414 0.0188296
0.906401 0.156725 0.0221408
0.935378 0.160372 0.0257725
0.963272 0.164385 0.0297856
0.990402 0.168765 0.034165
1 0.173373 0.0382849
1 0.178241 0.0431525
1 0.183154 0.0480659
0 0.2056 0
0 0.207706 0
0.012192 0.209934 0
0.0319219 0.212329 0
0.0522469 0.214725 0
0.0738231 0.217044 0
0.097322 0.219181 0
0.123705 0.221195 0
0.15285 0.222354 0
0.18558 0.22269 0
0.222278 0.222278 0
0.262592 0.221271 0
0.305837 0.219791 0
0.351797 0.216327 0
0.404517 0.207111 0.01149
0.461997 0.198062 0.024567
0.515373 0.193912 0.0248875
0.564477 0.191791 0.0227665
0.611353 0.19028 0.0212406
0.656748 0.189364 0.020325
0.69958 0.188754 0.0197147
0.740307 0.18883 0.0198062
0.779095 0.189639 0.0205997
0.815824 0.191058 0.0220188
0.850645 0.193225 0.0241855
0.883513 0.196155 0.0271153
0.914275 0.199557 0.0305028
0.943481 0.203449 0.0343175
0.971542 0.20766 0.038117
0.998734 0.2121 0.0425574
1 0.217044 0.0475013
1 0.221668 0.0521401
1 0.226429 0.0569009
0 0.237598 0
0 0.240131 0
0.00384527 0.242893 0
0.0242771 0.245991 0
0.0454108 0.249195 0
0.0677195 0.252247 0
0.0920729 0.255253 0
0.118868 0.257679 0
0.148791 0.259602 0
0.182376 0.260807 0
0.219776 0.261097 0
0.260639 0.260639 0
0.304723 0.260014 0
0.350286 0.25893 0
0.397055 0.256992 0
0.451865 0.249134 0.00265507
0.511955 0.239704 0.0187381
0.567788 0.234241 0.0260777
0.615274 0.233036 0.0252384
0.660914 0.232395 0.0245975
0.70399 0.232166 0.0243534
0.744961 0.232486 0.0246891
0.783963 0.233555 0.025742
0.82121 0.235523 0.0277256
0.856153 0.237827 0.0300145
0.88896 0.240711 0.0328985
0.919753 0.244129 0.0358282
0.948928 0.24802 0.0397192
0.977035 0.252277 0.0439765
1 0.256931 0.0486152
1 0.261509 0.053193
1 0.266087 0.0577859
1 0.270787 0.0624704
0 0.272602 0
0 0.275868 0
0 0.279301 0
0.0165866 0.283024 0
0.0385748 0.287068 0
0.061799 0.291051 0
0.0867475 0.294636 0
0.114153 0.297688 0
0.144625 0.300145 0
0.17879 0.30193 0
0.217151 0.303197 0
0.258747 0.303471 0
0.303044 0.303044 0
0.34902 0.302373 0
0.3953 0.301823 0
0.44181 0.301289 0
0.496513 0.295766 0
0.556512 0.286778 0.0130007
0.614511 0.279545 0.0246738
0.663569 0.277378 0.0273136
0.706859 0.277409 0.0273442
0.748028 0.277958 0.0278935
0.787396 0.279408 0.0293431
0.824384 0.281102 0.0310369
0.859281 0.283375 0.0333104
0.892058 0.286213 0.0356603
0.922789 0.289616 0.0390478
0.951995 0.293523 0.0429541
0.980224 0.297902 0.0473487
1 0.302235 0.0516823
1 0.306722 0.0561532
1 0.311223 0.0606699
1 0.315831 0.0652781
0 0.310399 0
0 0.314412 0
0 0.3187 0
0.0102541 0.323323 0
0.0327764 0.327916 0
0.0564431 0.332341 0
0.0820325 0.336568 0
0.11017 0.340337 0
0.141253 0.34342 0
0.176104 0.345892 0
0.21471 0.347372 0
0.256733 0.348089 0
0.301549 0.348196 0
0.347936 0.347936 0
0.394507 0.347662 0
0.441245 0.347906 0
0.486976 0.34815 0
0.537484 0.344671 0
0.596353 0.336492 0.00755322
0.656092 0.328328 0.0215305
0.708324 0.324163 0.0290532
0.750118 0.324392 0.0300603
0.789151 0.325475 0.0311437
0.826093 0.327138 0.0328069
0.86096 0.329366 0.0350347
0.893675 0.332143 0.0373236
0.924651 0.335775 0.0409552
0.953719 0.339529 0.0447089
0.981643 0.343572 0.0487526
1 0.347784 0.0529641
1 0.352026 0.0572061
1 0.356222 0.0614176
1 0.360784 0.06598
0 0.350851 0
0 0.355398 0
0 0.36054 0
0.00576791 0.365698 0
0.0288853 0.370886 0
0.0531014 0.375845 0
0.0791028 0.380468 0
0.107805 0.384817 0
0.139574 0.388586 0
0.174685 0.391318 0
0.213581 0.393088 0
0.255848 0.394049 0
0.300893 0.394369 0
0.347753 0.394598 0
0.394675 0.394675 0
0.44123 0.39472 0
0.486992 0.394995 0
0.530388 0.395651 0
0.576486 0.394125 0
0.63357 0.387152 0.00323491
0.692729 0.378683 0.0180819
0.747066 0.37258 0.0285649
0.79057 0.371435 0.0325628
0.827451 0.373007 0.0341192
0.862242 0.375143 0.0362707
0.895201 0.37818 0.0388037
0.925734 0.381323 0.0419471
0.954559 0.384802 0.0454261
0.982162 0.388495 0.0491188
1 0.392416 0.0530556
1 0.39646 0.057084
1 0.400702 0.061326
1 0.404669 0.0652934
0 0.393301 0
0 0.398749 0
0 0.404105 0
0.00323491 0.409659 0
0.0268101 0.41529 0
0.0515602 0.420798 0
0.0781262 0.426017 0
0.107195 0.430716 0
0.13901 0.434531 0
0.17438 0.437522 0
0.213535 0.439567 0
0.256016 0.440726 0
0.301335 0.441321 0
0.348135 0.441489 0
0.394919 0.441428 0
0.441444 0.441444 0
0.48716 0.441672 0
0.53051 0.442298 0
0.57229 0.443519 0
0.614771 0.443381 0
0.667521 0.437491 0
0.725338 0.429252 0.0145113
0.780682 0.422248 0.027039
0.827649 0.419196 0.0348058
0.863416 0.420584 0.0373693
0.895781 0.42295 0.0397345
0.926085 0.425864 0.0421454
0.954726 0.429129 0.0454108
0.982116 0.432593 0.0488594
1 0.436439 0.0527047
1 0.440146 0.0564126
1 0.443854 0.0601053
1 0.447669 0.0639048
0 0.437385 0
0 0.443107 0
0 0.448981 0
0.00306706 0.454963 0
0.0269017 0.460883 0
0.0522011 0.466941 0
0.0789197 0.472297 0
0.108049 0.477073 0
0.140032 0.481041 0
0.175448 0.484077 0
0.214694 0.486198 0
0.257374 0.487556 0
0.302464 0.487922 0
0.349081 0.487907 0
0.395819 0.487816 0
0.442283 0.487755 0
0.48806 0.48806 0
0.531456 0.488746 0
0.572839 0.48957 0
0.612863 0.490486 0
0.651301 0.491173 0
0.699443 0.486778 0
0.754833 0.479271 0.0115206
0.809903 0.471824 0.0250706
0.858549 0.466926 0.03505
0.896239 0.466514 0.0400854
0.926223 0.469017 0.0426184
0.954574 0.471946 0.0450752
0.981979 0.475395 0.0485542
1 0.478843 0.0520485
1 0.482383 0.0556039
1 0.485893 0.0591592
1 0.48954 0.0628367
0 0.4822 0
0 0.48809 0
0 0.494118 0
0.00508125 0.500298 0
0.0294652 0.506645 0
0.054551 0.512398 0
0.0813001 0.517678 0
0.110399 0.522332 0
0.142351 0.526192 0
0.177798 0.529183 0
0.217166 0.53138 0
0.259571 0.532418 0
0.304601 0.532708 0
0.351125 0.532601 0
0.397787 0.532433 0
0.444282 0.532418 0
0.489921 0.532601 0
0.53283 0.53283 0
0.573846 0.533272 0
0.613611 0.533913 0
0.651102 0.534737 0
0.687144 0.53611 0
0.729961 0.533471 0
0.781689 0.526604 0.00907912
0.835218 0.518959 0.022797
0.884504 0.513085 0.0344396
0.9252 0.510948 0.0424659
0.955337 0.513085 0.0459907
0.982391 0.516121 0.0488899
1 0.519371 0.0521859
1 0.522728 0.0556191
1 0.526055 0.0590066
1 0.529671 0.0626993
0 0.526406 0
0 0.532418 0
0 0.538445 0
0.00877394 0.544823 0
0.0328222 0.550774 0
0.0578775 0.556405 0
0.0845655 0.561578 0
0.113649 0.566125 0
0.145861 0.570184 0
0.181155 0.572992 0
0.220172 0.574823 0
0.262501 0.575784 0
0.307424 0.575982 0
0.35378 0.575692 0
0.400381 0.575494 0
0.446433 0.575051 0
0.491615 0.574807 0
0.534279 0.574838 0
0.575021 0.575021 0
0.614527 0.575402 0
0.65185 0.576074 0
0.687388 0.576928 0
0.721172 0.578241 0
0.758694 0.577493 0
0.80647 0.571984 0.00746166
0.857923 0.564965 0.0213169
0.907149 0.558831 0.0342718
0.949798 0.555184 0.0441444
0.983063 0.555337 0.0495766
1 0.558328 0.0527199
1 0.561471 0.0559548
1 0.564767 0.0593423
1 0.568048 0.0627146
0 0.569818 0
0 0.575998 0
0 0.581964 0
0.0127413 0.587945 0
0.0367285 0.59379 0
0.0617227 0.599329 0
0.0883345 0.604379 0
0.117647 0.60911 0
0.149462 0.612757 0
0.184619 0.615412 0
0.223377 0.616983 0
0.26537 0.617624 0
0.309987 0.617533 0
0.356374 0.617304 0
0.402487 0.616632 0
0.448249 0.615915 0
0.493034 0.61532 0
0.535378 0.615061 0
0.575982 0.615122 0
0.615503 0.615503 0
0.652506 0.615869 0
0.687922 0.616587 0
0.721569 0.617746 0
0.753445 0.619333 0
0.786618 0.620371 0
0.829816 0.616342 0.00706493
0.878248 0.609903 0.0203708
0.926574 0.603433 0.0336614
0.970657 0.598688 0.044358
1 0.597009 0.0522927
1 0.599039 0.0564736
1 0.601862 0.0594034
1 0.604746 0.0624247
0 0.612421 0
0 0.618219 0
0 0.623941 0
0.0173342 0.629664 0
0.0412604 0.635279 0
0.0661631 0.640543 0
0.0929122 0.645563 0
0.121599 0.649577 0
0.153063 0.652811 0
0.187961 0.655146 0
0.22652 0.656489 0
0.268544 0.65713 0
0.31284 0.656764 0
0.358572 0.65594 0
0.404425 0.655055 0
0.450004 0.654215 0
0.494667 0.653544 0
0.537148 0.653422 0
0.577554 0.6533 0
0.616709 0.65333 0
0.653559 0.653559 0
0.688823 0.654108 0
0.722316 0.6551 0
0.754223 0.656703 0
0.784115 0.658503 0
0.813138 0.660258 0
0.851392 0.65771 0.00714122
0.896681 0.652003 0.0196384
0.943938 0.645502 0.0324254
0.988891 0.640055 0.0444648
1 0.636667 0.0536049
1 0.636347 0.059144
1 0.638758 0.0619364
0 0.652537 0
0 0.658183 0
0 0.663813 0
0.0228122 0.669367 0
0.0466163 0.674891 0
0.0712902 0.680003 0
0.0974746 0.68455 0
0.125963 0.688411 0
0.157153 0.691417 0
0.191684 0.693431 0
0.230152 0.694697 0
0.271702 0.694911 0
0.315847 0.694392 0
0.361456 0.693446 0
0.407187 0.692439 0
0.452628 0.691463 0
0.497429 0.690913 0
0.539467 0.690394 0
0.579675 0.690105 0
0.618631 0.689937 0
0.655283 0.689982 0
0.690364 0.690364 0
0.723857 0.691371 0
0.755306 0.692485 0
0.784924 0.694026 0
0.81268 0.695994 0
0.838743 0.698283 0.000946059
0.872358 0.697398 0.00822461
0.914443 0.692409 0.0190433
0.960021 0.685878 0.0317082
1 0.679591 0.0436866
1 0.6748 0.0535134
1 0.672663 0.0604868
0 0.691646 0
0 0.696986 0
0.00596628 0.702342 0
0.0291447 0.707881 0
0.0526284 0.713115 0
0.0768902 0.717861 0
0.102724 0.722087 0
0.130892 0.725658 0
0.161898 0.728496 0
0.196597 0.730648 0.000457771
0.234699 0.731563 0.00144961
0.276066 0.731624 0.00149538
0.320073 0.730968 0.000793469
0.365545 0.7299 0.000122072
0.411337 0.728939 0
0.456657 0.72784 0
0.500954 0.726848 0
0.542779 0.726146 0
0.582773 0.725643 0
0.6215 0.725277 0
0.658091 0.725292 0
0.692912 0.725414 0
0.725933 0.725933 0
0.757122 0.726802 0
0.78645 0.728038 0
0.81387 0.729671 0
0.839734 0.731929 0.00204471
0.863935 0.734234 0.00444038
0.89276 0.73431 0.0091249
0.931502 0.730068 0.0189975
0.975235 0.72369 0.0308385
1 0.716869 0.0425422
1 0.711315 0.0530556
0 0.729305 0
0 0.734508 0
0.0133516 0.739742 0
0.035996 0.744778 0
0.0590982 0.749676 0
0.0832074 0.754269 0
0.108919 0.758373 0
0.137102 0.761975 0.00183108
0.168109 0.764797 0.00436408
0.202396 0.766567 0.0062562
0.240345 0.767346 0.00709545
0.281544 0.767239 0.00698863
0.325353 0.7664 0.00607309
0.370825 0.765316 0.00491341
0.416297 0.76405 0.00352483
0.461357 0.762692 0.00254826
0.505379 0.761456 0.00122072
0.546899 0.760494 0.000198367
0.586618 0.759747 0
0.625299 0.759335 0
0.661372 0.758907 0
0.695872 0.758694 0
0.728557 0.758862 0
0.759426 0.759426 0
0.788449 0.760372 7.62951e-05
0.815808 0.761929 0.00170901
0.841077 0.763592 0.00344854
0.864927 0.76553 0.00514229
0.887816 0.767636 0.00715648
0.913008 0.768551 0.0108034
0.948669 0.765301 0.0194247
0.990585 0.759075 0.0301213
1 0.75201 0.0413519
0 0.765438 0
0 0.77055 0
0.0212863 0.775464 0
0.0437934 0.780392 0
0.0667735 0.785168 0
0.0907454 0.789624 0.00120546
0.116426 0.793713 0.00543221
0.144503 0.797192 0.00874342
0.175189 0.79971 0.011429
0.209262 0.801282 0.0131228
0.247013 0.801877 0.0137789
0.288029 0.801587 0.0134585
0.331899 0.800778 0.0126192
0.376928 0.799283 0.0110018
0.422019 0.797681 0.00926223
0.466835 0.796063 0.0075227
0.510567 0.794583 0.00595102
0.551919 0.793484 0.00526436
0.591394 0.792523 0.00430304
0.629496 0.791562 0.00331121
0.665156 0.790768 0.00248722
0.699367 0.790265 0.00196841
0.731716 0.790127 0.00181582
0.762417 0.790509 0.00221256
0.791165 0.791165 0.00289921
0.81796 0.792172 0.00393683
0.842924 0.79353 0.00512703
0.866438 0.795132 0.00654612
0.88896 0.796857 0.00834669
0.910994 0.798901 0.0104829
0.933623 0.800244 0.0129702
0.965988 0.797436 0.0196078
1 0.791592 0.02916
0 0.800549 0
0.0077821 0.805341 0
0.0304723 0.810132 0
0.0528573 0.814923 0.000518807
0.0757 0.819577 0.00541695
0.099733 0.824079 0.00970474
0.125109 0.827863 0.0137179
0.152819 0.830991 0.0170596
0.183291 0.833326 0.0195468
0.217136 0.834669 0.0210117
0.254719 0.835096 0.0214847
0.295659 0.834714 0.021088
0.338994 0.833417 0.0197147
0.383749 0.831662 0.0178378
0.42855 0.829755 0.0157931
0.47303 0.827802 0.0137026
0.516487 0.826123 0.0119326
0.557473 0.824704 0.0104524
0.59649 0.823331 0.00901808
0.634226 0.822034 0.00769055
0.669474 0.82089 0.00650034
0.703365 0.82005 0.00570687
0.735561 0.81976 0.00540169
0.76585 0.819715 0.00535592
0.794171 0.819974 0.00553903
0.8206 0.8206 0.00621042
0.845228 0.821622 0.00726329
0.868437 0.822919 0.00862135
0.890883 0.824567 0.0103456
0.912322 0.826001 0.0118563
0.933318 0.827466 0.0133822
0.954543 0.828733 0.0149081
0.982925 0.826719 0.0198978
0 0.834409 0
0.0182498 0.839017 0.000885023
0.0407416 0.843626 0.00572213
0.0629435 0.848234 0.0105898
0.085832 0.852918 0.0150607
0.109407 0.856992 0.019379
0.134539 0.860548 0.0231479
0.161959 0.863416 0.026215
0.192187 0.865492 0.0284428
0.225834 0.866651 0.0297093
0.263279 0.866911 0.0300298
0.3037 0.866041 0.0291295
0.346685 0.864408 0.0273899
0.391104 0.862333 0.0251926
0.435599 0.860136 0.0228428
0.480049 0.858122 0.0207065
0.522942 0.85597 0.0184329
0.563363 0.854063 0.0164492
0.602029 0.852369 0.0146792
0.639399 0.850767 0.0130312
0.674388 0.849393 0.0116121
0.708049 0.848341 0.0105135
0.739727 0.847517 0.00967422
0.769604 0.847089 0.00921645
0.797635 0.847028 0.00914015
0.823728 0.847318 0.00946059
0.848096 0.848096 0.0102693
0.871031 0.849119 0.0113375
0.892912 0.850202 0.0124819
0.914046 0.851331 0.0136568
0.934691 0.85243 0.0148013
0.955276 0.853407 0.0158236
0.975219 0.854536 0.0170138
0.00729381 0.86717 0.00729381
0.0293278 0.871595 0.0119478
0.0518807 0.876219 0.0163577
0.0738079 0.880583 0.0209659
0.0961471 0.884749 0.0253758
0.119463 0.888594 0.0294347
0.144335 0.89189 0.0329595
0.171481 0.894469 0.0357214
0.201633 0.896468 0.0378882
