Assets/LUTs/Cityscape.cube
TITLE "Generated by Resolve"
LUT_3D_SIZE 9
0 0 0
0 0.0450446 0.0743725
0.0789807 0.00772107 0.0370489
0.267613 0 0.00495918
0.461967 0 0
0.627405 0 0
0.757702 0 0
0.858488 0 0
0.946715 0 0
0 0.070161 0
0.070222 0.070222 0
0.0911269 0.0737469 0.0491951
0.282094 0.0439765 0.01944
0.480537 0.0145724 0
0.651331 0 0
0.78883 0 0
0.898116 0 0
0.995895 0 0
0 0.151324 0
0.0631418 0.156115 0
0.158373 0.158373 0
0.298741 0.141222 0.0321508
0.506065 0.120546 0.0155642
0.686076 0.110369 0.00540169
0.833738 0.111238 0.00627146
0.952453 0.123278 0.0182956
1 0.141115 0.0361334
0 0.272602 0
0.0385748 0.287068 0
0.144625 0.300145 0
0.303044 0.303044 0
0.496513 0.295766 0
0.706859 0.277409 0.0273442
0.859281 0.283375 0.0333104
0.980224 0.297902 0.0473487
1 0.315831 0.0652781
0 0.437385 0
0.0269017 0.460883 0
0.140032 0.481041 0
0.302464 0.487922 0
0.48806 0.48806 0
0.651301 0.491173 0
0.858549 0.466926 0.03505
0.981979 0.475395 0.0485542
1 0.48954 0.0628367
0 0.612421 0
0.0412604 0.635279 0
0.153063 0.652811 0
0.31284 0.656764 0
0.494667 0.653544 0
0.653559 0.653559 0
0.784115 0.658503 0
0.943938 0.645502 0.0324254
1 0.638758 0.0619364
0 0.765438 0
0.0667735 0.785168 0
0.175189 0.79971 0.011429
0.331899 0.800778 0.0126192
0.510567 0.794583 0.00595102
0.665156 0.790768 0.00248722
0.791165 0.791165 0.00289921
0.88896 0.796857 0.00834669
1 0.791592 0.02916
0.0181277 0.898863 0.0181277
0.106371 0.915389 0.0355993
0.210559 0.925826 0.0467994
0.362097 0.921904 0.0428016
0.535424 0.910765 0.0310216
0.683848 0.901579 0.0215
0.804395 0.896498 0.0162203
0.896788 0.896788 0.0165103
0.976913 0.898939 0.0187991
0.0569619 1 0.0569619
0.139757 1 0.0689708
0.238285 1 0.0745403
0.38407 1 0.0647746
0.551644 1 0.0474556
0.694713 0.990402 0.0328985
0.811215 0.981292 0.0234073
0.900618 0.978576 0.0205539
0.978637 0.978637 0.0206302
0 0 0.0698863
0 0.0480964 0.106813
0.0819257 0.0106661 0.0688945
0.270527 0 0.0367742
0.465034 0 0.00343328
0.630671 0 0
0.761563 0 0
0.863005 0 0
0.951873 0 0
0 0.0701305 0.0701305
0.0702831 0.0702831 0.0702831
0.0946517 0.0772717 0.0816358
0.286229 0.0481117 0.0524758
0.485435 0.0194705 0.0238346
0.656992 0 0.00395209
0.795346 0 0
0.905699 0 0
1 0.00392157 0.00828565
0 0.152667 0.0596933
0.065095 0.158068 0.065095
0.161501 0.161501 0.0685283
0.305425 0.147753 0.0716716
0.514366 0.128847 0.052781
0.695048 0.119692 0.0436255
0.843626 0.121523 0.0454414
0.963073 0.134356 0.0582742
1 0.152346 0.0762798
0 0.277211 0.0287022
0.0442664 0.29276 0.0442664
0.151461 0.306981 0.0584878
0.310643 0.310643 0.0621347
0.528695 0.292149 0.0690929
0.717815 0.288899 0.0677501
0.870207 0.294804 0.0736553
0.991043 0.309224 0.0880751
1 0.326848 0.105684
0 0.44535 0.011429
0.0352636 0.469245 0.0352636
0.148516 0.489509 0.0555428
0.310903 0.496315 0.0624094
0.496162 0.496162 0.0622416
0.676326 0.491569 0.0678111
0.874128 0.474754 0.0772869
0.991638 0.485344 0.0879835
1 0.499321 0.102113
0 0.620279 0.0252842
0.0494698 0.642969 0.0494698
0.160815 0.660136 0.0678416
0.320027 0.663584 0.071519
0.501625 0.660182 0.0677653
0.659953 0.659953 0.0675212
0.791211 0.664164 0.0724041
0.986236 0.639704 0.0889754
1 0.646891 0.0997787
0 0.772168 0.0530861
0.0737163 0.79176 0.0737163
0.181811 0.805997 0.088838
0.337972 0.806531 0.0894636
0.516274 0.800031 0.0824903
0.6701 0.795727 0.0780346
0.795514 0.795514 0.077821
0.892821 0.800717 0.083238
1 0.78291 0.0955825
0.0242313 0.904631 0.0950179
0.111955 0.920638 0.111955
0.215564 0.930541 0.122591
0.366552 0.926101 0.118044
0.539284 0.914427 0.10573
0.686961 0.904692 0.0956283
0.806729 0.898833 0.0895247
0.898833 0.898833 0.0895247
0.978637 0.900664 0.0914473
0.0612039 1 0.131991
0.14342 1 0.14342
0.241382 1 0.148409
0.386648 1 0.138125
0.553704 1 0.120348
0.696315 0.99202 0.10544
0.812436 0.982498 0.0955215
0.901869 0.979843 0.0927291
0.979858 0.979858 0.0927596
0 0 0.161578
0.0685588 0 0.16202
0.0823224 0.0110781 0.13344
0.27097 0 0.10135
0.46566 0 0.0682078
0.631678 0 0.0424201
0.763195 0 0.0260624
0.865354 0 0.0204776
0.954986 0 0.02121
0 0.0685588 0.161532
0.068925 0.068925 0.161898
0.0958419 0.0784466 0.14696
0.288029 0.0499123 0.11841
0.487968 0.0220035 0.0905013
0.660533 0.00317388 0.0716716
0.799893 0 0.0636759
0.911269 0 0.0677958
1 0.0106966 0.0791943
0 0.152697 0.152697
0.0658885 0.158862 0.158862
0.163256 0.163256 0.163256
0.310506 0.152819 0.140887
0.520424 0.13492 0.122972
0.702007 0.126986 0.115053
0.851316 0.129564 0.117632
0.971145 0.142809 0.130877
1 0.161334 0.149401
0 0.280339 0.124819
0.0487373 0.297246 0.141711
0.157031 0.312566 0.157031
0.316976 0.316976 0.16144
0.539986 0.299657 0.142641
0.726329 0.297871 0.140856
0.87866 0.303731 0.146715
0.999115 0.317693 0.160678
1 0.335149 0.178134
0 0.451545 0.110567
0.0421454 0.476143 0.135119
0.155383 0.496345 0.155383
0.317693 0.503044 0.162158
0.502724 0.502724 0.161837
0.727169 0.481514 0.147662
0.881498 0.482383 0.149111
0.998672 0.492607 0.159442
1 0.506477 0.173495
0 0.626383 0.124804
0.055848 0.648905 0.148821
0.166796 0.665751 0.166796
0.325338 0.668589 0.169802
0.50692 0.665217 0.166079
0.664698 0.664698 0.16553
0.819776 0.659892 0.165164
0.999298 0.643046 0.159838
1 0.652384 0.169665
0 0.77734 0.151537
0.0789807 0.796704 0.171954
0.186755 0.810636 0.186755
0.342382 0.810666 0.186847
0.520195 0.803754 0.179446
0.673289 0.798917 0.174426
0.798123 0.798123 0.173617
0.896208 0.802426 0.178378
1 0.771832 0.168643
0.0285954 0.908705 0.19234
0.11577 0.924208 0.208743
0.218738 0.933501 0.218738
0.369223 0.928542 0.213672
0.541314 0.91632 0.200793
0.688319 0.906035 0.190112
0.807523 0.899641 0.183444
0.899229 0.899229 0.183032
0.978698 0.900725 0.184604
0.0637064 1 0.227451
0.145296 1 0.23827
0.242451 1 0.242451
0.387427 1 0.231876
0.55407 1 0.213718
0.696223 0.991913 0.198428
0.812222 0.982284 0.188373
0.901549 0.979522 0.185473
0.979538 0.979538 0.185489
0 0 0.311269
0.0627451 0 0.311238
0.0775311 0.00628672 0.264576
0.266285 0 0.232593
0.461219 0 0.199695
0.627848 0 0.174319
0.760082 0 0.158587
0.86302 0 0.153811
0.95349 0 0.155444
0 0.0625162 0.311025
0.0631876 0.0631876 0.311681
0.153429 0.0606394 0.309041
0.284932 0.0468147 0.25124
0.485512 0.0195621 0.223972
0.659312 0.00183108 0.206241
0.799878 0 0.199466
0.912337 0.000335698 0.204761
1 0.0127565 0.217182
0 0.14847 0.30399
0.062562 0.155535 0.31107
0.160891 0.160891 0.316426
0.310658 0.152972 0.276967
0.521782 0.136278 0.260258
0.704387 0.129442 0.253437
0.854398 0.132784 0.256764
0.974533 0.146365 0.270359
1 0.165118 0.289113
0 0.279545 0.279545
0.049012 0.29752 0.29752
0.158236 0.313771 0.313771
0.318791 0.318791 0.318791
0.543755 0.303441 0.282353
0.729915 0.301656 0.280568
0.88217 0.307424 0.286336
1 0.321233 0.300145
1 0.338216 0.317128
0 0.45362 0.268162
0.0445258 0.478523 0.293034
0.157717 0.49865 0.313237
0.31957 0.504891 0.31957
0.50457 0.50457 0.319249
0.734737 0.482597 0.285222
0.883726 0.484642 0.287312
1 0.49485 0.297642
1 0.508415 0.31136
0 0.628397 0.282536
0.0575418 0.650446 0.306035
0.168017 0.666896 0.323552
0.326314 0.669505 0.326314
0.507668 0.665919 0.322362
0.665095 0.665095 0.321492
0.880018 0.63975 0.292363
1 0.643946 0.296651
1 0.652735 0.305943
0 0.77818 0.307958
0.0795911 0.797269 0.328099
0.18703 0.81088 0.342565
0.342229 0.810498 0.342229
0.519509 0.803067 0.334295
0.672053 0.797665 0.32871
0.796201 0.796201 0.327169
0.922957 0.790417 0.322347
1 0.767559 0.301793
0.0282139 0.908324 0.347494
0.11487 0.923308 0.363378
0.217105 0.931899 0.372641
0.367208 0.926574 0.367208
0.538705 0.913756 0.353689
0.685145 0.902876 0.342382
0.803922 0.896025 0.335241
0.895262 0.895262 0.334462
0.97583 0.89601 0.335363
0.0614786 1 0.380774
0.142504 1 0.391012
0.238987 1 0.394522
0.38352 1 0.38352
0.549859 1 0.364996
0.691829 0.987518 0.349401
0.807706 0.977783 0.339239
0.896956 0.974929 0.336248
0.974899 0.974899 0.336217
0 0 0.488594
0.0544289 0 0.488365
0.14226 0 0.483299
0.258946 0 0.398627
0.454032 0 0.36585
0.621653 0 0.341115
0.754696 0 0.32604
0.858198 0 0.321828
0.949783 0 0.324636
0 0.0542153 0.488167
0.0554513 0.0554513 0.489403
0.146456 0.0534829 0.487449
0.279454 0.0413367 0.41912
0.480873 0.0149233 0.392676
0.655863 0 0.375845
0.797574 0 0.370184
0.911009 0 0.376532
1 0.0125124 0.390265
0 0.142199 0.483192
0.057435 0.150408 0.491386
0.156878 0.156878 0.49781
0.308888 0.153353 0.494209
0.52076 0.135241 0.432563
0.704402 0.129366 0.426688
0.8551 0.133471 0.430762
0.97554 0.147372 0.444556
1 0.166201 0.463142
0 0.277119 0.462608
0.0476081 0.296117 0.481605
0.15758 0.3131 0.498512
0.318517 0.318517 0.503853
0.544854 0.304555 0.456657
0.730938 0.302708 0.454734
0.882979 0.308232 0.460121
1 0.321843 0.473518
1 0.33843 0.489845
0 0.453712 0.453712
0.0447547 0.478737 0.478737
0.157855 0.498787 0.498787
0.3196 0.504921 0.504921
0.504128 0.504128 0.504128
0.734783 0.482567 0.458335
0.883482 0.484306 0.46009
1 0.494347 0.47013
1 0.507607 0.483391
0 0.628336 0.467948
0.0570077 0.649989 0.490944
0.166781 0.665782 0.507591
0.325032 0.66836 0.510292
0.506157 0.664515 0.506157
0.663355 0.663355 0.504952
0.885206 0.636301 0.461646
0.998398 0.642161 0.467796
1 0.650401 0.476387
0 0.776974 0.492088
0.0779431 0.795758 0.511772
0.18471 0.808728 0.525383
0.339712 0.808148 0.524834
0.516518 0.800214 0.516518
0.668467 0.794095 0.510201
0.792264 0.792264 0.508324
0.990433 0.763027 0.470527
1 0.763317 0.470344
0.0254978 0.905776 0.530022
0.111604 0.920226 0.545129
0.213291 0.928298 0.553674
0.362844 0.922438 0.547723
0.533837 0.909072 0.533837
0.679667 0.897383 0.521798
0.798169 0.890272 0.514443
0.889174 0.889174 0.513313
1 0.879179 0.50248
0.0568704 1 0.561044
0.137301 1 0.570489
0.233265 1 0.573343
0.377371 1 0.56202
0.54345 0.996307 0.54345
0.685344 0.981033 0.527687
0.80116 0.971237 0.517571
0.890379 0.968353 0.51458
0.968215 0.968215 0.514427
0 0 0.641108
0.0474098 0 0.640909
0.135454 0 0.636164
0.25922 0 0.570504
0.448035 0 0.51603
0.61648 0 0.492576
0.750393 0 0.478706
0.854673 0 0.475517
0.947158 0 0.479301
0 0.0475776 0.641138
0.0492409 0.0492409 0.642771
0.140856 0.0478828 0.641505
0.283757 0.0352789 0.629572
0.47747 0.0115358 0.545037
0.653696 0 0.529793
0.79649 0 0.525353
0.910872 0 0.532509
1 0.0132906 0.546654
0 0.137682 0.638437
0.0538796 0.146853 0.647227
0.154543 0.154543 0.65449
0.307591 0.152056 0.652201
0.521065 0.135546 0.58674
0.705394 0.130419 0.581506
0.856367 0.134798 0.585367
0.977386 0.149371 0.599023
1 0.168124 0.616709
0 0.27628 0.622705
0.0478676 0.296361 0.641688
0.158587 0.314122 0.658259
0.319936 0.319936 0.66363
0.505974 0.320531 0.664073
0.732708 0.304616 0.608804
0.884474 0.309819 0.613443
1 0.32314 0.626001
1 0.339284 0.641352
0 0.455268 0.6168
0.0462806 0.480278 0.640299
0.159228 0.500145 0.658824
0.320882 0.506188 0.664454
0.504936 0.504936 0.663325
0.73547 0.483253 0.611566
0.88397 0.484779 0.61294
1 0.494591 0.622354
1 0.507515 0.634821
0 0.629252 0.629252
0.0576333 0.650584 0.650584
0.166888 0.665904 0.665904
0.325063 0.668376 0.668376
0.505852 0.66424 0.66424
0.662562 0.662562 0.662562
0.884504 0.635615 0.613489
0.997192 0.640955 0.61883
1 0.64863 0.626505
0 0.776883 0.651316
0.0774853 0.795331 0.669703
0.183871 0.807935 0.682307
0.338338 0.806836 0.681208
0.514611 0.798352 0.67274
0.666056 0.791684 0.666056
0.789364 0.789364 0.663737
0.995102 0.757504 0.616724
1 0.759533 0.618753
0.0239872 0.904311 0.68658
0.1093 0.918029 0.700298
0.210605 0.925704 0.707973
0.359579 0.919295 0.701564
0.530037 0.905379 0.687663
0.675471 0.893202 0.675471
0.793545 0.885649 0.667918
0.884215 0.884215 0.666484
1 0.848508 0.622446
0.0533913 1 0.714717
0.132967 1 0.722911
0.228702 1 0.725246
0.372412 1 0.713802
0.538064 0.991089 0.695399
0.68011 0.975799 0.68011
0.795819 0.965896 0.670192
0.885039 0.963012 0.667308
0.962951 0.962951 0.667247
0 0 0.761959
0.0424048 0 0.761746
0.130571 0 0.757092
0.268421 0 0.74023
0.443839 0 0.637491
0.613062 0 0.615015
0.747814 0 0.602152
0.853056 0 0.600061
0.946563 0 0.604868
0 0.0431067 0.762478
0.0452735 0.0452735 0.764614
0.137575 0.0446021 0.763989
0.281239 0.0327459 0.752834
0.467994 0.0124208 0.691508
0.653452 0 0.654978
0.797238 0 0.651591
0.912703 0.000518807 0.659709
1 0.0159609 0.674403
0 0.135607 0.762051
0.0527504 0.145724 0.771786
0.154406 0.154406 0.780026
0.308766 0.153246 0.778958
0.489967 0.148852 0.774838
0.708263 0.133455 0.709682
0.859617 0.138247 0.71397
0.980758 0.152956 0.727779
1 0.171679 0.745418
0 0.27779 0.749615
0.0502937 0.298787 0.769512
0.161456 0.316991 0.786603
0.323522 0.323522 0.79263
0.509407 0.324132 0.793179
0.735988 0.30811 0.737469
0.887633 0.313161 0.74197
1 0.326009 0.754116
1 0.341604 0.768978
0 0.458869 0.745663
0.0498207 0.483803 0.769116
0.162417 0.503304 0.787442
0.323949 0.509224 0.792996
0.507591 0.507591 0.791516
0.666636 0.508125 0.791974
0.885954 0.486839 0.740307
1 0.49633 0.749432
1 0.508858 0.761517
0 0.632013 0.757488
0.0600595 0.652888 0.7785
0.16907 0.668009 0.793637
0.327016 0.670253 0.79588
0.507485 0.665812 0.79144
0.6636 0.6636 0.789227
0.885176 0.636286 0.739528
0.99733 0.641093 0.744335
1 0.648188 0.751446
0 0.778653 0.778653
0.0789044 0.796689 0.796689
0.184924 0.808942 0.808942
0.338857 0.807324 0.807324
0.514534 0.798276 0.798276
0.665431 0.791043 0.791043
0.78819 0.78819 0.78819
0.993408 0.75581 0.740414
1 0.757259 0.741848
0.0242771 0.904601 0.812497
0.108995 0.917723 0.82562
0.209796 0.92491 0.832807
0.358144 0.917922 0.825818
0.527855 0.903273 0.81117
0.673045 0.890776 0.798657
0.790753 0.882872 0.790753
0.881086 0.881086 0.788983
1 0.842512 0.741207
0.0517128 1 0.838727
0.13077 1 0.846418
0.226017 1 0.84828
0.36936 1 0.8365
0.534768 0.9879 0.817838
0.676783 0.972473 0.802396
0.792416 0.962509 0.792416
0.881483 0.959457 0.78938
0.95967 0.95967 0.789593
0 0 0.85182
0.0399481 0 0.851575
0.128252 0 0.847074
0.266438 0 0.830655
0.434943 0 0.776715
0.612024 0 0.710857
0.747417 0 0.698589
0.853727 0 0.697566
0.948394 0 0.703517
0 0.0412757 0.852934
0.0440528 0.0440528 0.85565
0.137102 0.0441291 0.855741
0.281651 0.0331426 0.845441
0.452842 0.0188144 0.831983
0.655558 0 0.753902
0.800427 0 0.751598
0.916945 0.00495918 0.760769
1 0.021149 0.77615
0 0.13637 0.854994
0.0546578 0.147616 0.865782
0.157336 0.157336 0.874998
0.312764 0.157244 0.874937
0.494804 0.153826 0.871824
0.694865 0.144457 0.83183
0.86508 0.143999 0.816251
0.986206 0.158709 0.83003
1 0.177356 0.847593
0 0.282292 0.846052
0.0555428 0.304036 0.866651
0.167239 0.322774 0.884215
0.329641 0.329641 0.890532
0.515389 0.330205 0.89102
0.677028 0.334096 0.894469
0.892638 0.318425 0.843809
1 0.330877 0.855589
1 0.345907 0.869932
0 0.464988 0.843565
0.0556802 0.489662 0.866773
0.168322 0.509163 0.885176
0.329381 0.514595 0.890288
0.512505 0.512505 0.88838
0.671 0.512856 0.888731
0.889921 0.490944 0.841093
1 0.500114 0.849897
1 0.51194 0.861326
0 0.63711 0.854719
0.0645914 0.657252 0.874983
0.173693 0.672465 0.890181
0.331365 0.674449 0.89218
0.511467 0.669657 0.887388
0.667048 0.667048 0.884764
0.794812 0.668894 0.88658
0.999359 0.643107 0.843183
1 0.649516 0.849577
0 0.782727 0.87483
0.0825666 0.800244 0.892348
0.188281 0.812177 0.90428
0.341711 0.810056 0.902159
0.516564 0.800259 0.892363
0.667079 0.792691 0.884794
0.789242 0.789242 0.881346
0.99353 0.755932 0.837354
1 0.756924 0.838346
0.0268864 0.907088 0.907088
0.111055 0.919707 0.919707
0.211307 0.92636 0.92636
0.359091 0.918807 0.918807
0.528084 0.903502 0.903502
0.672877 0.890608 0.890608
0.790265 0.882368 0.882368
0.880293 0.880293 0.880293
1 0.841276 0.836789
0.0523384 1 0.931441
0.130938 1 0.938674
0.225742 1 0.940124
0.368688 1 0.927962
0.533928 0.987076 0.909117
0.675837 0.971527 0.893553
0.79144 0.961517 0.883543
0.880507 0.95848 0.880507
0.958862 0.958862 0.880888
0 0 0.928954
0.0385748 0 0.928771
0.126909 0 0.9243
0.265629 0 0.908385
0.429435 0 0.887938
0.607019 0 0.809003
0.748196 0 0.786999
0.855406 0 0.786877
0.951125 0 0.793896
0 0.04065 0.930861
0.0440528 0.0440528 0.934188
0.137728 0.0447547 0.934874
0.283436 0.0349432 0.925673
0.45568 0.0217288 0.913405
0.631937 0.00946059 0.880827
0.804593 0 0.843397
0.921981 0.0102541 0.853452
1 0.0272068 0.869551
0 0.13843 0.93547
0.0579232 0.150896 0.947402
0.161761 0.161761 0.957717
0.318273 0.162737 0.958633
0.50103 0.160067 0.956207
0.662974 0.163027 0.958846
0.871199 0.150484 0.90956
0.992264 0.165148 0.923278
1 0.183597 0.940658
0 0.288136 0.930083
0.0620584 0.310567 0.951293
0.174258 0.329793 0.968856
0.336782 0.336782 0.97528
0.522393 0.337285 0.975708
0.683452 0.34107 0.979156
0.872084 0.332647 0.953124
1 0.336217 0.947845
1 0.350927 0.961883
0 0.472129 0.92874
0.0626383 0.496574 0.951797
0.175189 0.515953 0.969665
0.33579 0.520943 0.974365
0.518196 0.518196 0.971847
0.676448 0.518471 0.972137
0.807782 0.524086 0.977554
1 0.504448 0.941283
1 0.515862 0.952285
0 0.643015 0.939071
0.0704051 0.662837 0.958541
0.179294 0.677821 0.973526
0.336645 0.679515 0.975219
0.51603 0.674098 0.969802
0.671275 0.671275 0.96698
0.798321 0.672709 0.968399
1 0.645502 0.932754
1 0.651499 0.93875
0 0.787518 0.958038
0.0873274 0.804791 0.974868
0.192493 0.816205 0.986282
0.345357 0.81355 0.983627
0.519661 0.803235 0.973312
0.66952 0.795148 0.965225
0.79115 0.79115 0.961227
0.884703 0.792264 0.962341
1 0.757092 0.925704
0.0300908 0.910185 0.988159
0.113954 0.922469 1
0.213611 0.928557 1
0.36083 0.92047 0.998428
0.52929 0.904662 0.98262
0.673609 0.89134 0.969314
0.790661 0.882765 0.960739
0.880354 0.880354 0.958328
1 0.84065 0.923369
0.0537118 1 1
0.131945 1 1
0.226368 1 1
0.368856 1 1
0.534051 0.987198 0.987198
0.675853 0.971542 0.971542
0.79144 0.961517 0.961517
0.880598 0.958572 0.958572
0.958267 0.958267 0.958267
