Assets/LUTs/Cityscape.cube
TITLE "Generated by Resolve"
LUT_3D_SIZE 5
0 0 0
0.0789807 0.00772107 0.0370489
0.461967 0 0
0.757702 0 0
0.946715 0 0
0 0.151324 0
0.158373 0.158373 0
0.506065 0.120546 0.0155642
0.833738 0.111238 0.00627146
1 0.141115 0.0361334
0 0.437385 0
0.140032 0.481041 0
0.48806 0.48806 0
0.858549 0.466926 0.03505
1 0.48954 0.0628367
0 0.765438 0
0.175189 0.79971 0.011429
0.510567 0.794583 0.00595102
0.791165 0.791165 0.00289921
1 0.791592 0.02916
0.0569619 1 0.0569619
0.238285 1 0.0745403
0.551644 1 0.0474556
0.811215 0.981292 0.0234073
0.978637 0.978637 0.0206302
0 0 0.161578
0.0823224 0.0110781 0.13344
0.46566 0 0.0682078
0.763195 0 0.0260624
0.954986 0 0.02121
0 0.152697 0.152697
0.163256 0.163256 0.163256
0.520424 0.13492 0.122972
0.851316 0.129564 0.117632
1 0.161334 0.149401
0 0.451545 0.110567
0.155383 0.496345 0.155383
0.502724 0.502724 0.161837
0.881498 0.482383 0.149111
1 0.506477 0.173495
0 0.77734 0.151537
0.186755 0.810636 0.186755
0.520195 0.803754 0.179446
0.798123 0.798123 0.173617
1 0.771832 0.168643
0.0637064 1 0.227451
0.242451 1 0.242451
0.55407 1 0.213718
0.812222 0.982284 0.188373
0.979538 0.979538 0.185489
0 0 0.488594
0.14226 0 0.483299
0.454032 0 0.36585
0.754696 0 0.32604
0.949783 0 0.324636
0 0.142199 0.483192
0.156878 0.156878 0.49781
0.52076 0.135241 0.432563
0.8551 0.133471 0.430762
1 0.166201 0.463142
0 0.453712 0.453712
0.157855 0.498787 0.498787
0.504128 0.504128 0.504128
0.883482 0.484306 0.46009
1 0.507607 0.483391
0 0.776974 0.492088
0.18471 0.808728 0.525383
0.516518 0.800214 0.516518
0.792264 0.792264 0.508324
1 0.763317 0.470344
0.0568704 1 0.561044
0.233265 1 0.573343
0.54345 0.996307 0.54345
0.80116 0.971237 0.517571
0.968215 0.968215 0.514427
0 0 0.761959
0.130571 0 0.757092
0.443839 0 0.637491
0.747814 0 0.602152
0.946563 0 0.604868
0 0.135607 0.762051
0.154406 0.154406 0.780026
0.489967 0.148852 0.774838
0.859617 0.138247 0.71397
1 0.171679 0.745418
0 0.458869 0.745663
0.162417 0.503304 0.787442
0.507591 0.507591 0.791516
0.885954 0.486839 0.740307
1 0.508858 0.761517
0 0.778653 0.778653
0.184924 0.808942 0.808942
0.514534 0.798276 0.798276
0.78819 0.78819 0.78819
1 0.757259 0.741848
0.0517128 1 0.838727
0.226017 1 0.84828
0.534768 0.9879 0.817838
0.792416 0.962509 0.792416
0.95967 0.95967 0.789593
0 0 0.928954
0.126909 0 0.9243
0.429435 0 0.887938
0.748196 0 0.786999
0.951125 0 0.793896
0 0.13843 0.93547
0.161761 0.161761 0.957717
0.50103 0.160067 0.956207
0.871199 0.150484 0.90956
1 0.183597 0.940658
0 0.472129 0.92874
0.175189 0.515953 0.969665
0.518196 0.518196 0.971847
0.807782 0.524086 0.977554
1 0.515862 0.952285
0 0.787518 0.958038
0.192493 0.816205 0.986282
0.519661 0.803235 0.973312
0.79115 0.79115 0.961227
1 0.757092 0.925704
0.0537118 1 1
0.226368 1 1
0.534051 0.987198 0.987198
0.79144 0.961517 0.961517
0.958267 0.958267 0.958267
