Assets/LUTs/Cold Noir.cube
TITLE "Generated by Resolve"
LUT_3D_SIZE 5
0.0859541 0 0
0.17142 0 0.0136873
0.400824 0 0.0131533
0.639399 0 0.0173342
0.810452 0 0.0465553
0.0974594 0.136522 0
0.234699 0.150729 0.0326085
0.4822 0.149035 0.0859388
0.742214 0.156497 0.124743
0.934661 0.187991 0.182162
0.0826581 0.411582 0
0.25536 0.445701 0
0.543404 0.444511 0.066804
0.810895 0.452369 0.141039
0.999512 0.483436 0.215625
0.123064 0.718914 0
0.295781 0.752895 0
0.599344 0.743038 0.0353094
0.875837 0.732784 0.11841
1 0.742321 0.199054
0.224277 0.973037 0
0.377417 0.988647 0
0.665949 0.955734 0.029099
0.937942 0.91928 0.0911574
1 0.905913 0.168719
0.171191 0 0.239734
0.186557 0 0.189868
0.381033 0 0.177768
0.609079 0 0.181827
0.777752 0 0.214542
0.0961624 0.123415 0.276356
0.166644 0.172732 0.260258
0.421988 0.17586 0.285664
0.689265 0.184588 0.316686
0.886168 0.215488 0.373007
0.0396582 0.423423 0.205646
0.17908 0.475044 0.224521
0.480537 0.471717 0.299641
0.745876 0.481483 0.364492
0.935576 0.512612 0.426902
0.0661784 0.736309 0.183413
0.217639 0.780514 0.214939
0.527092 0.769574 0.265858
0.808011 0.755016 0.346273
0.981811 0.763088 0.420478
0.156222 0.986786 0.223468
0.292348 1 0.241749
0.580575 0.975769 0.258961
0.860502 0.936126 0.311727
1 0.921218 0.389654
0.251072 0 0.591867
0.268742 0 0.518898
0.426307 0 0.455177
0.622095 0 0.440803
0.774044 0 0.470832
0.186984 0.0790723 0.664744
0.254276 0.136645 0.620127
0.441138 0.172656 0.560296
0.674098 0.194659 0.580362
0.858396 0.229419 0.634516
0.0901808 0.395438 0.654856
0.179034 0.463127 0.65713
0.410636 0.492363 0.620584
0.680934 0.503624 0.655222
0.875395 0.533028 0.707881
0.0643778 0.723079 0.635538
0.166201 0.784024 0.630289
0.440116 0.788769 0.601923
0.732143 0.769711 0.661265
0.901167 0.777081 0.723522
0.1187 0.97705 0.655406
0.219394 1 0.635004
0.485328 0.986877 0.599237
0.772045 0.946914 0.62118
0.956161 0.929763 0.698512
0.335912 0 0.877302
0.357992 0 0.800534
0.512596 0 0.709331
0.686671 0 0.663127
0.816022 0 0.676356
0.282994 0.0437629 0.963165
0.348104 0.106828 0.914565
0.539696 0.146838 0.834012
0.735668 0.186313 0.802411
0.885008 0.23299 0.835309
0.191592 0.363104 0.996674
0.282124 0.431144 0.986252
0.507744 0.465812 0.918288
0.706142 0.506981 0.863676
0.863508 0.547189 0.901884
0.135073 0.695415 1
0.219806 0.758984 1
0.441245 0.778042 0.963973
0.660685 0.788739 0.908934
0.83212 0.795575 0.937942
0.1449 0.952148 1
0.213718 0.992035 1
0.42948 0.985794 0.938399
0.681895 0.96286 0.882261
0.879454 0.943557 0.940948
0.428092 0 1
0.453269 0 0.984695
0.612665 0 0.883696
0.782116 0 0.815427
0.896941 0 0.806638
0.384878 0.0187381 1
0.450278 0.0859693 1
0.647822 0.127062 1
0.839628 0.171221 0.96611
0.964401 0.228229 0.964385
0.304128 0.33991 1
0.391714 0.41001 1
0.612192 0.447242 1
0.812314 0.489403 1
0.930541 0.544564 1
0.240833 0.670024 1
0.325628 0.731777 1
0.546746 0.749157 1
0.757504 0.762539 1
0.855924 0.797162 1
0.221683 0.923125 1
0.282338 0.962615 1
0.481331 0.959243 1
0.683146 0.952316 1
0.810224 0.96434 1
