Assets/LUTs/Cold Noir.cube
TITLE "Generated by Resolve"
LUT_3D_SIZE 33
0.0859541 0 0
0.0872816 0 0
0.089128 0 0
0.0958419 0 0
0.106264 0 0.000762951
0.11902 0 0.00560006
0.133776 0 0.0093843
0.151019 0 0.0115969
0.17142 0 0.0136873
0.194888 0 0.0149538
0.221653 0 0.0165713
0.25008 0 0.0166323
0.279835 0 0.0163577
0.310307 0 0.0159304
0.340414 0 0.013901
0.371328 0 0.0151675
0.400824 0 0.0131533
0.431891 0 0.0147555
0.462043 0 0.0124666
0.493553 0 0.0143435
0.523568 0 0.0120089
0.55378 0 0.0121004
0.583917 0 0.0150149
0.612284 0 0.0159304
0.639399 0 0.0173342
0.665141 0 0.0192264
0.689479 0 0.0216526
0.712444 0 0.0246128
0.734234 0 0.0280613
0.754849 0 0.0319982
0.773266 0 0.0330205
0.791943 0 0.037705
0.810452 0 0.0465553
0.0899519 0 0
0.0970169 0 0
0.098146 0.000122072 0
0.103975 0.00329595 0.00495918
0.114046 0.00535592 0.0102693
0.126329 0.00683604 0.014786
0.140841 0.00770581 0.018616
0.158206 0.00784314 0.0216678
0.178531 0.00717174 0.0239109
0.201968 0.00569162 0.0253147
0.228397 0.00344854 0.0259556
0.256855 0.000686656 0.0260777
0.286656 0 0.0258946
0.31722 0 0.0255436
0.347936 0 0.0252232
0.378485 0 0.0250401
0.408713 0 0.0250248
0.439384 0 0.0249638
0.470405 0 0.0248875
0.501472 0 0.0248875
0.532494 0 0.0251316
0.563043 0 0.0256352
0.592752 0 0.0264897
0.621454 0 0.0277409
0.648966 0 0.0294804
0.675105 0 0.031754
0.699886 0 0.0345922
0.723293 0 0.0379644
0.745525 0 0.0418402
0.766598 0 0.0462196
0.786557 0 0.0510719
0.805722 0 0.0563058
0.82356 0 0.0620432
0.0935836 0.0117037 0
0.10222 0.0137484 0
0.106889 0.0164797 0
0.113069 0.0191196 0.00756847
0.122637 0.0211185 0.0149996
0.134417 0.0226596 0.020737
0.148547 0.0236362 0.0253147
0.165637 0.0238804 0.0288853
0.185794 0.0233463 0.0315251
0.20914 0.022034 0.0332952
0.235538 0.0199588 0.0342565
0.264012 0.0173953 0.0346685
0.293889 0.0145418 0.0347753
0.324559 0.0115816 0.0347448
0.355413 0.00863661 0.0347295
0.386145 0.00585946 0.0348669
0.416602 0.00326543 0.035172
0.447517 0.000671397 0.0354772
0.478828 0 0.0358129
0.510231 0 0.0362707
0.541573 0 0.0368811
0.572488 0 0.0377966
0.602609 0 0.0390936
0.631754 0 0.0408331
0.659693 0 0.043061
0.686275 0 0.0458381
0.711513 0 0.0491646
0.735378 0 0.0530404
0.758068 0 0.0574044
0.779599 0 0.0622721
0.800031 0 0.0676127
0.819669 0 0.0733501
0.837995 0.00184634 0.0796216
0.0966812 0.0298619 0
0.10544 0.0320287 0
0.112535 0.034165 0
0.121187 0.0359045 0.00479133
0.131655 0.0374456 0.0152285
0.143481 0.03888 0.023209
0.157443 0.0399329 0.0293736
0.174334 0.0403296 0.0341192
0.194339 0.0399939 0.0376287
0.217578 0.0389105 0.0400854
0.243946 0.0370947 0.0416419
0.27245 0.0348058 0.0426032
0.302403 0.0322576 0.0431983
0.333196 0.0296025 0.0436561
0.364233 0.0270085 0.0441138
0.395178 0.0245975 0.0447089
0.425895 0.022385 0.0455024
0.45713 0.0202182 0.0462959
0.488762 0.0181125 0.0471351
0.520546 0.016144 0.0481117
0.5523 0.0143587 0.0492714
0.583627 0.0128786 0.0507057
0.61416 0.0117952 0.0525216
0.643717 0.0111391 0.0547799
0.672099 0.0110018 0.0575418
0.699123 0.0114137 0.0608225
0.724804 0.0123751 0.064683
0.749111 0.0138857 0.0690776
0.772259 0.0158846 0.0739452
0.794263 0.0184024 0.0793469
0.815152 0.0213931 0.0852064
0.835264 0.0247807 0.0914626
0.854047 0.0287327 0.0982223
0.0990768 0.0484627 0
0.107881 0.0508125 0
0.115969 0.0529488 0
0.126848 0.0542 0
0.139269 0.0551766 0.0116426
0.152163 0.0563058 0.0220188
0.166552 0.0572976 0.0303044
0.183566 0.0578164 0.0367285
0.203616 0.0576944 0.0415961
0.226886 0.0568704 0.0451667
0.2533 0.0553597 0.0476844
0.28188 0.0534218 0.0494698
0.311971 0.0512398 0.0508125
0.342947 0.0489967 0.051957
0.374228 0.0468299 0.0530709
0.405447 0.0448768 0.0543374
0.436484 0.0431678 0.0557717
0.468055 0.0414893 0.0571908
0.500053 0.0398718 0.0586404
0.532219 0.038407 0.0602121
0.56434 0.0371099 0.0619364
0.596063 0.0361334 0.0639506
0.627008 0.0355535 0.0663462
0.656977 0.0354009 0.0691539
0.685771 0.0357519 0.0724651
0.713237 0.0366674 0.0762951
0.739345 0.0381323 0.0806897
0.764111 0.0401465 0.0856184
0.787701 0.0426642 0.0910353
0.810147 0.0456855 0.0969711
0.831479 0.0491646 0.103365
0.852018 0.0530404 0.110124
0.871214 0.057435 0.117357
0.100587 0.0679637 0
0.109483 0.0705425 0
0.118059 0.0729076 0
0.130373 0.0740978 0
0.144732 0.0747692 0.00579843
0.159319 0.0756085 0.0178378
0.174838 0.0764477 0.0281529
0.192523 0.076997 0.0365148
0.21297 0.0770428 0.0431067
0.2365 0.0764935 0.0481422
0.263127 0.075349 0.0519112
0.291936 0.0738079 0.0548257
0.322286 0.0720684 0.0572366
0.353536 0.0702983 0.0592966
0.385092 0.0686351 0.0612802
0.416617 0.0671855 0.0633402
0.447959 0.0659648 0.0655222
0.479866 0.0647746 0.0676432
0.512215 0.0636606 0.0697795
0.544732 0.0626993 0.0720073
0.577234 0.0619211 0.0743725
0.609339 0.0614481 0.076997
0.640665 0.0613718 0.0800031
0.671046 0.0617227 0.0834058
0.700267 0.0626078 0.0873121
0.728145 0.0640116 0.091722
0.754665 0.0659953 0.0966812
0.779843 0.0684977 0.102159
0.80383 0.0714885 0.10811
0.826658 0.0749371 0.114519
0.848325 0.0788434 0.121355
0.869184 0.0830854 0.128527
0.88867 0.0878157 0.136141
0.100893 0.0888533 0
0.109972 0.091722 0
0.118914 0.0944381 0
0.132158 0.0958114 0
0.148058 0.0964828 0
0.164401 0.0971847 0.0115206
0.181445 0.0979324 0.0233616
0.20032 0.0985122 0.0335699
0.221637 0.0987259 0.0419928
0.245792 0.0984665 0.0487373
0.272892 0.0976577 0.0540475
0.302083 0.0965438 0.05832
0.332769 0.0952468 0.0619211
0.364324 0.0939498 0.0650797
0.396231 0.0927443 0.0681163
0.428061 0.0917678 0.0710765
0.459739 0.0910506 0.0741131
0.491966 0.0903639 0.0770428
0.524666 0.0897688 0.079942
0.557534 0.0893111 0.082887
0.590402 0.0890364 0.0859541
0.622889 0.0890822 0.0892653
0.654597 0.0895094 0.0929122
0.685374 0.0903792 0.0969406
0.714961 0.0917372 0.101442
0.743191 0.0936141 0.106416
0.770062 0.096025 0.11191
0.795544 0.0989395 0.117861
0.819806 0.102281 0.124254
0.842893 0.106081 0.13106
0.864805 0.110307 0.138277
0.885863 0.114824 0.145785
0.905547 0.119814 0.153704
0.099794 0.111589 0
0.109163 0.114824 0
0.118441 0.117952 0
0.132387 0.119707 0
0.149508 0.120623 0
0.167422 0.121447 0.00376898
0.18613 0.122255 0.0166171
0.20647 0.122896 0.0282597
0.228962 0.123262 0.0383612
0.254047 0.123217 0.0467994
0.281849 0.122713 0.053727
0.311604 0.121935 0.0594797
0.342748 0.12105 0.0644236
0.374716 0.12018 0.0688182
0.406973 0.119448 0.0729381
0.43917 0.118944 0.0769513
0.471199 0.118715 0.0809491
0.503822 0.118517 0.0848249
0.536873 0.11841 0.0885786
0.570108 0.118471 0.0923171
0.603326 0.1187 0.0961318
0.636133 0.119203 0.10013
0.668177 0.120104 0.104417
0.699245 0.121386 0.109056
0.729107 0.12314 0.114092
0.75758 0.125368 0.11957
0.784665 0.128115 0.125505
0.810361 0.131319 0.131868
0.834806 0.134951 0.138628
0.858045 0.138994 0.145769
0.880079 0.14342 0.153277
0.901259 0.148135 0.161044
0.921019 0.153292 0.169192
0.0974594 0.136522 0
0.107195 0.1402 0
0.116899 0.143832 0
0.131487 0.14609 0
0.149569 0.147402 0
0.168795 0.148486 0
0.189014 0.149462 0.00851453
0.210864 0.150225 0.0211795
0.234699 0.150729 0.0326085
0.260914 0.150866 0.0425727
0.289647 0.150607 0.0510414
0.320165 0.150149 0.05832
0.351934 0.149615 0.064683
0.384436 0.149142 0.0704051
0.417151 0.148836 0.0757458
0.44979 0.148806 0.0808881
0.4822 0.149035 0.0859388
0.51516 0.14931 0.0907301
0.548547 0.14966 0.0953536
0.582116 0.150103 0.0999771
0.61561 0.150744 0.104524
0.648676 0.151629 0.109178
0.680934 0.152865 0.114061
0.712184 0.154467 0.119219
0.742214 0.156497 0.124743
0.77084 0.159014 0.130663
0.798047 0.161975 0.136965
0.82385 0.165408 0.143694
0.848371 0.169207 0.150759
0.871656 0.173404 0.15816
0.893736 0.177966 0.165896
0.914916 0.182773 0.173846
0.934661 0.187991 0.182162
0.0941329 0.163943 0
0.104311 0.168124 0
0.114443 0.17229 0
0.12958 0.175067 0
0.148455 0.176837 0
0.168765 0.178286 0
0.19028 0.179522 0
0.213535 0.180484 0.0127413
0.238758 0.181155 0.0251774
0.266239 0.181491 0.0363928
0.296071 0.18146 0.0462501
0.32752 0.181262 0.054963
0.360067 0.181064 0.0627451
0.393225 0.180941 0.0698405
0.42649 0.181003 0.0764324
0.459586 0.181323 0.0827192
0.492378 0.181918 0.0888228
0.525658 0.182544 0.0945602
0.559319 0.183215 0.100038
0.593072 0.183993 0.105348
0.626764 0.184909 0.110582
0.660029 0.186038 0.115938
0.692424 0.187518 0.121386
0.723781 0.189334 0.127031
0.753887 0.191577 0.132982
0.782574 0.194247 0.139284
0.809812 0.197345 0.145922
0.835599 0.200885 0.152926
0.860105 0.204776 0.160235
0.883345 0.209018 0.167834
0.905348 0.213611 0.175723
0.926452 0.218418 0.18381
0.946075 0.223606 0.192172
0.0901503 0.193881 0
0.100786 0.198566 0
0.11136 0.20325 0
0.127016 0.206546 0
0.146563 0.20882 0
0.167773 0.210697 0
0.190402 0.212284 0
0.214923 0.213519 0.00355535
0.241489 0.21442 0.0166934
0.270237 0.214954 0.0288853
0.301259 0.215137 0.0399176
0.333715 0.215167 0.049897
0.367117 0.215183 0.0589456
0.400977 0.21529 0.067277
0.434806 0.215579 0.0750286
0.468345 0.216159 0.0824292
0.501518 0.216968 0.0895094
0.535073 0.217823 0.0961471
0.568948 0.218708 0.102434
0.602899 0.219684 0.108492
0.636698 0.220783 0.114366
0.670008 0.222095 0.120211
0.702464 0.223697 0.126177
0.733883 0.22562 0.132326
0.764004 0.227939 0.138705
0.792645 0.230686 0.145327
0.819821 0.233814 0.152239
0.845518 0.237369 0.159457
0.869902 0.241245 0.166934
0.893019 0.245457 0.174685
0.914855 0.249958 0.18265
0.935744 0.254673 0.190768
0.955154 0.259739 0.199145
0.0861677 0.226093 0
0.097261 0.231281 0
0.108293 0.2365 0
0.124437 0.24033 0
0.144594 0.243107 0
0.166567 0.245457 0
0.190158 0.24744 0
0.215793 0.249012 0
0.243534 0.250156 0.00799573
0.273472 0.250858 0.0208438
0.305577 0.251179 0.0327153
0.33904 0.251316 0.0436713
0.373281 0.251438 0.0537881
0.407858 0.251652 0.0631723
0.442252 0.252064 0.0719768
0.476249 0.252735 0.0803388
0.509773 0.253681 0.0883497
0.543587 0.254627 0.0958419
0.577661 0.255604 0.102876
0.611719 0.256672 0.109606
0.645609 0.257832 0.116091
0.67895 0.259205 0.122469
0.711391 0.260838 0.128893
0.742718 0.262776 0.135378
0.772732 0.265095 0.142046
0.801266 0.267796 0.148943
0.828351 0.270848 0.156176
0.853864 0.274311 0.163561
0.878065 0.278065 0.17116
0.900938 0.282139 0.178973
0.922606 0.28658 0.18706
0.943404 0.291279 0.195331
0.962768 0.296391 0.203922
0.0828717 0.260334 0
0.0944533 0.266041 0
0.105943 0.271778 0
0.12256 0.276143 0
0.143252 0.279423 0
0.165866 0.282216 0
0.190204 0.28455 0
0.216709 0.286381 0
0.245411 0.287709 0
0.276356 0.288533 0.0128328
0.309453 0.288914 0.0252537
0.343816 0.289082 0.0369116
0.378866 0.289219 0.0478218
0.414115 0.289433 0.0580606
0.449088 0.289845 0.0677501
0.483543 0.290517 0.0769665
0.517403 0.291447 0.0857862
0.551461 0.292378 0.0940261
0.585702 0.293355 0.101747
0.619852 0.294377 0.109102
0.653773 0.295506 0.116121
0.687083 0.296803 0.122972
0.719432 0.298375 0.129778
0.750652 0.300221 0.136614
0.780499 0.302403 0.143572
0.80885 0.304967 0.150683
0.835676 0.307912 0.158007
0.861051 0.311299 0.165621
0.885222 0.315022 0.173571
0.90808 0.319158 0.181689
0.929717 0.323629 0.190036
0.950454 0.328374 0.19855
0.969802 0.333547 0.207385
0.0809491 0.296361 0
0.092958 0.302525 0
0.10486 0.308736 0
0.121843 0.313527 0
0.142947 0.317205 0
0.166018 0.320348 0
0.190936 0.322972 0
0.218112 0.325017 0
0.247578 0.326467 0
0.279332 0.327352 0.00534066
0.313252 0.327733 0.0180667
0.348424 0.327871 0.0301518
0.384207 0.327932 0.0416266
0.420096 0.328054 0.052491
0.455604 0.328359 0.0628519
0.490471 0.328923 0.0727703
0.524666 0.329732 0.0822614
0.558953 0.330541 0.0911421
0.593332 0.331365 0.0994583
0.627543 0.332265 0.107332
0.661433 0.333227 0.114824
0.694682 0.334356 0.122087
0.726894 0.335744 0.129244
0.757992 0.337438 0.136416
0.787762 0.339559 0.143709
0.816098 0.342123 0.151232
0.842908 0.345098 0.158953
0.868269 0.348501 0.166918
0.892348 0.3523 0.175113
0.915206 0.356481 0.183551
0.936904 0.361013 0.19234
0.957671 0.36582 0.201175
0.977005 0.371069 0.210285
0.0807202 0.3337 0
0.09308 0.340246 0
0.105257 0.346792 0
0.122545 0.351934 0
0.143938 0.355917 0
0.16733 0.359319 0
0.19266 0.362142 0
0.22031 0.364324 0
0.250355 0.365866 0
0.282734 0.366751 0
0.317327 0.367071 0.0115358
0.35317 0.367102 0.0238193
0.389578 0.36701 0.0355993
0.426047 0.366949 0.046891
0.462028 0.367056 0.0577096
0.497276 0.367407 0.0681468
0.531746 0.367987 0.0781415
0.566232 0.368551 0.0875257
0.600717 0.369146 0.0963302
0.634958 0.369802 0.104646
0.668894 0.370581 0.112612
0.70219 0.371618 0.120378
0.734508 0.372976 0.128069
0.765667 0.37467 0.135744
0.795483 0.376791 0.143526
0.823835 0.37937 0.151492
0.850706 0.382391 0.159655
0.876112 0.38587 0.168063
0.900221 0.389715 0.176638
0.923064 0.393942 0.185443
0.944686 0.398535 0.19443
0.965393 0.403372 0.20354
0.984695 0.408606 0.212909
0.0813916 0.372213 0
0.0940108 0.379019 0
0.106386 0.38584 0
0.123857 0.391211 0
0.145418 0.395407 0
0.169039 0.398978 0
0.194614 0.401923 0
0.222599 0.404181 0
0.253025 0.405707 0
0.285878 0.406546 0
0.320974 0.40676 0.00495918
0.357321 0.406607 0.0172427
0.394247 0.406287 0.0291142
0.431159 0.405966 0.040589
0.467552 0.405783 0.0516823
0.50312 0.405829 0.0624247
0.537881 0.406119 0.0728313
0.572641 0.406485 0.0826886
0.607401 0.406928 0.0920424
0.641917 0.407523 0.100969
0.676066 0.40824 0.109514
0.709529 0.409232 0.117845
0.742 0.410559 0.126101
0.773297 0.412268 0.134325
0.803235 0.41442 0.142641
0.831662 0.417014 0.151095
0.858579 0.42005 0.159716
0.884001 0.423529 0.168505
0.908095 0.427375 0.177462
0.930907 0.431586 0.186587
0.952468 0.436149 0.195865
0.973098 0.440925 0.205234
0.992279 0.446113 0.214771
0.0826581 0.411582 0
0.0954299 0.418555 0
0.107927 0.425528 0
0.125475 0.431052 0
0.147127 0.435355 0
0.170825 0.439002 0
0.196536 0.441993 0
0.224704 0.444236 0
0.25536 0.445701 0
0.288502 0.446403 0
0.323934 0.446418 0
0.360647 0.446021 0.010193
0.39794 0.445426 0.021973
0.435264 0.444846 0.0335088
0.472114 0.44445 0.044831
0.508202 0.444343 0.0559396
0.543404 0.444511 0.066804
0.578592 0.444755 0.0771649
0.613718 0.445106 0.0870832
0.648569 0.445624 0.0965744
0.683024 0.446311 0.10573
0.716762 0.447272 0.114656
0.749416 0.448585 0.123476
0.780865 0.450263 0.132235
0.810895 0.452369 0.141039
0.839384 0.454917 0.149935
0.866316 0.457908 0.158953
0.891737 0.461326 0.168124
0.915785 0.46511 0.177401
0.938506 0.46923 0.186801
0.959976 0.473686 0.196338
0.980484 0.47837 0.205905
0.999512 0.483436 0.215625
0.0842603 0.451438 0
0.0971084 0.458503 0
0.109636 0.465537 0
0.127169 0.471107 0
0.148791 0.475425 0
0.172488 0.479072 0
0.198184 0.482002 0
0.226398 0.484154 0
0.257145 0.485466 0
0.29044 0.485985 0
0.326162 0.485847 0
0.363272 0.485328 0.0027924
0.401053 0.484627 0.0145724
0.438911 0.483955 0.026215
0.47628 0.483436 0.0377508
0.512871 0.483223 0.0491798
0.548608 0.483299 0.0604562
0.584268 0.483467 0.0712902
0.619821 0.483742 0.0817121
0.655039 0.484184 0.0917372
0.689799 0.484779 0.101411
0.723766 0.485649 0.110842
0.756603 0.48687 0.12015
0.78819 0.488457 0.129366
0.818311 0.490455 0.138613
0.846845 0.492897 0.147906
0.873762 0.49575 0.157275
0.899138 0.499046 0.166766
0.92311 0.502693 0.176333
0.945739 0.506661 0.185992
0.967071 0.510964 0.195743
0.987411 0.51548 0.205478
1 0.520363 0.215335
0.0862898 0.491341 0
0.0990921 0.49839 0
0.111559 0.505394 0
0.128985 0.510903 0
0.1505 0.515145 0
0.174075 0.518669 0
0.199725 0.521523 0
0.227985 0.523613 0
0.2589 0.524926 0
0.292485 0.52546 0
0.328542 0.525292 0
0.366064 0.524727 0
0.404303 0.523995 0.00764477
0.442679 0.523262 0.0193637
0.480598 0.522683 0.0310521
0.517693 0.522377 0.0427253
0.553933 0.522362 0.0543069
0.590021 0.522408 0.0654917
0.625971 0.52256 0.0762951
0.661524 0.52285 0.0867323
0.696559 0.523308 0.0968338
0.730755 0.524025 0.106691
0.76376 0.525078 0.116396
0.795453 0.526482 0.126009
0.825635 0.528313 0.135607
0.854185 0.530571 0.145251
0.881071 0.533257 0.15494
0.906386 0.536355 0.164706
0.930251 0.539803 0.174502
0.952743 0.543557 0.18436
0.973892 0.547646 0.194278
0.994034 0.551934 0.20415
1 0.556573 0.214099
0.0888228 0.530785 0
0.101503 0.537728 0
0.113802 0.54461 0
0.131136 0.550042 0
0.15259 0.554284 0
0.176196 0.55787 0
0.201923 0.560784 0
0.230304 0.562921 0
0.261402 0.564279 0
0.295247 0.564843 0
0.33164 0.564721 0
0.369558 0.564172 0
0.408225 0.563394 0.00170901
0.447044 0.5626 0.0133974
0.48539 0.561929 0.0251316
0.522942 0.561486 0.0369116
0.559579 0.561318 0.0486458
0.596063 0.561196 0.0600748
0.632364 0.561166 0.0711376
0.668223 0.561257 0.0818799
0.703517 0.561502 0.0922866
0.737896 0.562005 0.102464
0.771038 0.562844 0.11249
0.802823 0.564034 0.122423
0.833036 0.565621 0.132311
0.861585 0.567651 0.142214
0.888426 0.570077 0.152148
0.913634 0.572915 0.162142
0.937377 0.576089 0.172137
0.959686 0.579583 0.182132
0.980636 0.583383 0.192172
1 0.587366 0.202136
1 0.591714 0.212131
0.0921035 0.569436 0
0.104768 0.576364 0
0.117098 0.583322 0
0.134432 0.588815 0
0.155917 0.593118 0
0.179568 0.59678 0
0.205402 0.599786 0
0.233921 0.602014 0
0.265202 0.603449 0
0.29926 0.604059 0
0.335912 0.603937 0
0.374105 0.603357 0
0.413092 0.602502 0
0.452247 0.601602 0.00859083
0.490974 0.600793 0.020264
0.528878 0.600198 0.0320287
0.565866 0.599832 0.0438239
0.60267 0.599496 0.0553292
0.639261 0.599222 0.0665446
0.675364 0.599069 0.0774701
0.710857 0.599054 0.0880751
0.745403 0.599283 0.0984817
0.778668 0.599832 0.108736
0.810513 0.600732 0.118883
0.840742 0.602029 0.129
0.869245 0.603754 0.139101
0.895994 0.605875 0.149203
0.92108 0.608377 0.15935
0.944671 0.611231 0.169482
0.966781 0.614389 0.179583
0.987488 0.617838 0.18967
1 0.621454 0.19968
1 0.625406 0.209674
0.0969863 0.607569 0
0.109697 0.614557 0
0.122057 0.621576 0
0.139467 0.627176 0
0.161013 0.631586 0
0.184726 0.63534 0
0.210605 0.638422 0
0.2392 0.640696 0
0.270588 0.642145 0
0.304768 0.642741 0
0.341573 0.642573 0
0.379965 0.641901 0
0.419181 0.640955 0
0.458595 0.639902 0.00521859
0.497566 0.638926 0.0167239
0.535744 0.638102 0.0283665
0.572992 0.637507 0.0400854
0.610071 0.636912 0.0515755
0.646891 0.636362 0.0628214
0.683192 0.635904 0.0737926
0.718837 0.635584 0.0845045
0.753506 0.635493 0.0950179
0.786831 0.635706 0.105409
0.818708 0.63624 0.115694
0.84892 0.637186 0.125933
0.877363 0.638529 0.136156
0.904005 0.640269 0.14638
0.928939 0.642405 0.156603
0.952316 0.644846 0.166781
0.974197 0.647593 0.176928
0.994629 0.650629 0.187045
1 0.653849 0.197055
1 0.657404 0.207019
0.103761 0.645274 0
0.116533 0.652338 0
0.128954 0.659434 0
0.146365 0.66508 0
0.167926 0.669535 0
0.191653 0.67332 0
0.217533 0.676417 0
0.246128 0.678676 0
0.277546 0.680095 0
0.311788 0.680629 0
0.348653 0.680369 0
0.387152 0.679591 0
0.42649 0.678477 0
0.466056 0.677241 0.00325017
0.505226 0.676036 0.0144961
0.543572 0.674968 0.0259251
0.581003 0.674098 0.0374609
0.61825 0.673198 0.0488289
0.655222 0.672312 0.0599832
0.691676 0.671504 0.0709239
0.727428 0.670817 0.0816205
0.762173 0.670344 0.092134
0.795529 0.670161 0.102556
0.827405 0.670298 0.112871
0.857542 0.670817 0.123156
0.885878 0.671733 0.13341
0.912383 0.67303 0.143648
0.937133 0.674723 0.153903
0.960327 0.676738 0.164111
0.981964 0.679057 0.174258
1 0.681666 0.18439
1 0.684459 0.194369
1 0.687587 0.204318
0.112505 0.682445 0
0.125292 0.68954 0
0.137697 0.696651 0
0.155077 0.702296 0
0.176593 0.706752 0
0.200259 0.710506 0
0.226078 0.713558 0
0.254627 0.715755 0
0.285985 0.717083 0
0.320195 0.71751 0
0.357061 0.717113 0
0.395575 0.716152 0
0.434974 0.714839 0
0.474601 0.713375 0.00262455
0.513832 0.71191 0.0135195
0.55227 0.710552 0.0246281
0.589822 0.709346 0.0359197
0.627176 0.708095 0.0470588
0.664225 0.706844 0.0580148
0.700755 0.705638 0.0687877
0.736553 0.704524 0.0793622
0.771313 0.703609 0.0897993
0.804654 0.702968 0.10013
0.836454 0.702647 0.110384
0.866529 0.702708 0.120623
0.894759 0.703166 0.130877
0.921126 0.704021 0.1411
0.945708 0.705257 0.151339
0.968688 0.706813 0.161532
0.990112 0.708675 0.171664
1 0.710842 0.181765
1 0.713191 0.19173
1 0.715908 0.201617
0.123064 0.718914 0
0.135805 0.725963 0
0.14815 0.733028 0
0.165454 0.738628 0
0.186847 0.743008 0
0.210391 0.746685 0
0.236103 0.74963 0
0.26453 0.751705 0
0.295781 0.752895 0
0.329885 0.753155 0
0.366674 0.752575 0
0.405112 0.7514 0
0.44448 0.749828 0
0.484077 0.748089 0.00320439
0.523308 0.746319 0.0136721
0.561776 0.74461 0.0243839
0.599344 0.743038 0.0353094
0.636698 0.74139 0.0461128
0.673777 0.739696 0.0567941
0.710292 0.738064 0.0673075
0.74609 0.736477 0.0776684
0.780819 0.735103 0.0879072
0.814115 0.734005 0.0981155
0.845853 0.733196 0.108263
0.875837 0.732784 0.11841
0.903944 0.732769 0.128573
0.930175 0.73315 0.13875
0.954604 0.733913 0.148943
0.977401 0.735012 0.159106
0.998627 0.736416 0.169207
1 0.73814 0.179263
1 0.740047 0.189197
1 0.742321 0.199054
0.135164 0.754482 0
0.147814 0.761456 0
0.160037 0.768429 0
0.177188 0.773907 0
0.198428 0.778164 0
0.221805 0.781689 0
0.247318 0.784482 0
0.275578 0.786404 0
0.306645 0.787381 0
0.340597 0.787427 0
0.377234 0.786603 0
0.415534 0.785153 0
0.454765 0.783291 0
0.49427 0.781216 0.00468452
0.53341 0.77908 0.0146639
0.571801 0.776989 0.024918
0.609293 0.775006 0.0353857
0.646601 0.772915 0.0457923
0.683619 0.770794 0.0560922
0.720104 0.768688 0.0663005
0.755856 0.766659 0.0763867
0.790539 0.764797 0.0863966
0.823789 0.763226 0.0963912
0.855467 0.761944 0.106386
0.885359 0.761044 0.116396
0.913359 0.76054 0.126452
0.939467 0.760449 0.136538
0.963745 0.760739 0.14667
0.986374 0.761379 0.156756
1 0.762325 0.166812
1 0.763592 0.176837
1 0.765072 0.186725
1 0.766903 0.196536
0.148333 0.78912 0
0.16083 0.795941 0
0.172869 0.802762 0
0.189837 0.808072 0
0.210849 0.812146 0
0.233997 0.815488 0
0.259281 0.818051 0
0.287297 0.819745 0
0.31812 0.820478 0
0.351827 0.820249 0
0.388235 0.81912 0
0.426322 0.817349 0
0.465354 0.815137 0
0.504677 0.81268 0.00660716
0.543664 0.810162 0.0160525
0.581918 0.80766 0.0257877
0.619303 0.805249 0.0357671
0.656535 0.802747 0.0457465
0.693477 0.800168 0.0556344
0.7299 0.797604 0.0654765
0.765591 0.795087 0.075227
0.800198 0.792767 0.0849622
0.833387 0.790707 0.094728
0.864988 0.788937 0.104509
0.894789 0.787564 0.114351
0.922698 0.786603 0.124269
0.948699 0.786038 0.134234
0.972839 0.78587 0.144259
0.995331 0.786038 0.154284
1 0.786542 0.164279
1 0.78735 0.174243
1 0.788388 0.184085
1 0.789807 0.193866
0.162112 0.822721 0
0.174411 0.829343 0
0.186221 0.835935 0
0.202914 0.841031 0
0.223682 0.844862 0
0.246525 0.847959 0
0.271519 0.850263 0
0.299214 0.851637 0
0.329747 0.852064 0
