Assets/LUTs/Cold Noir.cube
TITLE "Generated by Resolve"
LUT_3D_SIZE 9
0.0859541 0 0
0.106264 0 0.000762951
0.17142 0 0.0136873
0.279835 0 0.0163577
0.400824 0 0.0131533
0.523568 0 0.0120089
0.639399 0 0.0173342
0.734234 0 0.0280613
0.810452 0 0.0465553
0.0990768 0.0484627 0
0.139269 0.0551766 0.0116426
0.203616 0.0576944 0.0415961
0.311971 0.0512398 0.0508125
0.436484 0.0431678 0.0557717
0.56434 0.0371099 0.0619364
0.685771 0.0357519 0.0724651
0.787701 0.0426642 0.0910353
0.871214 0.057435 0.117357
0.0974594 0.136522 0
0.149569 0.147402 0
0.234699 0.150729 0.0326085
0.351934 0.149615 0.064683
0.4822 0.149035 0.0859388
0.61561 0.150744 0.104524
0.742214 0.156497 0.124743
0.848371 0.169207 0.150759
0.934661 0.187991 0.182162
0.0828717 0.260334 0
0.143252 0.279423 0
0.245411 0.287709 0
0.378866 0.289219 0.0478218
0.517403 0.291447 0.0857862
0.653773 0.295506 0.116121
0.780499 0.302403 0.143572
0.885222 0.315022 0.173571
0.969802 0.333547 0.207385
0.0826581 0.411582 0
0.147127 0.435355 0
0.25536 0.445701 0
0.39794 0.445426 0.021973
0.543404 0.444511 0.066804
0.683024 0.446311 0.10573
0.810895 0.452369 0.141039
0.915785 0.46511 0.177401
0.999512 0.483436 0.215625
0.0921035 0.569436 0
0.155917 0.593118 0
0.265202 0.603449 0
0.413092 0.602502 0
0.565866 0.599832 0.0438239
0.710857 0.599054 0.0880751
0.840742 0.602029 0.129
0.944671 0.611231 0.169482
1 0.625406 0.209674
0.123064 0.718914 0
0.186847 0.743008 0
0.295781 0.752895 0
0.44448 0.749828 0
0.599344 0.743038 0.0353094
0.74609 0.736477 0.0776684
0.875837 0.732784 0.11841
0.977401 0.735012 0.159106
1 0.742321 0.199054
0.176043 0.855207 0
0.236408 0.876249 0
0.3411 0.882124 0
0.486015 0.87396 0.00236515
0.638437 0.860838 0.0363165
0.783871 0.84712 0.0723583
0.912459 0.835904 0.109316
1 0.830854 0.148226
1 0.83154 0.187655
0.224277 0.973037 0
0.278737 0.988418 0
0.377417 0.988647 0
0.517128 0.974716 0.00361639
0.665949 0.955734 0.029099
0.809644 0.93611 0.0583505
0.937942 0.91928 0.0911574
1 0.909255 0.128618
1 0.905913 0.168719
0.128115 0 0.104143
0.114137 0 0.0855268
0.161456 0 0.092256
0.263706 0 0.0939651
0.382788 0 0.0930495
0.50454 0 0.0929122
0.619196 0 0.0965286
0.714046 0 0.108003
0.790509 0 0.127199
0.0969711 0.0404669 0.128664
0.102617 0.0634318 0.11902
0.169909 0.0671397 0.134401
0.281422 0.0610819 0.138933
0.408255 0.0534981 0.142504
0.53785 0.0480812 0.148226
0.6607 0.0474098 0.158679
0.763851 0.0550546 0.177432
0.849363 0.06981 0.20708
0.0719615 0.138369 0.0965744
0.108293 0.158785 0.100679
0.2009 0.161837 0.14284
0.317754 0.162371 0.170916
0.449638 0.162875 0.187121
0.585107 0.165148 0.202426
0.713497 0.171145 0.220645
0.821042 0.183917 0.245274
0.908309 0.202579 0.275563
0.0530861 0.267613 0.0532998
0.104067 0.292973 0.0723583
0.210575 0.302129 0.112352
0.347753 0.303014 0.160739
0.485557 0.305867 0.196811
0.621592 0.310414 0.223224
0.748669 0.317296 0.246998
0.854215 0.330037 0.274205
0.939818 0.348608 0.30602
0.0519417 0.421668 0.0270085
0.109224 0.449577 0.0534371
0.218143 0.461067 0.0895857
0.365164 0.459693 0.134401
0.512306 0.45832 0.179736
0.651469 0.460548 0.2177
0.77879 0.467048 0.250492
0.883558 0.479988 0.28397
0.967529 0.498253 0.3196
0.0599527 0.580026 0.0101778
0.118196 0.606973 0.0383154
0.226917 0.61886 0.0714275
0.378088 0.617609 0.110704
0.533867 0.613962 0.156359
0.679545 0.61265 0.200793
0.808682 0.615488 0.240711
0.911604 0.624567 0.279011
0.991287 0.638498 0.316518
0.0902571 0.730007 0.0158694
0.149248 0.756542 0.0453346
0.256626 0.767651 0.0755322
0.406897 0.764401 0.107851
0.564355 0.756466 0.146822
0.712657 0.748745 0.188525
0.84239 0.744259 0.228992
0.943038 0.745998 0.26862
1 0.752972 0.306783
0.141772 0.865599 0.0429389
0.197681 0.888289 0.069749
0.300252 0.895033 0.0941482
0.445548 0.886732 0.117632
0.599832 0.872679 0.146868
0.747158 0.857771 0.181109
0.876646 0.845533 0.2177
0.976379 0.839857 0.256352
1 0.840253 0.295048
0.187732 0.981674 0.0646677
0.238163 0.998367 0.0863508
0.334646 0.999344 0.103975
0.474159 0.985504 0.119051
0.624338 0.966003 0.13933
0.76997 0.945541 0.165972
0.899886 0.927901 0.198016
1 0.917342 0.235538
1 0.913817 0.275746
0.171191 0 0.239734
0.158236 0 0.209461
0.186557 0 0.189868
0.27158 0 0.181292
0.381033 0 0.177768
0.497444 0 0.177523
0.609079 0 0.181827
0.702251 0 0.194278
0.777752 0 0.214542
0.143236 0.0193179 0.280079
0.146044 0.0451667 0.254963
0.178134 0.0644694 0.226474
0.272618 0.0649119 0.225971
0.394385 0.0598001 0.23064
0.522194 0.055848 0.237827
0.64445 0.0563363 0.249699
0.747524 0.0649577 0.269749
0.832029 0.0810559 0.297246
0.0961624 0.123415 0.276356
0.108263 0.15285 0.273167
0.166644 0.172732 0.260258
0.286809 0.174853 0.274052
0.421988 0.17586 0.285664
0.559991 0.178134 0.300725
0.689265 0.184588 0.316686
0.798337 0.196979 0.342901
0.886168 0.215488 0.373007
0.0539559 0.262867 0.237354
0.0814679 0.297826 0.239307
0.171786 0.316304 0.241321
0.315984 0.316411 0.280644
0.452689 0.320211 0.312001
0.589502 0.325002 0.332509
0.717891 0.331701 0.352239
0.824903 0.344335 0.377066
0.911772 0.36286 0.407401
0.0396582 0.423423 0.205646
0.0805066 0.458091 0.213947
0.17908 0.475044 0.224521
0.329931 0.473976 0.254383
0.480537 0.471717 0.299641
0.618906 0.474495 0.335653
0.745876 0.481483 0.364492
0.851072 0.494499 0.394385
0.935576 0.512612 0.426902
0.0400397 0.584543 0.182101
0.0868086 0.616587 0.195102
0.188235 0.632609 0.209583
0.340154 0.632532 0.234257
0.500374 0.627771 0.275715
0.64741 0.625666 0.320317
0.77557 0.628397 0.358755
0.877424 0.63743 0.394034
0.956512 0.651102 0.428183
0.0661784 0.736309 0.183413
0.116289 0.766537 0.199771
0.217639 0.780514 0.214939
0.366842 0.778347 0.234043
0.527092 0.769574 0.265858
0.677958 0.760433 0.30602
0.808011 0.755016 0.346273
0.907652 0.756359 0.384634
0.981811 0.763088 0.420478
0.114 0.871916 0.206073
0.162463 0.8972 0.221393
0.25977 0.905974 0.233066
0.403189 0.898573 0.244816
0.558831 0.884092 0.26598
0.708675 0.867964 0.296742
0.83975 0.854582 0.332723
0.939605 0.848234 0.371237
1 0.848371 0.40911
0.156222 0.986786 0.223468
0.200443 1 0.235035
0.292348 1 0.241749
0.429831 0.995239 0.246586
0.580575 0.975769 0.258961
0.728359 0.954635 0.281132
0.860502 0.936126 0.311727
0.962982 0.924956 0.349279
1 0.921218 0.389654
0.211353 0 0.413275
0.20032 0 0.380835
0.226398 0 0.346746
0.299336 0 0.320989
0.396155 0 0.307774
0.50338 0 0.303273
0.608942 0 0.306096
0.698146 0 0.318532
0.771008 0 0.33933
0.186267 0 0.457389
0.186786 0.0240635 0.429084
0.220615 0.0447242 0.389609
0.296834 0.0541848 0.3635
0.402029 0.0560616 0.358511
0.520668 0.0561532 0.363577
0.637949 0.059205 0.375692
0.738125 0.0696269 0.396536
0.820737 0.0869764 0.424811
0.140627 0.100984 0.474083
0.154513 0.131518 0.465476
0.210513 0.154757 0.437507
0.295674 0.172793 0.407614
0.413794 0.180301 0.414176
0.545998 0.185031 0.428656
0.673411 0.192203 0.446967
0.780453 0.205493 0.471626
0.867201 0.224216 0.501701
0.0859998 0.245731 0.45568
0.106294 0.28336 0.460685
0.171923 0.310506 0.455024
0.281239 0.326925 0.43856
0.420356 0.331624 0.454414
0.559731 0.335973 0.469917
0.690089 0.342107 0.488807
0.798291 0.354574 0.512932
0.885313 0.373434 0.540673
0.0540627 0.412482 0.431891
0.0799878 0.451804 0.437629
0.154131 0.477562 0.430198
0.288289 0.48542 0.42153
0.445777 0.482216 0.457542
0.583001 0.485908 0.488792
0.710781 0.493172 0.511757
0.817273 0.505989 0.537591
0.902892 0.523659 0.567407
0.0392157 0.578058 0.40708
0.0716411 0.615351 0.411933
0.156512 0.638163 0.408194
0.298085 0.643626 0.407233
0.461997 0.639033 0.43357
0.6121 0.635645 0.477699
0.738979 0.638422 0.513664
0.839963 0.64744 0.544518
0.919005 0.660716 0.574609
0.0551919 0.733333 0.403647
0.0932326 0.767834 0.409659
0.182544 0.786526 0.40914
0.323919 0.787976 0.409018
0.484428 0.779889 0.425696
0.639338 0.769192 0.461219
0.770382 0.762661 0.50132
0.868833 0.763699 0.537987
0.941817 0.77026 0.570718
0.0951858 0.870161 0.420111
0.133593 0.89868 0.425238
0.22153 0.91078 0.423346
0.358602 0.905974 0.419684
0.513008 0.892393 0.42742
0.665599 0.875349 0.450965
0.799313 0.860624 0.485466
0.899641 0.853544 0.523964
0.971511 0.853529 0.560815
0.13106 0.984756 0.431586
0.166949 1 0.433555
0.251347 1 0.428702
0.383642 1 0.420844
0.532708 0.982223 0.421637
0.682155 0.960952 0.436042
0.817197 0.941588 0.463523
0.921645 0.929671 0.500877
0.99736 0.925689 0.541527
0.251072 0 0.591867
0.241138 0 0.558801
0.268742 0 0.518898
0.338079 0 0.480751
0.426307 0 0.455177
0.524208 0 0.442374
0.622095 0 0.440803
0.70544 0 0.451026
0.774044 0 0.470832
0.227756 0 0.637613
0.227329 0.00271611 0.608499
0.263813 0.0235904 0.567559
0.338521 0.0359503 0.527672
0.432227 0.044007 0.506127
0.53872 0.0497292 0.501961
0.647135 0.0569467 0.510155
0.741238 0.0702525 0.529488
0.819593 0.0895552 0.557443
0.186984 0.0790723 0.664744
0.200168 0.111452 0.650919
0.254276 0.136645 0.620127
0.341405 0.156252 0.579477
0.441138 0.172656 0.560296
0.556405 0.184009 0.564752
0.674098 0.194659 0.580362
0.775402 0.209781 0.604517
0.858396 0.229419 0.634516
0.131991 0.225742 0.664317
0.153765 0.263905 0.666941
0.220737 0.291722 0.655421
0.327031 0.310842 0.623224
0.430472 0.330571 0.595026
0.551781 0.340658 0.60415
0.675914 0.348806 0.622034
0.781506 0.362188 0.64651
0.867765 0.381109 0.676753
0.0901808 0.395438 0.654856
0.112856 0.435447 0.662242
0.179034 0.463127 0.65713
0.288136 0.479332 0.640467
0.410636 0.492363 0.620584
0.55024 0.496941 0.636316
0.680934 0.503624 0.655222
0.788525 0.516182 0.677791
0.875395 0.533028 0.707881
0.0613718 0.564324 0.637018
0.0857404 0.603983 0.643305
0.155657 0.631479 0.637034
0.272801 0.645838 0.618097
0.419745 0.649882 0.605615
0.576272 0.64509 0.64004
0.701488 0.64828 0.670756
0.802777 0.657069 0.695232
0.882689 0.669718 0.720836
0.0643778 0.723079 0.635538
0.091783 0.760571 0.63946
0.166201 0.784024 0.630289
0.29044 0.791775 0.611399
0.440116 0.788769 0.601923
0.598321 0.777829 0.621942
0.732143 0.769711 0.661265
0.829114 0.770611 0.695293
0.901167 0.777081 0.723522
0.0925917 0.861784 0.649409
0.120317 0.893263 0.648692
0.195773 0.909316 0.636057
0.320485 0.908965 0.616403
0.466926 0.898894 0.60473
0.619776 0.882521 0.613138
0.75761 0.866346 0.643122
0.859144 0.858335 0.681651
0.930098 0.858274 0.717083
0.1187 0.97705 0.655406
0.145083 1 0.650065
0.219394 1 0.635004
0.342412 1 0.613657
0.485328 0.986877 0.599237
0.633875 0.966796 0.600488
0.772045 0.946914 0.62118
0.879545 0.934066 0.657465
0.956161 0.929763 0.698512
0.291844 0 0.756283
0.282643 0 0.722988
0.31194 0 0.680644
0.381399 0 0.635523
0.466011 0 0.599939
0.557473 0 0.577722
0.64831 0 0.569238
0.725261 0 0.575036
0.788586 0 0.592462
0.269902 0 0.803159
0.269139 0 0.773953
0.307485 0.00390631 0.73312
0.384375 0.0172274 0.68809
0.475029 0.0284733 0.654734
0.573373 0.038941 0.638651
0.67274 0.0507362 0.638773
0.75903 0.0676585 0.65359
0.83122 0.0896315 0.678981
0.233677 0.0593423 0.836561
0.245914 0.0933547 0.820157
0.299413 0.119905 0.788907
0.389303 0.139834 0.746883
0.487282 0.158923 0.71371
0.590646 0.175982 0.701198
0.695613 0.191653 0.706981
0.787259 0.210101 0.726375
0.863325 0.231769 0.754009
0.182284 0.207233 0.848264
0.204456 0.246342 0.846754
0.270237 0.275486 0.82948
0.373938 0.295872 0.793774
0.478492 0.31635 0.753948
0.580667 0.334569 0.736599
0.687556 0.349004 0.744137
0.783337 0.365743 0.76582
0.863844 0.386465 0.795514
0.137575 0.377615 0.852049
0.160815 0.417441 0.857649
0.227924 0.445106 0.849592
0.338109 0.461723 0.826795
0.457542 0.477378 0.791119
0.561471 0.496986 0.762798
0.673899 0.509667 0.774517
0.775708 0.523522 0.798077
0.859083 0.541085 0.826688
0.100191 0.547921 0.844633
0.122972 0.588037 0.852125
0.189654 0.616236 0.847532
0.298833 0.632502 0.830915
0.420371 0.644572 0.810086
0.541405 0.655497 0.788128
0.668635 0.658976 0.803281
0.772198 0.666789 0.822751
0.853239 0.678523 0.846067
0.0922408 0.708965 0.849454
0.114595 0.747402 0.854719
0.180438 0.772732 0.846494
0.289204 0.784649 0.824567
0.413977 0.790082 0.796704
0.554833 0.787442 0.777493
0.694804 0.777646 0.806867
0.789975 0.778805 0.835508
0.862318 0.785046 0.857359
0.108415 0.849058 0.865064
0.128603 0.881941 0.864332
0.193042 0.900679 0.849287
0.302617 0.904875 0.820768
0.431785 0.901015 0.790219
0.573831 0.889754 0.772488
0.715114 0.873472 0.787106
0.819638 0.864103 0.825086
0.889418 0.864225 0.858213
0.123079 0.965042 0.869734
0.140963 0.991043 0.862486
0.204623 1 0.841703
0.315282 0.999512 0.80975
0.446067 0.988693 0.779568
0.586954 0.972457 0.761715
0.725795 0.953658 0.767681
0.837842 0.939773 0.799878
0.916075 0.934966 0.841382
0.335912 0 0.877302
0.327199 0 0.843976
0.357992 0 0.800534
0.428672 0 0.751644
0.512596 0 0.709331
0.600839 0 0.679057
0.686671 0 0.663127
0.758022 0 0.66305
0.816022 0 0.676356
0.315206 0 0.925231
0.314473 0 0.896239
0.354269 0 0.855955
0.433524 0.0018616 0.809094
0.524788 0.0146792 0.769238
0.619852 0.0282139 0.743542
0.712932 0.0438239 0.734417
0.792004 0.0643473 0.742138
0.85742 0.0893263 0.762707
0.282994 0.0437629 0.963165
0.294636 0.0791791 0.945632
0.348104 0.106828 0.914565
0.439841 0.127123 0.872633
0.539696 0.146838 0.834012
0.639506 0.166598 0.809201
0.735668 0.186313 0.802411
0.817441 0.208469 0.812924
0.885008 0.23299 0.835309
0.235889 0.19295 0.983078
0.257557 0.233097 0.978332
0.321828 0.263325 0.9579
0.42414 0.284306 0.920943
0.530602 0.304234 0.878889
0.630457 0.324544 0.846983
0.725216 0.344442 0.837354
0.808225 0.36611 0.849134
0.879118 0.390158 0.874113
0.191592 0.363104 0.996674
0.215015 0.40293 0.998856
0.282124 0.431144 0.986252
0.390951 0.448936 0.957519
0.507744 0.465812 0.918288
0.612802 0.486183 0.87837
0.706142 0.506981 0.863676
0.790402 0.526757 0.87657
0.863508 0.547189 0.901884
0.150378 0.533547 0.999466
0.173678 0.573617 1
0.240986 0.601694 0.999603
0.350896 0.617777 0.979873
0.473152 0.629862 0.952544
0.590585 0.642908 0.914275
0.681559 0.660975 0.884489
0.766583 0.674235 0.896773
0.841047 0.687144 0.919341
0.135073 0.695415 1
0.156069 0.73373 1
0.219806 0.758984 1
0.324834 0.771115 0.989944
0.441245 0.778042 0.963973
0.556359 0.783047 0.936095
0.660685 0.788739 0.908934
0.757778 0.790082 0.921935
0.83212 0.795575 0.937942
0.141054 0.835889 1
0.15761 0.868971 1
0.216709 0.88835 1
0.317525 0.89424 0.990799
0.431189 0.894484 0.957198
0.548409 0.891737 0.921157
0.672526 0.883909 0.896773
0.783444 0.873121 0.925078
0.851774 0.873838 0.95317
0.1449 0.952148 1
0.157488 0.978897 1
0.213718 0.992035 1
0.313558 0.991775 0.977111
0.42948 0.985794 0.938399
0.55346 0.97615 0.902037
0.681895 0.96286 0.882261
0.797803 0.949279 0.89955
0.879454 0.943557 0.940948
0.381933 0 0.971679
0.373663 0 0.938415
0.405661 0 0.89453
0.477821 0 0.843626
0.562402 0 0.797086
0.649683 0 0.760845
0.732692 0 0.738262
0.799954 0 0.732021
0.853407 0 0.740261
0.362509 0 1
0.362005 0 0.992126
0.403052 0 0.952514
0.484367 0 0.905165
0.57731 0.00265507 0.861982
0.671992 0.0180667 0.829877
0.761852 0.0363622 0.812711
0.835645 0.0598917 0.812726
0.895018 0.0877089 0.826978
0.333959 0.0308232 1
0.345327 0.0674907 1
0.399023 0.0960861 1
0.492088 0.116777 0.972305
0.593942 0.13669 0.931487
0.693782 0.157473 0.899626
0.785916 0.179477 0.88249
0.860578 0.204578 0.882918
0.920378 0.232105 0.897673
0.290883 0.181476 1
0.311803 0.222553 1
0.374823 0.253529 1
0.476295 0.2748 1
0.583734 0.29424 0.978622
0.685054 0.314794 0.940856
0.776089 0.337209 0.918791
0.850278 0.362844 0.917998
0.911391 0.390631 0.934157
0.248035 0.351095 1
0.271046 0.391196 1
0.337285 0.420111 1
0.444526 0.43888 1
0.559915 0.456336 1
0.666957 0.476219 0.97673
0.757809 0.49897 0.947356
0.829587 0.523781 0.942718
0.889479 0.548623 0.957702
0.205844 0.52108 1
0.229648 0.561227 1
0.29723 0.58938 1
0.406867 0.605707 1
0.527306 0.618494 1
0.641596 0.632258 1
0.733196 0.650584 0.971771
0.798733 0.671519 0.957275
0.855406 0.689982 0.968872
0.186374 0.682704 1
0.20737 0.720592 1
0.271122 0.745312 1
0.376287 0.756832 1
0.49305 0.763165 1
0.608576 0.76791 1
0.709148 0.77554 1
0.76997 0.791379 0.973816
0.8262 0.802182 0.983642
0.184802 0.822538 1
0.200092 0.855161 1
0.257572 0.874159 1
0.356146 0.879835 1
0.466087 0.880293 1
0.575036 0.879133 1
0.673686 0.879149 1
0.749294 0.884092 0.998383
0.819745 0.885451 1
0.179507 0.938369 1
0.189471 0.965103 1
0.242222 0.978546 1
0.33695 0.979156 1
0.444465 0.975174 1
0.553323 0.970031 1
0.657389 0.965652 1
0.756558 0.960937 0.98175
0.845014 0.954223 1
0.428092 0 1
0.420203 0 1
0.453269 0 0.984695
0.526864 0 0.932769
0.612665 0 0.883696
0.700267 0 0.843305
0.782116 0 0.815427
0.846891 0 0.803571
0.896941 0 0.806638
0.41001 0 1
0.409903 0 1
0.452064 0 1
0.535149 0 0.997879
0.629938 0 0.953094
0.725521 0.00776684 0.916991
0.814282 0.0278325 0.893767
0.884901 0.0535744 0.886793
0.939681 0.0837568 0.894408
0.384878 0.0187381 1
0.396262 0.0565194 1
0.450278 0.0859693 1
0.54435 0.107057 1
0.647822 0.127062 1
0.748714 0.14815 0.990433
0.839628 0.171221 0.96611
0.910231 0.198138 0.957687
0.964401 0.228229 0.964385
0.345434 0.170916 1
0.365621 0.212757 1
0.427665 0.244266 1
0.528511 0.265644 1
0.636545 0.284733 1
0.739513 0.30515 1
0.830472 0.328481 1
0.900633 0.356405 0.993896
0.954742 0.387152 1
0.304128 0.33991 1
0.326467 0.380438 1
0.391714 0.41001 1
0.497658 0.429496 1
0.612192 0.447242 1
0.720287 0.466697 1
0.812314 0.489403 1
0.879911 0.516289 1
0.930541 0.544564 1
0.262409 0.509331 1
0.286213 0.549645 1
0.353338 0.578042 1
0.46183 0.594736 1
0.580148 0.608011 1
0.692531 0.621836 1
0.785595 0.639185 1
0.84828 0.661662 1
0.892256 0.684855 1
0.240833 0.670024 1
0.261906 0.70753 1
0.325628 0.731777 1
0.43064 0.742931 1
0.546746 0.749157 1
0.660212 0.75433 1
0.757504 0.762539 1
0.818936 0.778622 1
0.855924 0.797162 1
0.234043 0.808423 1
0.249027 0.840391 1
0.306294 0.858747 1
0.404791 0.863798 1
0.514885 0.863676 1
0.624338 0.862074 1
0.723613 0.862043 1
0.795789 0.869215 1
0.830701 0.885328 1
0.221683 0.923125 1
0.230686 0.949462 1
0.282338 0.962615 1
0.375708 0.963104 1
0.481331 0.959243 1
0.586908 0.954696 1
0.683146 0.952316 1
0.757351 0.955856 1
0.810224 0.96434 1
