Assets/LUTs/Enchanted.cube
LUT_3D_SIZE 6
0.000000 0.000000 0.000000
0.133757 0.000000 0.000000
0.332090 0.000000 0.000000
0.528324 0.000000 0.000000
0.729100 0.000000 0.000000
0.925589 0.000000 0.000000
0.000000 0.133671 0.000000
0.133134 0.133671 0.000000
0.332090 0.148740 0.000000
0.528324 0.160646 0.000000
0.729100 0.172248 0.000000
0.925589 0.179507 0.000000
0.000000 0.332406 0.000000
0.148406 0.332406 0.000000
0.332105 0.332406 0.000000
0.528324 0.353234 0.000000
0.729100 0.371719 0.000000
0.925589 0.386391 0.000000
0.000000 0.528870 0.000000
0.160204 0.528870 0.000000
0.352949 0.528870 0.000000
0.528402 0.528870 0.000000
0.729100 0.556536 0.000000
0.925589 0.575389 0.000000
0.000000 0.730503 0.000000
0.171739 0.730503 0.000000
0.372838 0.730503 0.000000
0.556276 0.730503 0.000000
0.729942 0.730457 0.000000
0.925589 0.754271 0.000000
0.000000 0.926352 0.000000
0.179738 0.926352 0.000000
0.386050 0.926352 0.000000
0.574922 0.926352 0.000000
0.754190 0.926352 0.000000
0.925605 0.926352 0.000000
0.000000 0.000000 0.132357
0.133044 0.000000 0.132357
0.332090 0.000000 0.147510
0.528324 0.000000 0.159247
0.729100 0.000000 0.169492
0.925589 0.000000 0.177862
0.000000 0.133671 0.132600
0.133757 0.133671 0.132588
0.332090 0.134741 0.132357
0.528324 0.136704 0.132357
0.729100 0.139298 0.132357
0.925589 0.142334 0.132357
0.000000 0.332406 0.147520
0.134904 0.332406 0.132578
0.332103 0.332406 0.132357
0.528324 0.348366 0.132357
0.729100 0.364662 0.132357
0.925589 0.376448 0.132357
0.000000 0.528870 0.159289
0.137194 0.528870 0.132108
0.348034 0.528870 0.132357
0.528394 0.528870 0.132357
0.729100 0.553534 0.132357
0.925589 0.571207 0.132357
0.000000 0.730503 0.170458
0.139475 0.730503 0.132591
0.364657 0.730503 0.132357
0.553641 0.730503 0.132357
0.729942 0.730226 0.132357
0.925589 0.752738 0.132357
0.000000 0.926352 0.177868
0.142890 0.926352 0.132926
0.376060 0.926352 0.132357
0.570738 0.926352 0.132357
0.751992 0.926352 0.132357
0.925597 0.926352 0.132357
0.000000 0.000000 0.324299
0.146853 0.000000 0.324299
0.332090 0.000000 0.326362
0.528324 0.000000 0.346219
0.729100 0.000000 0.363853
0.925589 0.000000 0.377652
0.000000 0.147484 0.324299
0.133757 0.133818 0.324299
0.332090 0.133671 0.325854
0.528324 0.133671 0.339828
0.729100 0.133671 0.354062
0.925589 0.133671 0.363282
0.000000 0.332406 0.326400
0.133757 0.332406 0.326364
0.332094 0.332406 0.324299
0.528324 0.335817 0.324299
0.729100 0.340457 0.324299
0.925589 0.345795 0.324299
0.000000 0.528870 0.346257
0.133757 0.528870 0.339646
0.335494 0.528870 0.324299
0.528363 0.528870 0.324299
0.729100 0.546587 0.324299
0.925589 0.559276 0.324299
0.000000 0.730503 0.365133
0.133757 0.730503 0.353326
0.340509 0.730503 0.324299
0.546288 0.730503 0.324299
0.729942 0.730317 0.324299
0.925589 0.748353 0.324299
0.000000 0.926352 0.377670
0.133757 0.926352 0.363734
0.345313 0.926352 0.324299
0.558707 0.926352 0.324299
0.748167 0.926352 0.324299
0.925613 0.926352 0.324299
0.000000 0.000000 0.501735
0.156975 0.000000 0.501735
0.347561 0.000000 0.501735
0.528324 0.000000 0.508252
0.729100 0.000000 0.532369
0.925589 0.000000 0.549318
0.000000 0.157621 0.501735
0.133757 0.134194 0.501735
0.342990 0.133671 0.501735
0.528324 0.133671 0.507704
0.729100 0.133671 0.528953
0.925589 0.133671 0.543557
0.000000 0.347923 0.501735
0.133757 0.343329 0.501735
0.332090 0.332410 0.501735
0.528324 0.332406 0.504927
0.729100 0.332406 0.515471
0.925589 0.332406 0.522112
0.000000 0.528870 0.508329
0.133757 0.528870 0.508315
0.332090 0.528870 0.504931
0.528299 0.528870 0.501735
0.729100 0.534753 0.501735
0.925589 0.541885 0.501735
0.000000 0.730503 0.533032
0.133757 0.730503 0.529051
0.332090 0.730503 0.515964
0.535066 0.730503 0.501735
0.729942 0.730199 0.501735
0.925589 0.742126 0.501735
0.000000 0.926352 0.549366
0.133757 0.926352 0.544292
0.332090 0.926352 0.522178
0.541306 0.926352 0.501735
0.741933 0.926352 0.501735
0.925595 0.926352 0.501735
0.000000 0.000000 0.665796
0.167753 0.000000 0.665796
0.363529 0.000000 0.665796
0.543258 0.000000 0.665796
0.729100 0.000000 0.678220
0.925589 0.000000 0.698298
0.000000 0.166682 0.665796
0.133757 0.133795 0.665796
0.355515 0.133671 0.665796
0.540945 0.133671 0.665796
0.729100 0.133671 0.679084
0.925589 0.133671 0.695980
0.000000 0.363802 0.665796
0.133757 0.356101 0.665796
0.332090 0.332444 0.665796
0.535529 0.332406 0.665796
0.729100 0.332406 0.675272
0.925589 0.332406 0.687237
0.000000 0.543702 0.665796
0.133757 0.541556 0.665796
0.332090 0.535982 0.665796
0.528324 0.528867 0.665796
0.729100 0.528870 0.668812
0.925589 0.528870 0.671651
0.000000 0.730503 0.679290
0.133757 0.730503 0.678353
0.332090 0.730503 0.675831
0.528324 0.730503 0.669820
0.729941 0.730985 0.665796
0.925589 0.737086 0.665796
0.000000 0.926352 0.698368
0.133757 0.926352 0.695427
0.332090 0.926352 0.687221
0.528324 0.926352 0.671671
0.736931 0.926352 0.665796
0.925472 0.926352 0.665796
0.000000 0.000000 0.815284
0.173372 0.000000 0.815284
0.375585 0.000000 0.815284
0.560205 0.000000 0.815284
0.734583 0.000000 0.815451
0.925589 0.000000 0.832458
0.000000 0.173592 0.815284
0.133757 0.133692 0.815284
0.365222 0.133671 0.815284
0.556213 0.133671 0.815284
0.734521 0.133671 0.816042
0.925589 0.133671 0.831966
0.000000 0.375928 0.815284
0.133757 0.366139 0.815284
0.332090 0.332466 0.815284
0.544653 0.332406 0.815284
0.731611 0.332406 0.815565
0.925589 0.332406 0.829355
0.000000 0.560725 0.815284
0.133757 0.556622 0.815284
0.332090 0.545231 0.815284
0.528324 0.528895 0.815284
0.728706 0.528870 0.814595
0.925589 0.528870 0.823990
0.000000 0.735579 0.815284
0.133757 0.733683 0.815284
0.332090 0.731953 0.815284
0.528324 0.729638 0.815284
0.729647 0.730503 0.815451
0.925589 0.730503 0.817204
0.000000 0.926352 0.832497
0.133757 0.926352 0.831613
0.332090 0.926352 0.829336
0.528324 0.926352 0.824003
0.729290 0.926352 0.816946
0.925547 0.926352 0.815284
