Assets/LUTs/Enchanted.cube
LUT_3D_SIZE 16
0.000000 0.000000 0.000000
0.021437 0.000000 0.000000
0.067108 0.000000 0.000000
0.133757 0.000000 0.000000
0.202048 0.000000 0.000000
0.266433 0.000000 0.000000
0.332090 0.000000 0.000000
0.396770 0.000000 0.000000
0.462556 0.000000 0.000000
0.528324 0.000000 0.000000
0.594938 0.000000 0.000000
0.661658 0.000000 0.000000
0.729100 0.000000 0.000000
0.799388 0.000000 0.000000
0.866284 0.000000 0.000000
0.925589 0.000000 0.000000
0.000000 0.021465 0.000000
0.021435 0.021465 0.000000
0.067108 0.025656 0.000000
0.133755 0.028568 0.000000
0.202048 0.029975 0.000000
0.266433 0.030844 0.000000
0.332090 0.031487 0.000000
0.396770 0.032366 0.000000
0.462556 0.033316 0.000000
0.528324 0.034209 0.000000
0.594938 0.035663 0.000000
0.661658 0.035780 0.000000
0.729100 0.036976 0.000000
0.799388 0.037940 0.000000
0.866284 0.038583 0.000000
0.925589 0.038747 0.000000
0.000000 0.068996 0.000000
0.025791 0.068996 0.000000
0.068063 0.068996 0.000000
0.134025 0.075802 0.000000
0.202048 0.079063 0.000000
0.266433 0.081382 0.000000
0.332090 0.084097 0.000000
0.396770 0.086457 0.000000
0.462556 0.089003 0.000000
0.528324 0.091376 0.000000
0.594938 0.094215 0.000000
0.661658 0.095581 0.000000
0.729100 0.097693 0.000000
0.799388 0.101355 0.000000
0.866284 0.103053 0.000000
0.925589 0.103502 0.000000
0.000000 0.133671 0.000000
0.028137 0.133671 0.000000
0.074840 0.133671 0.000000
0.133134 0.133671 0.000000
0.202048 0.140804 0.000000
0.266433 0.144722 0.000000
0.332090 0.148740 0.000000
0.396770 0.152612 0.000000
0.462556 0.156779 0.000000
0.528324 0.160646 0.000000
0.594938 0.165675 0.000000
0.661658 0.167293 0.000000
0.729100 0.172248 0.000000
0.799388 0.176230 0.000000
0.866284 0.178829 0.000000
0.925589 0.179507 0.000000
0.000000 0.202096 0.000000
0.029565 0.202096 0.000000
0.078802 0.202096 0.000000
0.139908 0.202096 0.000000
0.202048 0.202111 0.000000
0.266433 0.208119 0.000000
0.332090 0.212784 0.000000
0.396770 0.217684 0.000000
0.462556 0.222894 0.000000
0.528324 0.227697 0.000000
0.594938 0.233380 0.000000
0.661658 0.237125 0.000000
0.729100 0.241307 0.000000
0.799388 0.246323 0.000000
0.866284 0.250634 0.000000
0.925589 0.251495 0.000000
0.000000 0.267856 0.000000
0.030577 0.267856 0.000000
0.080803 0.267856 0.000000
0.144848 0.267856 0.000000
0.207369 0.267561 0.000000
0.267450 0.268331 0.000000
0.332090 0.273685 0.000000
0.396770 0.279530 0.000000
0.462556 0.285822 0.000000
0.528324 0.291605 0.000000
0.594938 0.297907 0.000000
0.661658 0.302650 0.000000
0.729100 0.308136 0.000000
0.799388 0.314185 0.000000
0.866284 0.319071 0.000000
0.925589 0.320140 0.000000
0.000000 0.332406 0.000000
0.031450 0.332406 0.000000
0.083830 0.332406 0.000000
0.148406 0.332406 0.000000
0.212720 0.332406 0.000000
0.272553 0.332286 0.000000
0.332105 0.332406 0.000000
0.396770 0.339164 0.000000
0.462556 0.346450 0.000000
0.528324 0.353234 0.000000
0.594938 0.361081 0.000000
0.661658 0.365853 0.000000
0.729100 0.371719 0.000000
0.799388 0.380564 0.000000
0.866284 0.385189 0.000000
0.925589 0.386391 0.000000
0.000000 0.397126 0.000000
0.032327 0.397126 0.000000
0.085871 0.397126 0.000000
0.153074 0.397126 0.000000
0.216847 0.397126 0.000000
0.278713 0.397126 0.000000
0.338876 0.397126 0.000000
0.396785 0.397126 0.000000
0.462556 0.405378 0.000000
0.528324 0.413070 0.000000
0.594938 0.421532 0.000000
0.661658 0.427278 0.000000
0.729100 0.435320 0.000000
0.799388 0.444238 0.000000
0.866284 0.449411 0.000000
0.925589 0.450796 0.000000
0.000000 0.463016 0.000000
0.033276 0.463016 0.000000
0.087929 0.463016 0.000000
0.157817 0.463016 0.000000
0.222540 0.463016 0.000000
0.285442 0.463016 0.000000
0.346132 0.463016 0.000000
0.405045 0.463016 0.000000
0.462579 0.463016 0.000000
0.528324 0.471522 0.000000
0.594957 0.480667 0.000000
0.661658 0.488214 0.000000
0.729100 0.496528 0.000000
0.799388 0.504515 0.000000
0.866284 0.512156 0.000000
0.925589 0.513702 0.000000
0.000000 0.528870 0.000000
0.034169 0.528870 0.000000
0.091033 0.528870 0.000000
0.160204 0.528870 0.000000
0.227772 0.528870 0.000000
0.291531 0.528870 0.000000
0.352949 0.528870 0.000000
0.412695 0.528870 0.000000
0.471155 0.528870 0.000000
0.528402 0.528870 0.000000
0.596024 0.538876 0.000000
0.660846 0.546143 0.000000
0.729100 0.556536 0.000000
0.799388 0.566375 0.000000
0.866284 0.573710 0.000000
0.925589 0.575389 0.000000
0.000000 0.594988 0.000000
0.035031 0.594988 0.000000
0.093116 0.594988 0.000000
0.163662 0.594988 0.000000
0.231538 0.594988 0.000000
0.296281 0.594988 0.000000
0.359357 0.594988 0.000000
0.420021 0.594988 0.000000
0.479301 0.594988 0.000000
0.537361 0.594988 0.000000
0.594946 0.595869 0.000000
0.661628 0.603909 0.000000
0.729100 0.614516 0.000000
0.799388 0.626156 0.000000
0.866284 0.633995 0.000000
0.925589 0.635919 0.000000
0.000000 0.662125 0.000000
0.035923 0.662125 0.000000
0.095223 0.662125 0.000000
0.167122 0.662125 0.000000
0.236507 0.662125 0.000000
0.302167 0.662125 0.000000
0.365921 0.662125 0.000000
0.427494 0.662125 0.000000
0.487656 0.662125 0.000000
0.546595 0.662125 0.000000
0.603873 0.662125 0.000000
0.661790 0.662125 0.000000
0.729100 0.673469 0.000000
0.799388 0.684998 0.000000
0.866284 0.693519 0.000000
0.925589 0.695460 0.000000
0.000000 0.730503 0.000000
0.036865 0.730503 0.000000
0.097332 0.730503 0.000000
0.171739 0.730503 0.000000
0.241826 0.730503 0.000000
0.308504 0.730503 0.000000
0.372838 0.730503 0.000000
0.435331 0.730503 0.000000
0.496448 0.730503 0.000000
0.556276 0.730503 0.000000
0.615014 0.730503 0.000000
0.672922 0.730503 0.000000
0.729942 0.730457 0.000000
0.799388 0.742936 0.000000
0.866284 0.752013 0.000000
0.925589 0.754271 0.000000
0.000000 0.799882 0.000000
0.037788 0.799882 0.000000
0.100537 0.799882 0.000000
0.175216 0.799882 0.000000
0.245884 0.799882 0.000000
0.314559 0.799882 0.000000
0.379489 0.799882 0.000000
0.442963 0.799882 0.000000
0.504973 0.799882 0.000000
0.565697 0.799882 0.000000
0.625050 0.799882 0.000000
0.684647 0.799882 0.000000
0.742885 0.799856 0.000000
0.799388 0.800413 0.000000
0.866284 0.810067 0.000000
0.925589 0.812311 0.000000
0.000000 0.867296 0.000000
0.038542 0.867296 0.000000
0.102689 0.867296 0.000000
0.178424 0.867296 0.000000
0.250674 0.867296 0.000000
0.319056 0.867296 0.000000
0.384905 0.867296 0.000000
0.449086 0.867296 0.000000
0.511806 0.867296 0.000000
0.573301 0.867296 0.000000
0.634282 0.867296 0.000000
0.692896 0.867296 0.000000
0.751797 0.867296 0.000000
0.810417 0.867950 0.000000
0.866520 0.867296 0.000000
0.925589 0.869634 0.000000
0.000000 0.926352 0.000000
0.038701 0.926352 0.000000
0.102689 0.926352 0.000000
0.179738 0.926352 0.000000
0.251884 0.926352 0.000000
0.319481 0.926352 0.000000
0.386050 0.926352 0.000000
0.450397 0.926352 0.000000
0.513309 0.926352 0.000000
0.574922 0.926352 0.000000
0.634828 0.926352 0.000000
0.695294 0.926352 0.000000
0.754190 0.926352 0.000000
0.812167 0.926352 0.000000
0.868864 0.926352 0.000000
0.925605 0.926352 0.000000
0.000000 0.000000 0.021380
0.021437 0.000000 0.021380
0.067108 0.000000 0.025566
0.133757 0.000000 0.028476
0.202048 0.000000 0.029846
0.266433 0.000000 0.030711
0.332090 0.000000 0.031355
0.396770 0.000000 0.032234
0.462556 0.000000 0.033181
0.528324 0.000000 0.034066
0.594938 0.000000 0.035523
0.661658 0.000000 0.035635
0.729100 0.000000 0.036812
0.799388 0.000000 0.037782
0.866284 0.000000 0.038418
0.925589 0.000000 0.038588
0.000000 0.021465 0.021379
0.021435 0.021465 0.021380
0.067108 0.021465 0.021379
0.133755 0.021465 0.021380
0.202048 0.021013 0.021380
0.266433 0.021107 0.021380
0.332090 0.021694 0.021380
0.396770 0.021785 0.021380
0.462556 0.021906 0.021380
0.528324 0.022030 0.021380
0.594938 0.021906 0.021380
0.661658 0.022030 0.021380
0.729100 0.022844 0.021380
0.799389 0.022976 0.021380
0.866284 0.022844 0.021380
0.925589 0.022976 0.021380
0.000000 0.068996 0.025734
0.021454 0.068996 0.021380
0.068063 0.068996 0.022220
0.133784 0.073840 0.021380
0.202048 0.075904 0.021380
0.266433 0.077826 0.021380
0.332090 0.079880 0.021380
0.396770 0.081830 0.021380
0.462556 0.083980 0.021380
0.528324 0.086017 0.021380
0.594938 0.088073 0.021380
0.661658 0.089095 0.021380
0.729100 0.091960 0.021380
0.799389 0.094476 0.021380
0.866284 0.096158 0.021380
0.925589 0.096581 0.021380
0.000000 0.133671 0.028068
0.021482 0.133671 0.021380
0.072883 0.133671 0.021005
0.133838 0.133671 0.021380
0.202048 0.139610 0.021380
0.266433 0.143268 0.021380
0.332090 0.146415 0.021380
0.396770 0.150050 0.021380
0.462556 0.153910 0.021380
0.528324 0.157530 0.021380
0.594938 0.161724 0.021380
0.661658 0.164194 0.021380
0.729100 0.168332 0.021380
0.799389 0.172362 0.021380
0.866284 0.174939 0.021380
0.925589 0.175672 0.021380
0.000000 0.202096 0.029477
0.021528 0.202096 0.021380
0.074840 0.202096 0.021616
0.139630 0.202096 0.021380
0.202048 0.202040 0.021380
0.266433 0.206705 0.021380
0.332090 0.211645 0.021380
0.396770 0.216274 0.021380
0.462556 0.221279 0.021380
0.528324 0.225931 0.021380
0.594938 0.230748 0.021380
0.661658 0.235362 0.021380
0.729100 0.238933 0.021380
0.799389 0.243943 0.021380
0.866284 0.248278 0.021380
0.925589 0.249120 0.021380
0.000000 0.267856 0.030493
0.021584 0.267856 0.021380
0.076816 0.267856 0.021177
0.144275 0.267856 0.021380
0.206314 0.267119 0.021380
0.267450 0.269625 0.021380
0.332090 0.273244 0.021380
0.396770 0.278801 0.021380
0.462556 0.284860 0.021380
0.528324 0.290480 0.021380
0.594938 0.296968 0.021380
0.661658 0.301542 0.021380
0.729100 0.306562 0.021380
0.799389 0.313575 0.021380
0.866284 0.317516 0.021380
0.925589 0.318547 0.021380
0.000000 0.332406 0.031360
0.021661 0.332406 0.021380
0.078802 0.332406 0.021959
0.145527 0.332406 0.021380
0.211655 0.332406 0.021380
0.271533 0.331005 0.021380
0.332104 0.332406 0.021380
0.396770 0.338898 0.021380
0.462556 0.345976 0.021380
0.528324 0.352520 0.021380
0.594938 0.359651 0.021380
0.661658 0.364222 0.021380
0.729100 0.371521 0.021380
0.799389 0.379459 0.021380
0.866284 0.384087 0.021380
0.925589 0.385232 0.021380
0.000000 0.397126 0.032238
0.021757 0.397126 0.021380
0.080803 0.397126 0.020703
0.149076 0.397126 0.021380
0.215477 0.397126 0.021380
0.278713 0.397126 0.021380
0.338598 0.397126 0.021380
0.396785 0.397126 0.021380
0.462556 0.405156 0.021380
0.528324 0.412642 0.021380
0.594938 0.420371 0.021380
0.661658 0.426885 0.021380
0.729100 0.434486 0.021380
0.799389 0.443361 0.021380
0.866284 0.448582 0.021380
0.925589 0.449953 0.021380
0.000000 0.463016 0.033182
0.021871 0.463016 0.021380
0.083830 0.463016 0.021531
0.153752 0.463016 0.021380
0.222011 0.463016 0.021380
0.284261 0.463016 0.021380
0.345646 0.463016 0.021380
0.404868 0.463016 0.021380
0.462579 0.463016 0.021380
0.528324 0.471363 0.021380
0.594957 0.480667 0.021380
0.661658 0.487145 0.021380
0.729100 0.495921 0.021380
0.799389 0.505756 0.021380
0.866284 0.511550 0.021380
0.925589 0.513106 0.021380
0.000000 0.528870 0.034069
0.022002 0.528870 0.021380
0.084846 0.528870 0.020950
0.157323 0.528870 0.021380
0.225969 0.528870 0.021380
0.290120 0.528870 0.021380
0.352228 0.528870 0.021380
0.412303 0.528870 0.021380
0.470972 0.528870 0.021380
0.528402 0.528870 0.021380
0.594969 0.537955 0.021380
0.660846 0.546143 0.021380
0.729100 0.555121 0.021380
0.799389 0.566809 0.021380
0.866284 0.573213 0.021380
0.925589 0.574915 0.021380
0.000000 0.594988 0.034927
0.022139 0.594988 0.021380
0.086892 0.594988 0.020344
0.160901 0.594988 0.021380
0.229547 0.594988 0.021380
0.295710 0.594988 0.021380
0.358496 0.594988 0.021380
0.419518 0.594988 0.021380
0.479020 0.594988 0.021380
0.537296 0.594988 0.021380
0.594662 0.595869 0.021380
0.660631 0.603909 0.021380
0.729100 0.615057 0.021380
0.799389 0.626723 0.021380
0.866284 0.633697 0.021380
0.925589 0.635545 0.021380
0.000000 0.662125 0.035817
0.022297 0.662124 0.021380
0.088955 0.662125 0.021105
0.165601 0.662124 0.021380
0.235484 0.662124 0.021380
0.301540 0.662124 0.021380
0.364970 0.662124 0.021380
0.426874 0.662124 0.021380
0.487261 0.662124 0.021380
0.546345 0.662124 0.021380
0.604352 0.662124 0.021380
0.661530 0.662124 0.021380
0.729100 0.673328 0.021380
0.799389 0.684822 0.021380
0.866284 0.693437 0.021380
0.925589 0.695308 0.021380
0.000000 0.730503 0.036757
0.022474 0.730503 0.021380
0.092073 0.730503 0.021230
0.168088 0.730503 0.021380
0.239674 0.730503 0.021380
0.306761 0.730503 0.021380
0.371761 0.730503 0.021380
0.434622 0.730503 0.021380
0.495930 0.730503 0.021380
0.555961 0.730503 0.021380
0.614549 0.730503 0.021380
0.673449 0.730503 0.021380
0.729942 0.730370 0.021380
0.799389 0.742868 0.021380
0.866284 0.751840 0.021380
0.925589 0.754160 0.021380
0.000000 0.799882 0.037678
0.022644 0.799883 0.021380
0.094164 0.799882 0.021334
0.171670 0.799883 0.021380
0.244699 0.799883 0.021380
0.312728 0.799883 0.021380
0.378357 0.799883 0.021380
0.442179 0.799883 0.021380
0.504385 0.799883 0.021380
0.565286 0.799883 0.021380
0.625333 0.799883 0.021380
0.683349 0.799883 0.021380
0.742105 0.799751 0.021380
0.799389 0.799455 0.021380
0.866284 0.809966 0.021380
0.925589 0.812248 0.021380
0.000000 0.867296 0.038427
0.022808 0.867296 0.021380
0.095223 0.867296 0.021966
0.175222 0.867296 0.021380
0.247330 0.867296 0.021380
0.317208 0.867296 0.021380
0.383726 0.867296 0.021380
0.448258 0.867296 0.021380
0.511220 0.867296 0.021380
0.572786 0.867296 0.021380
0.633758 0.867296 0.021380
0.693221 0.867296 0.021380
0.751797 0.867296 0.021380
0.810417 0.867818 0.021380
0.866520 0.867296 0.021380
0.925589 0.869502 0.021380
0.000000 0.926352 0.038588
0.022934 0.926352 0.021380
0.096286 0.926352 0.020745
0.175424 0.926352 0.021380
0.248607 0.926352 0.021380
0.318561 0.926352 0.021380
0.384909 0.926352 0.021380
0.449553 0.926352 0.021380
0.512604 0.926352 0.021380
0.574421 0.926352 0.021380
0.635057 0.926352 0.021380
0.694854 0.926352 0.021380
0.754217 0.926352 0.021380
0.811299 0.926352 0.021380
0.868893 0.926352 0.021380
0.925605 0.926352 0.021380
0.000000 0.000000 0.068589
0.025772 0.000000 0.068589
0.068063 0.000000 0.068589
0.132847 0.000000 0.075383
0.202048 0.000000 0.079570
0.266433 0.000000 0.080872
0.332090 0.000000 0.083602
0.396770 0.000000 0.085947
0.462556 0.000000 0.088468
0.528324 0.000000 0.090817
0.594938 0.000000 0.093682
0.661658 0.000000 0.095008
0.729100 0.000000 0.098093
0.799388 0.000000 0.099610
0.866284 0.000000 0.102383
0.925589 0.000000 0.102821
0.000000 0.025805 0.068589
0.021437 0.021466 0.068589
0.068063 0.020929 0.068589
0.133757 0.021466 0.073425
0.202048 0.021465 0.074260
0.266433 0.021465 0.077065
0.332090 0.021465 0.079207
0.396770 0.021465 0.081059
0.462556 0.021465 0.083094
0.528324 0.021465 0.084986
0.594938 0.021465 0.086149
0.661658 0.021465 0.088066
0.729100 0.021465 0.090190
0.799389 0.021465 0.092570
0.866284 0.021465 0.094357
0.925589 0.021465 0.094667
0.000000 0.068996 0.068634
0.021437 0.068996 0.068627
0.067108 0.068996 0.068634
0.133757 0.069956 0.068627
0.202048 0.069667 0.068589
0.266433 0.069969 0.068589
0.332090 0.069667 0.068589
0.396770 0.069969 0.068589
0.462556 0.070320 0.068589
0.528324 0.070723 0.068589
0.594938 0.071291 0.068589
0.661658 0.071687 0.068589
0.729099 0.072368 0.068589
0.799389 0.072798 0.068589
0.866284 0.073348 0.068589
0.925589 0.073779 0.068589
0.000000 0.133671 0.074852
0.021437 0.133671 0.072726
0.068063 0.133671 0.068069
0.133757 0.133671 0.068862
0.202048 0.136498 0.068589
0.266433 0.137862 0.068589
0.332090 0.141059 0.068589
0.396770 0.143551 0.068589
0.462556 0.146412 0.068589
0.528324 0.149148 0.068589
0.594938 0.152041 0.068589
0.661658 0.153644 0.068589
0.729099 0.157272 0.068589
0.799389 0.161295 0.068589
0.866284 0.162851 0.068589
0.925589 0.163512 0.068589
0.000000 0.202096 0.078610
0.021437 0.202096 0.075429
0.068063 0.202096 0.068836
0.136049 0.202096 0.068630
0.202048 0.203798 0.068589
0.266433 0.205442 0.068589
0.332090 0.209135 0.068589
0.396770 0.212911 0.068589
0.462556 0.217161 0.068589
0.528324 0.221179 0.068589
0.594938 0.225617 0.068589
0.661658 0.228559 0.068589
0.729099 0.232751 0.068589
0.799389 0.237743 0.068589
0.866284 0.241097 0.068589
0.925589 0.241910 0.068589
0.000000 0.267856 0.081297
0.021437 0.267856 0.077443
0.068063 0.267856 0.068535
0.138337 0.267856 0.068667
0.205252 0.267126 0.068589
0.267450 0.267920 0.068589
0.332090 0.272232 0.068589
0.396770 0.277090 0.068589
0.462556 0.282464 0.068589
0.528324 0.287591 0.068589
0.594938 0.293574 0.068589
0.661658 0.297656 0.068589
0.729099 0.302726 0.068589
0.799389 0.308703 0.068589
0.866284 0.312738 0.068589
0.925589 0.313710 0.068589
0.000000 0.332406 0.083613
0.021437 0.332406 0.079209
0.069014 0.332406 0.068806
0.140616 0.332406 0.067495
0.208459 0.332406 0.068589
0.271533 0.332265 0.068589
0.332104 0.332406 0.068589
0.396770 0.338158 0.068589
0.462556 0.344611 0.068589
0.528324 0.350702 0.068589
0.594938 0.358304 0.068589
0.661658 0.362393 0.068589
0.729099 0.368101 0.068589
0.799389 0.375044 0.068589
0.866284 0.380645 0.068589
0.925589 0.381813 0.068589
0.000000 0.397126 0.085954
0.021437 0.397126 0.081075
0.069014 0.397126 0.068132
0.142890 0.397126 0.068318
0.212574 0.397126 0.068589
0.275674 0.397126 0.068589
0.337871 0.397126 0.068589
0.396782 0.397126 0.068589
0.462556 0.404620 0.068589
0.528324 0.411628 0.068589
0.594938 0.419841 0.068589
0.661658 0.424937 0.068589
0.729099 0.432926 0.068589
0.799389 0.439872 0.068589
0.866284 0.446093 0.068589
0.925589 0.447374 0.068589
0.000000 0.463016 0.088466
0.021437 0.463016 0.083113
0.069014 0.463016 0.067611
0.146281 0.463016 0.068339
0.217494 0.463016 0.068589
0.282610 0.463016 0.068589
0.344368 0.463016 0.068589
0.404258 0.463016 0.068589
0.462578 0.463016 0.068589
0.528324 0.470898 0.068589
0.594956 0.479753 0.068589
0.661658 0.485744 0.068589
0.729099 0.494066 0.068589
0.799389 0.503830 0.068589
0.866284 0.509713 0.068589
0.925589 0.511167 0.068589
0.000000 0.528870 0.090829
0.021437 0.528870 0.085006
0.069976 0.528870 0.067872
0.148548 0.528870 0.068204
0.221886 0.528870 0.068589
0.288004 0.528870 0.068589
0.350440 0.528870 0.068589
0.411269 0.528870 0.068589
0.470535 0.528870 0.068589
0.528400 0.528870 0.068589
0.596313 0.537955 0.068589
0.660845 0.545238 0.068589
0.729099 0.554686 0.068589
0.799389 0.564438 0.068589
0.866284 0.571860 0.068589
0.925589 0.573474 0.068589
0.000000 0.594988 0.093125
0.021437 0.594988 0.086854
0.069976 0.594988 0.068061
0.151917 0.594988 0.068011
0.225189 0.594988 0.068589
0.292245 0.594988 0.068589
0.356376 0.594988 0.068589
0.418145 0.594988 0.068589
0.478193 0.594988 0.068589
0.536855 0.594988 0.068589
0.594755 0.595869 0.068589
0.661976 0.603909 0.068589
0.729099 0.614114 0.068589
0.799389 0.625618 0.068589
0.866284 0.632799 0.068589
0.925589 0.634476 0.068589
0.000000 0.662125 0.095458
0.021437 0.662124 0.088753
0.070942 0.662125 0.067321
0.154163 0.662124 0.068825
0.228610 0.662125 0.068589
0.297726 0.662125 0.068589
0.362494 0.662125 0.068589
0.425194 0.662125 0.068589
0.486160 0.662125 0.068589
0.545712 0.662125 0.068589
0.604198 0.662125 0.068589
0.661811 0.662125 0.068589
0.729099 0.672608 0.068589
0.799389 0.684820 0.068589
0.866284 0.692750 0.068589
0.925589 0.694379 0.068589
0.000000 0.730503 0.097966
0.021437 0.730503 0.090787
0.070942 0.730503 0.066713
0.157524 0.730503 0.067827
0.233487 0.730503 0.068589
0.302638 0.730503 0.068589
0.368951 0.730503 0.068589
0.432648 0.730503 0.068589
0.494544 0.730503 0.068589
0.555034 0.730503 0.068589
0.614085 0.730503 0.068589
0.672594 0.730503 0.068589
0.730902 0.730864 0.068589
0.799389 0.742444 0.068589
0.866284 0.751518 0.068589
0.925589 0.753620 0.068589
0.000000 0.799882 0.100410
0.021437 0.799883 0.092778
0.071911 0.799882 0.067943
0.159748 0.799883 0.068702
0.237185 0.799883 0.068589
0.308352 0.799883 0.068589
0.375267 0.799883 0.068589
0.439890 0.799883 0.068589
0.502783 0.799883 0.068589
0.564131 0.799883 0.068589
0.624684 0.799883 0.068589
0.683068 0.799883 0.068589
0.742105 0.800381 0.068589
0.799389 0.800102 0.068589
0.866284 0.809721 0.068589
0.925589 0.811938 0.068589
0.000000 0.867296 0.102391
0.021437 0.867296 0.094411
0.071911 0.867296 0.068754
0.163082 0.867296 0.067318
0.240618 0.867296 0.068589
0.312589 0.867296 0.068589
0.380381 0.867296 0.068589
0.445764 0.867296 0.068589
0.509350 0.867296 0.068589
0.571468 0.867296 0.068589
0.632834 0.867296 0.068589
0.691960 0.867296 0.068589
0.751795 0.867296 0.068589
0.809548 0.868520 0.068589
0.866517 0.867296 0.068589
0.925589 0.869394 0.068589
0.000000 0.926352 0.102836
0.021437 0.926352 0.094686
0.072883 0.926352 0.067239
0.163082 0.926352 0.068529
0.241791 0.926352 0.068589
0.312882 0.926352 0.068589
0.381451 0.926352 0.068589
0.446993 0.926352 0.068589
0.510735 0.926352 0.068589
0.572978 0.926352 0.068589
0.634166 0.926352 0.068589
0.694295 0.926352 0.068589
0.753063 0.926352 0.068589
0.811297 0.926352 0.068589
0.868706 0.926352 0.068589
0.925602 0.926352 0.068589
0.000000 0.000000 0.132357
0.028076 0.000000 0.132357
0.074840 0.000000 0.132357
0.133044 0.000000 0.132357
0.202048 0.000000 0.139572
0.266433 0.000000 0.143470
0.332090 0.000000 0.147510
0.396770 0.000000 0.151371
0.462556 0.000000 0.155461
0.528324 0.000000 0.159247
0.594938 0.000000 0.163261
0.661658 0.000000 0.164803
0.729100 0.000000 0.169492
0.799388 0.000000 0.173464
0.866284 0.000000 0.177202
0.925589 0.000000 0.177862
0.000000 0.028116 0.132357
0.021437 0.021466 0.132357
0.071911 0.021047 0.132357
0.133757 0.021466 0.132357
0.202048 0.021465 0.137165
0.266433 0.021465 0.142947
0.332090 0.021465 0.145124
0.396770 0.021465 0.148603
0.462556 0.021465 0.152382
0.528324 0.021465 0.155897
0.594938 0.021465 0.159100
0.661658 0.021465 0.161484
0.729100 0.021465 0.166121
0.799389 0.021465 0.170024
0.866284 0.021465 0.172743
0.925589 0.021465 0.173341
0.000000 0.075093 0.132357
0.021437 0.073019 0.132357
0.067108 0.067351 0.132357
0.133757 0.069146 0.132357
0.202048 0.068996 0.134427
0.266433 0.068996 0.136524
0.332090 0.068996 0.138999
0.396770 0.068996 0.141087
0.462556 0.068996 0.143432
0.528324 0.068996 0.145622
0.594938 0.068996 0.147950
0.661658 0.068996 0.149007
0.729099 0.068996 0.152839
0.799389 0.068996 0.155222
0.866284 0.068996 0.156209
0.925589 0.068996 0.156339
0.000000 0.133671 0.132600
0.021437 0.133671 0.132588
0.067108 0.133671 0.132600
0.133757 0.133671 0.132588
0.202048 0.133594 0.132357
0.266433 0.134157 0.132357
0.332090 0.134741 0.132357
0.396770 0.135303 0.132357
0.462556 0.135974 0.132357
0.528324 0.136704 0.132357
0.594938 0.137112 0.132357
0.661658 0.137849 0.132357
0.729100 0.139298 0.132357
0.799388 0.140059 0.132357
0.866284 0.141579 0.132357
0.925589 0.142334 0.132357
0.000000 0.202096 0.139132
0.021437 0.202096 0.137868
0.067108 0.202096 0.133407
0.133757 0.202096 0.132133
0.202048 0.203061 0.132357
0.266433 0.203402 0.132357
0.332090 0.206259 0.132357
0.396770 0.208758 0.132357
0.462556 0.211654 0.132357
0.528324 0.214517 0.132357
0.594938 0.218036 0.132357
0.661658 0.220858 0.132357
0.729100 0.223086 0.132357
0.799388 0.227065 0.132357
0.866284 0.229385 0.132357
0.925589 0.230210 0.132357
0.000000 0.267856 0.143681
0.021437 0.267856 0.141724
0.067108 0.267856 0.136851
0.133757 0.267856 0.132580
0.203103 0.267042 0.132357
0.267450 0.268829 0.132357
0.332090 0.271115 0.132357
0.396770 0.274959 0.132357
0.462556 0.279386 0.132357
0.528324 0.283568 0.132357
0.594938 0.288486 0.132357
0.661658 0.291636 0.132357
0.729100 0.296088 0.132357
0.799388 0.302023 0.132357
0.866284 0.305131 0.132357
0.925589 0.305998 0.132357
0.000000 0.332406 0.147520
0.021437 0.332406 0.145123
0.067108 0.332406 0.138436
0.134904 0.332406 0.132578
0.206318 0.332406 0.132357
0.270513 0.332355 0.132357
0.332103 0.332406 0.132357
0.396770 0.337273 0.132357
0.462556 0.342966 0.132357
0.528324 0.348366 0.132357
0.594938 0.353749 0.132357
0.661658 0.359099 0.132357
0.729100 0.364662 0.132357
0.799388 0.370627 0.132357
0.866284 0.375318 0.132357
0.925589 0.376448 0.132357
0.000000 0.397126 0.151389
0.021437 0.397126 0.148633
0.067108 0.397126 0.141212
0.134904 0.397126 0.133847
0.208399 0.397126 0.132357
0.274648 0.397126 0.132357
0.336963 0.397126 0.132357
0.396776 0.397126 0.132357
