Assets/LUTs/Juno.cube
LUT_3D_SIZE 16
0.000000 0.017426 0.000000
0.043193 0.017426 0.000000
0.092690 0.017426 0.000000
0.154724 0.017426 0.000000
0.234703 0.017426 0.000000
0.332041 0.017426 0.000000
0.439587 0.017426 0.000000
0.549831 0.017426 0.000000
0.655568 0.017426 0.000000
0.750940 0.017426 0.000000
0.832011 0.017426 0.000000
0.895524 0.017426 0.000000
0.939654 0.017426 0.000000
0.968331 0.017426 0.000000
0.986751 0.017426 0.000000
0.999939 0.017426 0.000000
0.000000 0.061139 0.000000
0.043193 0.061139 0.000000
0.092690 0.061139 0.000000
0.154724 0.061139 0.000000
0.234703 0.061139 0.000000
0.332041 0.061139 0.000000
0.439587 0.061139 0.000000
0.549831 0.061139 0.000000
0.655568 0.061139 0.000000
0.750940 0.061139 0.000000
0.832011 0.061139 0.000000
0.895524 0.061139 0.000000
0.939654 0.061139 0.000000
0.968331 0.061139 0.000000
0.986751 0.061139 0.000000
0.999939 0.061139 0.000000
0.000000 0.113047 0.000000
0.043193 0.113047 0.000000
0.092690 0.113047 0.000000
0.154724 0.113047 0.000000
0.234703 0.113047 0.000000
0.332041 0.113047 0.000000
0.439587 0.113047 0.000000
0.549831 0.113047 0.000000
0.655568 0.113047 0.000000
0.750940 0.113047 0.000000
0.832011 0.113047 0.000000
0.895524 0.113047 0.000000
0.939654 0.113047 0.000000
0.968331 0.113047 0.000000
0.986751 0.113047 0.000000
0.999939 0.113047 0.000000
0.000000 0.178827 0.000000
0.043193 0.178827 0.000000
0.092690 0.178827 0.000000
0.154724 0.178827 0.000000
0.234703 0.178827 0.000000
0.332041 0.178827 0.000000
0.439587 0.178827 0.000000
0.549831 0.178827 0.000000
0.655568 0.178827 0.000000
0.750940 0.178827 0.000000
0.832011 0.178827 0.000000
0.895524 0.178827 0.000000
0.939654 0.178827 0.000000
0.968331 0.178827 0.000000
0.986751 0.178827 0.000000
0.999939 0.178827 0.000000
0.000000 0.262506 0.000000
0.043193 0.262506 0.000000
0.092690 0.262506 0.000000
0.154724 0.262506 0.000000
0.234703 0.262506 0.000000
0.332041 0.262506 0.000000
0.439587 0.262506 0.000000
0.549831 0.262506 0.000000
0.655568 0.262506 0.000000
0.750940 0.262506 0.000000
0.832011 0.262506 0.000000
0.895524 0.262506 0.000000
0.939654 0.262506 0.000000
0.968331 0.262506 0.000000
0.986751 0.262506 0.000000
0.999939 0.262506 0.000000
0.000000 0.360871 0.000000
0.043193 0.360871 0.000000
0.092690 0.360871 0.000000
0.154724 0.360871 0.000000
0.234703 0.360871 0.000000
0.332041 0.360871 0.000000
0.439587 0.360871 0.000000
0.549831 0.360871 0.000000
0.655568 0.360871 0.000000
0.750940 0.360871 0.000000
0.832011 0.360871 0.000000
0.895524 0.360871 0.000000
0.939654 0.360871 0.000000
0.968331 0.360871 0.000000
0.986751 0.360871 0.000000
0.999939 0.360871 0.000000
0.000000 0.466864 0.000000
0.043193 0.466864 0.000000
0.092690 0.466864 0.000000
0.154724 0.466864 0.000000
0.234703 0.466864 0.000000
0.332041 0.466864 0.000000
0.439587 0.466864 0.000000
0.549831 0.466864 0.000000
0.655568 0.466864 0.000000
0.750940 0.466864 0.000000
0.832011 0.466864 0.000000
0.895524 0.466864 0.000000
0.939654 0.466864 0.000000
0.968331 0.466864 0.000000
0.986751 0.466864 0.000000
0.999939 0.466864 0.000000
0.000000 0.573686 0.000000
0.043193 0.573686 0.000000
0.092690 0.573686 0.000000
0.154724 0.573686 0.000000
0.234703 0.573686 0.000000
0.332041 0.573686 0.000000
0.439587 0.573686 0.000000
0.549831 0.573686 0.000000
0.655568 0.573686 0.000000
0.750940 0.573686 0.000000
0.832011 0.573686 0.000000
0.895524 0.573686 0.000000
0.939654 0.573686 0.000000
0.968331 0.573686 0.000000
0.986751 0.573686 0.000000
0.999939 0.573686 0.000000
0.000000 0.674868 0.000000
0.043193 0.674868 0.000000
0.092690 0.674868 0.000000
0.154724 0.674868 0.000000
0.234703 0.674868 0.000000
0.332041 0.674868 0.000000
0.439587 0.674868 0.000000
0.549831 0.674868 0.000000
0.655568 0.674868 0.000000
0.750940 0.674868 0.000000
0.832011 0.674868 0.000000
0.895524 0.674868 0.000000
0.939654 0.674868 0.000000
0.968331 0.674868 0.000000
0.986751 0.674868 0.000000
0.999939 0.674868 0.000000
0.000000 0.765375 0.000000
0.043193 0.765375 0.000000
0.092690 0.765375 0.000000
0.154724 0.765375 0.000000
0.234703 0.765375 0.000000
0.332041 0.765375 0.000000
0.439587 0.765375 0.000000
0.549831 0.765375 0.000000
0.655568 0.765375 0.000000
0.750940 0.765375 0.000000
0.832011 0.765375 0.000000
0.895524 0.765375 0.000000
0.939654 0.765375 0.000000
0.968331 0.765375 0.000000
0.986751 0.765375 0.000000
0.999939 0.765375 0.000000
0.000000 0.841909 0.000000
0.043193 0.841909 0.000000
0.092690 0.841909 0.000000
0.154724 0.841909 0.000000
0.234703 0.841909 0.000000
0.332041 0.841909 0.000000
0.439587 0.841909 0.000000
0.549831 0.841909 0.000000
0.655568 0.841909 0.000000
0.750940 0.841909 0.000000
0.832011 0.841909 0.000000
0.895524 0.841909 0.000000
0.939654 0.841909 0.000000
0.968331 0.841909 0.000000
0.986751 0.841909 0.000000
0.999939 0.841909 0.000000
0.000000 0.901306 0.000000
0.043193 0.901306 0.000000
0.092690 0.901306 0.000000
0.154724 0.901306 0.000000
0.234703 0.901306 0.000000
0.332041 0.901306 0.000000
0.439587 0.901306 0.000000
0.549831 0.901306 0.000000
0.655568 0.901306 0.000000
0.750940 0.901306 0.000000
0.832011 0.901306 0.000000
0.895524 0.901306 0.000000
0.939654 0.901306 0.000000
0.968331 0.901306 0.000000
0.986751 0.901306 0.000000
0.999939 0.901306 0.000000
0.000000 0.942541 0.000000
0.043193 0.942541 0.000000
0.092690 0.942541 0.000000
0.154724 0.942541 0.000000
0.234703 0.942541 0.000000
0.332041 0.942541 0.000000
0.439587 0.942541 0.000000
0.549831 0.942541 0.000000
0.655568 0.942541 0.000000
0.750940 0.942541 0.000000
0.832011 0.942541 0.000000
0.895524 0.942541 0.000000
0.939654 0.942541 0.000000
0.968331 0.942541 0.000000
0.986751 0.942541 0.000000
0.999939 0.942541 0.000000
0.000000 0.969572 0.000000
0.043193 0.969572 0.000000
0.092690 0.969572 0.000000
0.154724 0.969572 0.000000
0.234703 0.969572 0.000000
0.332041 0.969572 0.000000
0.439587 0.969572 0.000000
0.549831 0.969572 0.000000
0.655568 0.969572 0.000000
0.750940 0.969572 0.000000
0.832011 0.969572 0.000000
0.895524 0.969572 0.000000
0.939654 0.969572 0.000000
0.968331 0.969572 0.000000
0.986751 0.969572 0.000000
0.999939 0.969572 0.000000
0.000000 0.987171 0.000000
0.043193 0.987171 0.000000
0.092690 0.987171 0.000000
0.154724 0.987171 0.000000
0.234703 0.987171 0.000000
0.332041 0.987171 0.000000
0.439587 0.987171 0.000000
0.549831 0.987171 0.000000
0.655568 0.987171 0.000000
0.750940 0.987171 0.000000
0.832011 0.987171 0.000000
0.895524 0.987171 0.000000
0.939654 0.987171 0.000000
0.968331 0.987171 0.000000
0.986751 0.987171 0.000000
0.999939 0.987171 0.000000
0.000000 0.999941 0.000000
0.043193 0.999941 0.000000
0.092690 0.999941 0.000000
0.154724 0.999941 0.000000
0.234703 0.999941 0.000000
0.332041 0.999941 0.000000
0.439587 0.999941 0.000000
0.549831 0.999941 0.000000
0.655568 0.999941 0.000000
0.750940 0.999941 0.000000
0.832011 0.999941 0.000000
0.895524 0.999941 0.000000
0.939654 0.999941 0.000000
0.968331 0.999941 0.000000
0.986751 0.999941 0.000000
0.999939 0.999941 0.000000
0.000000 0.017426 0.043193
0.043193 0.017426 0.043193
0.092690 0.017426 0.043193
0.154724 0.017426 0.043193
0.234703 0.017426 0.043193
0.332041 0.017426 0.043193
0.439587 0.017426 0.043193
0.549831 0.017426 0.043193
0.655568 0.017426 0.043193
0.750940 0.017426 0.043193
0.832011 0.017426 0.043193
0.895524 0.017426 0.043193
0.939654 0.017426 0.043193
0.968331 0.017426 0.043193
0.986751 0.017426 0.043193
0.999939 0.017426 0.043193
0.000000 0.061139 0.043193
0.043193 0.061139 0.043193
0.092690 0.061139 0.043193
0.154724 0.061139 0.043193
0.234703 0.061139 0.043193
0.332041 0.061139 0.043193
0.439587 0.061139 0.043193
0.549831 0.061139 0.043193
0.655568 0.061139 0.043193
0.750940 0.061139 0.043193
0.832011 0.061139 0.043193
0.895524 0.061139 0.043193
0.939654 0.061139 0.043193
0.968331 0.061139 0.043193
0.986751 0.061139 0.043193
0.999939 0.061139 0.043193
0.000000 0.113047 0.043193
0.043193 0.113047 0.043193
0.092690 0.113047 0.043193
0.154724 0.113047 0.043193
0.234703 0.113047 0.043193
0.332041 0.113047 0.043193
0.439587 0.113047 0.043193
0.549831 0.113047 0.043193
0.655568 0.113047 0.043193
0.750940 0.113047 0.043193
0.832011 0.113047 0.043193
0.895524 0.113047 0.043193
0.939654 0.113047 0.043193
0.968331 0.113047 0.043193
0.986751 0.113047 0.043193
0.999939 0.113047 0.043193
0.000000 0.178827 0.043193
0.043193 0.178827 0.043193
0.092690 0.178827 0.043193
0.154724 0.178827 0.043193
0.234703 0.178827 0.043193
0.332041 0.178827 0.043193
0.439587 0.178827 0.043193
0.549831 0.178827 0.043193
0.655568 0.178827 0.043193
0.750940 0.178827 0.043193
0.832011 0.178827 0.043193
0.895524 0.178827 0.043193
0.939654 0.178827 0.043193
0.968331 0.178827 0.043193
0.986751 0.178827 0.043193
0.999939 0.178827 0.043193
0.000000 0.262506 0.043193
0.043193 0.262506 0.043193
0.092690 0.262506 0.043193
0.154724 0.262506 0.043193
0.234703 0.262506 0.043193
0.332041 0.262506 0.043193
0.439587 0.262506 0.043193
0.549831 0.262506 0.043193
0.655568 0.262506 0.043193
0.750940 0.262506 0.043193
0.832011 0.262506 0.043193
0.895524 0.262506 0.043193
0.939654 0.262506 0.043193
0.968331 0.262506 0.043193
0.986751 0.262506 0.043193
0.999939 0.262506 0.043193
0.000000 0.360871 0.043193
0.043193 0.360871 0.043193
0.092690 0.360871 0.043193
0.154724 0.360871 0.043193
0.234703 0.360871 0.043193
0.332041 0.360871 0.043193
0.439587 0.360871 0.043193
0.549831 0.360871 0.043193
0.655568 0.360871 0.043193
0.750940 0.360871 0.043193
0.832011 0.360871 0.043193
0.895524 0.360871 0.043193
0.939654 0.360871 0.043193
0.968331 0.360871 0.043193
0.986751 0.360871 0.043193
0.999939 0.360871 0.043193
0.000000 0.466864 0.043193
0.043193 0.466864 0.043193
0.092690 0.466864 0.043193
0.154724 0.466864 0.043193
0.234703 0.466864 0.043193
0.332041 0.466864 0.043193
0.439587 0.466864 0.043193
0.549831 0.466864 0.043193
0.655568 0.466864 0.043193
0.750940 0.466864 0.043193
0.832011 0.466864 0.043193
0.895524 0.466864 0.043193
0.939654 0.466864 0.043193
0.968331 0.466864 0.043193
0.986751 0.466864 0.043193
0.999939 0.466864 0.043193
0.000000 0.573686 0.043193
0.043193 0.573686 0.043193
0.092690 0.573686 0.043193
0.154724 0.573686 0.043193
0.234703 0.573686 0.043193
0.332041 0.573686 0.043193
0.439587 0.573686 0.043193
0.549831 0.573686 0.043193
0.655568 0.573686 0.043193
0.750940 0.573686 0.043193
0.832011 0.573686 0.043193
0.895524 0.573686 0.043193
0.939654 0.573686 0.043193
0.968331 0.573686 0.043193
0.986751 0.573686 0.043193
0.999939 0.573686 0.043193
0.000000 0.674868 0.043193
0.043193 0.674868 0.043193
0.092690 0.674868 0.043193
0.154724 0.674868 0.043193
0.234703 0.674868 0.043193
0.332041 0.674868 0.043193
0.439587 0.674868 0.043193
0.549831 0.674868 0.043193
0.655568 0.674868 0.043193
0.750940 0.674868 0.043193
0.832011 0.674868 0.043193
0.895524 0.674868 0.043193
0.939654 0.674868 0.043193
0.968331 0.674868 0.043193
0.986751 0.674868 0.043193
0.999939 0.674868 0.043193
0.000000 0.765375 0.043193
0.043193 0.765375 0.043193
0.092690 0.765375 0.043193
0.154724 0.765375 0.043193
0.234703 0.765375 0.043193
0.332041 0.765375 0.043193
0.439587 0.765375 0.043193
0.549831 0.765375 0.043193
0.655568 0.765375 0.043193
0.750940 0.765375 0.043193
0.832011 0.765375 0.043193
0.895524 0.765375 0.043193
0.939654 0.765375 0.043193
0.968331 0.765375 0.043193
0.986751 0.765375 0.043193
0.999939 0.765375 0.043193
0.000000 0.841909 0.043193
0.043193 0.841909 0.043193
0.092690 0.841909 0.043193
0.154724 0.841909 0.043193
0.234703 0.841909 0.043193
0.332041 0.841909 0.043193
0.439587 0.841909 0.043193
0.549831 0.841909 0.043193
0.655568 0.841909 0.043193
0.750940 0.841909 0.043193
0.832011 0.841909 0.043193
0.895524 0.841909 0.043193
0.939654 0.841909 0.043193
0.968331 0.841909 0.043193
0.986751 0.841909 0.043193
0.999939 0.841909 0.043193
0.000000 0.901306 0.043193
0.043193 0.901306 0.043193
0.092690 0.901306 0.043193
0.154724 0.901306 0.043193
0.234703 0.901306 0.043193
0.332041 0.901306 0.043193
0.439587 0.901306 0.043193
0.549831 0.901306 0.043193
0.655568 0.901306 0.043193
0.750940 0.901306 0.043193
0.832011 0.901306 0.043193
0.895524 0.901306 0.043193
0.939654 0.901306 0.043193
0.968331 0.901306 0.043193
0.986751 0.901306 0.043193
0.999939 0.901306 0.043193
0.000000 0.942541 0.043193
0.043193 0.942541 0.043193
0.092690 0.942541 0.043193
0.154724 0.942541 0.043193
0.234703 0.942541 0.043193
0.332041 0.942541 0.043193
0.439587 0.942541 0.043193
0.549831 0.942541 0.043193
0.655568 0.942541 0.043193
0.750940 0.942541 0.043193
0.832011 0.942541 0.043193
0.895524 0.942541 0.043193
0.939654 0.942541 0.043193
0.968331 0.942541 0.043193
0.986751 0.942541 0.043193
0.999939 0.942541 0.043193
0.000000 0.969572 0.043193
0.043193 0.969572 0.043193
0.092690 0.969572 0.043193
0.154724 0.969572 0.043193
0.234703 0.969572 0.043193
0.332041 0.969572 0.043193
0.439587 0.969572 0.043193
0.549831 0.969572 0.043193
0.655568 0.969572 0.043193
0.750940 0.969572 0.043193
0.832011 0.969572 0.043193
0.895524 0.969572 0.043193
0.939654 0.969572 0.043193
0.968331 0.969572 0.043193
0.986751 0.969572 0.043193
0.999939 0.969572 0.043193
0.000000 0.987171 0.043193
0.043193 0.987171 0.043193
0.092690 0.987171 0.043193
0.154724 0.987171 0.043193
0.234703 0.987171 0.043193
0.332041 0.987171 0.043193
0.439587 0.987171 0.043193
0.549831 0.987171 0.043193
0.655568 0.987171 0.043193
0.750940 0.987171 0.043193
0.832011 0.987171 0.043193
0.895524 0.987171 0.043193
0.939654 0.987171 0.043193
0.968331 0.987171 0.043193
0.986751 0.987171 0.043193
0.999939 0.987171 0.043193
0.000000 0.999941 0.043193
0.043193 0.999941 0.043193
0.092690 0.999941 0.043193
0.154724 0.999941 0.043193
0.234703 0.999941 0.043193
0.332041 0.999941 0.043193
0.439587 0.999941 0.043193
0.549831 0.999941 0.043193
0.655568 0.999941 0.043193
0.750940 0.999941 0.043193
0.832011 0.999941 0.043193
0.895524 0.999941 0.043193
0.939654 0.999941 0.043193
0.968331 0.999941 0.043193
0.986751 0.999941 0.043193
0.999939 0.999941 0.043193
0.000000 0.017426 0.092690
0.043193 0.017426 0.092690
0.092690 0.017426 0.092690
0.154724 0.017426 0.092690
0.234703 0.017426 0.092690
0.332041 0.017426 0.092690
0.439587 0.017426 0.092690
0.549831 0.017426 0.092690
0.655568 0.017426 0.092690
0.750940 0.017426 0.092690
0.832011 0.017426 0.092690
0.895524 0.017426 0.092690
0.939654 0.017426 0.092690
0.968331 0.017426 0.092690
0.986751 0.017426 0.092690
0.999939 0.017426 0.092690
0.000000 0.061139 0.092690
0.043193 0.061139 0.092690
0.092690 0.061139 0.092690
0.154724 0.061139 0.092690
0.234703 0.061139 0.092690
0.332041 0.061139 0.092690
0.439587 0.061139 0.092690
0.549831 0.061139 0.092690
0.655568 0.061139 0.092690
0.750940 0.061139 0.092690
0.832011 0.061139 0.092690
0.895524 0.061139 0.092690
0.939654 0.061139 0.092690
0.968331 0.061139 0.092690
0.986751 0.061139 0.092690
0.999939 0.061139 0.092690
0.000000 0.113047 0.092690
0.043193 0.113047 0.092690
0.092690 0.113047 0.092690
0.154724 0.113047 0.092690
0.234703 0.113047 0.092690
0.332041 0.113047 0.092690
0.439587 0.113047 0.092690
0.549831 0.113047 0.092690
0.655568 0.113047 0.092690
0.750940 0.113047 0.092690
0.832011 0.113047 0.092690
0.895524 0.113047 0.092690
0.939654 0.113047 0.092690
0.968331 0.113047 0.092690
0.986751 0.113047 0.092690
0.999939 0.113047 0.092690
0.000000 0.178827 0.092690
0.043193 0.178827 0.092690
0.092690 0.178827 0.092690
0.154724 0.178827 0.092690
0.234703 0.178827 0.092690
0.332041 0.178827 0.092690
0.439587 0.178827 0.092690
0.549831 0.178827 0.092690
0.655568 0.178827 0.092690
0.750940 0.178827 0.092690
0.832011 0.178827 0.092690
0.895524 0.178827 0.092690
0.939654 0.178827 0.092690
0.968331 0.178827 0.092690
0.986751 0.178827 0.092690
0.999939 0.178827 0.092690
0.000000 0.262506 0.092690
0.043193 0.262506 0.092690
0.092690 0.262506 0.092690
0.154724 0.262506 0.092690
0.234703 0.262506 0.092690
0.332041 0.262506 0.092690
0.439587 0.262506 0.092690
0.549831 0.262506 0.092690
0.655568 0.262506 0.092690
0.750940 0.262506 0.092690
0.832011 0.262506 0.092690
0.895524 0.262506 0.092690
0.939654 0.262506 0.092690
0.968331 0.262506 0.092690
0.986751 0.262506 0.092690
0.999939 0.262506 0.092690
0.000000 0.360871 0.092690
0.043193 0.360871 0.092690
0.092690 0.360871 0.092690
0.154724 0.360871 0.092690
0.234703 0.360871 0.092690
0.332041 0.360871 0.092690
0.439587 0.360871 0.092690
0.549831 0.360871 0.092690
0.655568 0.360871 0.092690
0.750940 0.360871 0.092690
0.832011 0.360871 0.092690
0.895524 0.360871 0.092690
0.939654 0.360871 0.092690
0.968331 0.360871 0.092690
0.986751 0.360871 0.092690
0.999939 0.360871 0.092690
0.000000 0.466864 0.092690
0.043193 0.466864 0.092690
0.092690 0.466864 0.092690
0.154724 0.466864 0.092690
0.234703 0.466864 0.092690
0.332041 0.466864 0.092690
0.439587 0.466864 0.092690
0.549831 0.466864 0.092690
0.655568 0.466864 0.092690
0.750940 0.466864 0.092690
0.832011 0.466864 0.092690
0.895524 0.466864 0.092690
0.939654 0.466864 0.092690
0.968331 0.466864 0.092690
0.986751 0.466864 0.092690
0.999939 0.466864 0.092690
0.000000 0.573686 0.092690
0.043193 0.573686 0.092690
0.092690 0.573686 0.092690
0.154724 0.573686 0.092690
0.234703 0.573686 0.092690
0.332041 0.573686 0.092690
0.439587 0.573686 0.092690
0.549831 0.573686 0.092690
0.655568 0.573686 0.092690
0.750940 0.573686 0.092690
0.832011 0.573686 0.092690
0.895524 0.573686 0.092690
0.939654 0.573686 0.092690
0.968331 0.573686 0.092690
0.986751 0.573686 0.092690
0.999939 0.573686 0.092690
0.000000 0.674868 0.092690
0.043193 0.674868 0.092690
0.092690 0.674868 0.092690
0.154724 0.674868 0.092690
0.234703 0.674868 0.092690
0.332041 0.674868 0.092690
0.439587 0.674868 0.092690
0.549831 0.674868 0.092690
0.655568 0.674868 0.092690
0.750940 0.674868 0.092690
0.832011 0.674868 0.092690
0.895524 0.674868 0.092690
0.939654 0.674868 0.092690
0.968331 0.674868 0.092690
0.986751 0.674868 0.092690
0.999939 0.674868 0.092690
0.000000 0.765375 0.092690
0.043193 0.765375 0.092690
0.092690 0.765375 0.092690
0.154724 0.765375 0.092690
0.234703 0.765375 0.092690
0.332041 0.765375 0.092690
0.439587 0.765375 0.092690
0.549831 0.765375 0.092690
0.655568 0.765375 0.092690
0.750940 0.765375 0.092690
0.832011 0.765375 0.092690
0.895524 0.765375 0.092690
0.939654 0.765375 0.092690
0.968331 0.765375 0.092690
0.986751 0.765375 0.092690
0.999939 0.765375 0.092690
0.000000 0.841909 0.092690
0.043193 0.841909 0.092690
0.092690 0.841909 0.092690
0.154724 0.841909 0.092690
0.234703 0.841909 0.092690
0.332041 0.841909 0.092690
0.439587 0.841909 0.092690
0.549831 0.841909 0.092690
0.655568 0.841909 0.092690
0.750940 0.841909 0.092690
0.832011 0.841909 0.092690
0.895524 0.841909 0.092690
0.939654 0.841909 0.092690
0.968331 0.841909 0.092690
0.986751 0.841909 0.092690
0.999939 0.841909 0.092690
0.000000 0.901306 0.092690
0.043193 0.901306 0.092690
0.092690 0.901306 0.092690
0.154724 0.901306 0.092690
0.234703 0.901306 0.092690
0.332041 0.901306 0.092690
0.439587 0.901306 0.092690
0.549831 0.901306 0.092690
0.655568 0.901306 0.092690
0.750940 0.901306 0.092690
0.832011 0.901306 0.092690
0.895524 0.901306 0.092690
0.939654 0.901306 0.092690
0.968331 0.901306 0.092690
0.986751 0.901306 0.092690
0.999939 0.901306 0.092690
0.000000 0.942541 0.092690
0.043193 0.942541 0.092690
0.092690 0.942541 0.092690
0.154724 0.942541 0.092690
0.234703 0.942541 0.092690
0.332041 0.942541 0.092690
0.439587 0.942541 0.092690
0.549831 0.942541 0.092690
0.655568 0.942541 0.092690
0.750940 0.942541 0.092690
0.832011 0.942541 0.092690
0.895524 0.942541 0.092690
0.939654 0.942541 0.092690
0.968331 0.942541 0.092690
0.986751 0.942541 0.092690
0.999939 0.942541 0.092690
0.000000 0.969572 0.092690
0.043193 0.969572 0.092690
0.092690 0.969572 0.092690
0.154724 0.969572 0.092690
0.234703 0.969572 0.092690
0.332041 0.969572 0.092690
0.439587 0.969572 0.092690
0.549831 0.969572 0.092690
0.655568 0.969572 0.092690
0.750940 0.969572 0.092690
0.832011 0.969572 0.092690
0.895524 0.969572 0.092690
0.939654 0.969572 0.092690
0.968331 0.969572 0.092690
0.986751 0.969572 0.092690
0.999939 0.969572 0.092690
0.000000 0.987171 0.092690
0.043193 0.987171 0.092690
0.092690 0.987171 0.092690
0.154724 0.987171 0.092690
0.234703 0.987171 0.092690
0.332041 0.987171 0.092690
0.439587 0.987171 0.092690
0.549831 0.987171 0.092690
0.655568 0.987171 0.092690
0.750940 0.987171 0.092690
0.832011 0.987171 0.092690
0.895524 0.987171 0.092690
0.939654 0.987171 0.092690
0.968331 0.987171 0.092690
0.986751 0.987171 0.092690
0.999939 0.987171 0.092690
0.000000 0.999941 0.092690
0.043193 0.999941 0.092690
0.092690 0.999941 0.092690
0.154724 0.999941 0.092690
0.234703 0.999941 0.092690
0.332041 0.999941 0.092690
0.439587 0.999941 0.092690
0.549831 0.999941 0.092690
0.655568 0.999941 0.092690
0.750940 0.999941 0.092690
0.832011 0.999941 0.092690
0.895524 0.999941 0.092690
0.939654 0.999941 0.092690
0.968331 0.999941 0.092690
0.986751 0.999941 0.092690
0.999939 0.999941 0.092690
0.000000 0.017426 0.154724
0.043193 0.017426 0.154724
0.092690 0.017426 0.154724
0.154724 0.017426 0.154724
0.234703 0.017426 0.154724
0.332041 0.017426 0.154724
0.439587 0.017426 0.154724
0.549831 0.017426 0.154724
0.655568 0.017426 0.154724
0.750940 0.017426 0.154724
0.832011 0.017426 0.154724
0.895524 0.017426 0.154724
0.939654 0.017426 0.154724
0.968331 0.017426 0.154724
0.986751 0.017426 0.154724
0.999939 0.017426 0.154724
0.000000 0.061139 0.154724
0.043193 0.061139 0.154724
0.092690 0.061139 0.154724
0.154724 0.061139 0.154724
0.234703 0.061139 0.154724
0.332041 0.061139 0.154724
0.439587 0.061139 0.154724
0.549831 0.061139 0.154724
0.655568 0.061139 0.154724
0.750940 0.061139 0.154724
0.832011 0.061139 0.154724
0.895524 0.061139 0.154724
0.939654 0.061139 0.154724
0.968331 0.061139 0.154724
0.986751 0.061139 0.154724
0.999939 0.061139 0.154724
0.000000 0.113047 0.154724
0.043193 0.113047 0.154724
0.092690 0.113047 0.154724
0.154724 0.113047 0.154724
0.234703 0.113047 0.154724
0.332041 0.113047 0.154724
0.439587 0.113047 0.154724
0.549831 0.113047 0.154724
0.655568 0.113047 0.154724
0.750940 0.113047 0.154724
0.832011 0.113047 0.154724
0.895524 0.113047 0.154724
0.939654 0.113047 0.154724
0.968331 0.113047 0.154724
0.986751 0.113047 0.154724
0.999939 0.113047 0.154724
0.000000 0.178827 0.154724
0.043193 0.178827 0.154724
0.092690 0.178827 0.154724
0.154724 0.178827 0.154724
0.234703 0.178827 0.154724
0.332041 0.178827 0.154724
0.439587 0.178827 0.154724
0.549831 0.178827 0.154724
0.655568 0.178827 0.154724
0.750940 0.178827 0.154724
0.832011 0.178827 0.154724
0.895524 0.178827 0.154724
0.939654 0.178827 0.154724
0.968331 0.178827 0.154724
0.986751 0.178827 0.154724
0.999939 0.178827 0.154724
0.000000 0.262506 0.154724
0.043193 0.262506 0.154724
0.092690 0.262506 0.154724
0.154724 0.262506 0.154724
0.234703 0.262506 0.154724
0.332041 0.262506 0.154724
0.439587 0.262506 0.154724
0.549831 0.262506 0.154724
0.655568 0.262506 0.154724
0.750940 0.262506 0.154724
0.832011 0.262506 0.154724
0.895524 0.262506 0.154724
0.939654 0.262506 0.154724
0.968331 0.262506 0.154724
0.986751 0.262506 0.154724
0.999939 0.262506 0.154724
0.000000 0.360871 0.154724
0.043193 0.360871 0.154724
0.092690 0.360871 0.154724
0.154724 0.360871 0.154724
0.234703 0.360871 0.154724
0.332041 0.360871 0.154724
0.439587 0.360871 0.154724
0.549831 0.360871 0.154724
0.655568 0.360871 0.154724
0.750940 0.360871 0.154724
0.832011 0.360871 0.154724
0.895524 0.360871 0.154724
0.939654 0.360871 0.154724
0.968331 0.360871 0.154724
0.986751 0.360871 0.154724
0.999939 0.360871 0.154724
0.000000 0.466864 0.154724
0.043193 0.466864 0.154724
0.092690 0.466864 0.154724
0.154724 0.466864 0.154724
0.234703 0.466864 0.154724
0.332041 0.466864 0.154724
0.439587 0.466864 0.154724
0.549831 0.466864 0.154724
0.655568 0.466864 0.154724
0.750940 0.466864 0.154724
0.832011 0.466864 0.154724
0.895524 0.466864 0.154724
0.939654 0.466864 0.154724
0.968331 0.466864 0.154724
0.986751 0.466864 0.154724
0.999939 0.466864 0.154724
0.000000 0.573686 0.154724
0.043193 0.573686 0.154724
0.092690 0.573686 0.154724
0.154724 0.573686 0.154724
0.234703 0.573686 0.154724
0.332041 0.573686 0.154724
0.439587 0.573686 0.154724
0.549831 0.573686 0.154724
