Assets/LUTs/Juno.cube
LUT_3D_SIZE 6
0.000000 0.017426 0.000000
0.154724 0.017426 0.000000
0.439587 0.017426 0.000000
0.750940 0.017426 0.000000
0.939654 0.017426 0.000000
0.999939 0.017426 0.000000
0.000000 0.178827 0.000000
0.154724 0.178827 0.000000
0.439587 0.178827 0.000000
0.750940 0.178827 0.000000
0.939654 0.178827 0.000000
0.999939 0.178827 0.000000
0.000000 0.466864 0.000000
0.154724 0.466864 0.000000
0.439587 0.466864 0.000000
0.750940 0.466864 0.000000
0.939654 0.466864 0.000000
0.999939 0.466864 0.000000
0.000000 0.765375 0.000000
0.154724 0.765375 0.000000
0.439587 0.765375 0.000000
0.750940 0.765375 0.000000
0.939654 0.765375 0.000000
0.999939 0.765375 0.000000
0.000000 0.942541 0.000000
0.154724 0.942541 0.000000
0.439587 0.942541 0.000000
0.750940 0.942541 0.000000
0.939654 0.942541 0.000000
0.999939 0.942541 0.000000
0.000000 0.999941 0.000000
0.154724 0.999941 0.000000
0.439587 0.999941 0.000000
0.750940 0.999941 0.000000
0.939654 0.999941 0.000000
0.999939 0.999941 0.000000
0.000000 0.017426 0.154724
0.154724 0.017426 0.154724
0.439587 0.017426 0.154724
0.750940 0.017426 0.154724
0.939654 0.017426 0.154724
0.999939 0.017426 0.154724
0.000000 0.178827 0.154724
0.154724 0.178827 0.154724
0.439587 0.178827 0.154724
0.750940 0.178827 0.154724
0.939654 0.178827 0.154724
0.999939 0.178827 0.154724
0.000000 0.466864 0.154724
0.154724 0.466864 0.154724
0.439587 0.466864 0.154724
0.750940 0.466864 0.154724
0.939654 0.466864 0.154724
0.999939 0.466864 0.154724
0.000000 0.765375 0.154724
0.154724 0.765375 0.154724
0.439587 0.765375 0.154724
0.750940 0.765375 0.154724
0.939654 0.765375 0.154724
0.999939 0.765375 0.154724
0.000000 0.942541 0.154724
0.154724 0.942541 0.154724
0.439587 0.942541 0.154724
0.750940 0.942541 0.154724
0.939654 0.942541 0.154724
0.999939 0.942541 0.154724
0.000000 0.999941 0.154724
0.154724 0.999941 0.154724
0.439587 0.999941 0.154724
0.750940 0.999941 0.154724
0.939654 0.999941 0.154724
0.999939 0.999941 0.154724
0.000000 0.017426 0.439587
0.154724 0.017426 0.439587
0.439587 0.017426 0.439587
0.750940 0.017426 0.439587
0.939654 0.017426 0.439587
0.999939 0.017426 0.439587
0.000000 0.178827 0.439587
0.154724 0.178827 0.439587
0.439587 0.178827 0.439587
0.750940 0.178827 0.439587
0.939654 0.178827 0.439587
0.999939 0.178827 0.439587
0.000000 0.466864 0.439587
0.154724 0.466864 0.439587
0.439587 0.466864 0.439587
0.750940 0.466864 0.439587
0.939654 0.466864 0.439587
0.999939 0.466864 0.439587
0.000000 0.765375 0.439587
0.154724 0.765375 0.439587
0.439587 0.765375 0.439587
0.750940 0.765375 0.439587
0.939654 0.765375 0.439587
0.999939 0.765375 0.439587
0.000000 0.942541 0.439587
0.154724 0.942541 0.439587
0.439587 0.942541 0.439587
0.750940 0.942541 0.439587
0.939654 0.942541 0.439587
0.999939 0.942541 0.439587
0.000000 0.999941 0.439587
0.154724 0.999941 0.439587
0.439587 0.999941 0.439587
0.750940 0.999941 0.439587
0.939654 0.999941 0.439587
0.999939 0.999941 0.439587
0.000000 0.017426 0.750940
0.154724 0.017426 0.750940
0.439587 0.017426 0.750940
0.750940 0.017426 0.750940
0.939654 0.017426 0.750940
0.999939 0.017426 0.750940
0.000000 0.178827 0.750940
0.154724 0.178827 0.750940
0.439587 0.178827 0.750940
0.750940 0.178827 0.750940
0.939654 0.178827 0.750940
0.999939 0.178827 0.750940
0.000000 0.466864 0.750940
0.154724 0.466864 0.750940
0.439587 0.466864 0.750940
0.750940 0.466864 0.750940
0.939654 0.466864 0.750940
0.999939 0.466864 0.750940
0.000000 0.765375 0.750940
0.154724 0.765375 0.750940
0.439587 0.765375 0.750940
0.750940 0.765375 0.750940
0.939654 0.765375 0.750940
0.999939 0.765375 0.750940
0.000000 0.942541 0.750940
0.154724 0.942541 0.750940
0.439587 0.942541 0.750940
0.750940 0.942541 0.750940
0.939654 0.942541 0.750940
0.999939 0.942541 0.750940
0.000000 0.999941 0.750940
0.154724 0.999941 0.750940
0.439587 0.999941 0.750940
0.750940 0.999941 0.750940
0.939654 0.999941 0.750940
0.999939 0.999941 0.750940
0.000000 0.017426 0.939654
0.154724 0.017426 0.939654
0.439587 0.017426 0.939654
0.750940 0.017426 0.939654
0.939654 0.017426 0.939654
0.999939 0.017426 0.939654
0.000000 0.178827 0.939654
0.154724 0.178827 0.939654
0.439587 0.178827 0.939654
0.750940 0.178827 0.939654
0.939654 0.178827 0.939654
0.999939 0.178827 0.939654
0.000000 0.466864 0.939654
0.154724 0.466864 0.939654
0.439587 0.466864 0.939654
0.750940 0.466864 0.939654
0.939654 0.466864 0.939654
0.999939 0.466864 0.939654
0.000000 0.765375 0.939654
0.154724 0.765375 0.939654
0.439587 0.765375 0.939654
0.750940 0.765375 0.939654
0.939654 0.765375 0.939654
0.999939 0.765375 0.939654
0.000000 0.942541 0.939654
0.154724 0.942541 0.939654
0.439587 0.942541 0.939654
0.750940 0.942541 0.939654
0.939654 0.942541 0.939654
0.999939 0.942541 0.939654
0.000000 0.999941 0.939654
0.154724 0.999941 0.939654
0.439587 0.999941 0.939654
0.750940 0.999941 0.939654
0.939654 0.999941 0.939654
0.999939 0.999941 0.939654
0.000000 0.017426 0.999939
0.154724 0.017426 0.999939
0.439587 0.017426 0.999939
0.750940 0.017426 0.999939
0.939654 0.017426 0.999939
0.999939 0.017426 0.999939
0.000000 0.178827 0.999939
0.154724 0.178827 0.999939
0.439587 0.178827 0.999939
0.750940 0.178827 0.999939
0.939654 0.178827 0.999939
0.999939 0.178827 0.999939
0.000000 0.466864 0.999939
0.154724 0.466864 0.999939
0.439587 0.466864 0.999939
0.750940 0.466864 0.999939
0.939654 0.466864 0.999939
0.999939 0.466864 0.999939
0.000000 0.765375 0.999939
0.154724 0.765375 0.999939
0.439587 0.765375 0.999939
0.750940 0.765375 0.999939
0.939654 0.765375 0.999939
0.999939 0.765375 0.999939
0.000000 0.942541 0.999939
0.154724 0.942541 0.999939
0.439587 0.942541 0.999939
0.750940 0.942541 0.999939
0.939654 0.942541 0.999939
0.999939 0.942541 0.999939
0.000000 0.999941 0.999939
0.154724 0.999941 0.999939
0.439587 0.999941 0.999939
0.750940 0.999941 0.999939
0.939654 0.999941 0.999939
0.999939 0.999941 0.999939
