Assets/LUTs/Ludwig.cube
LUT_3D_SIZE 16
0.065887 0.012787 0.000000
0.091407 0.012787 0.000000
0.122253 0.012787 0.000000
0.163891 0.012787 0.000000
0.225248 0.012787 0.000000
0.315694 0.012787 0.000000
0.432220 0.012787 0.000000
0.558781 0.012787 0.000000
0.674345 0.012787 0.000000
0.767389 0.012787 0.000000
0.839122 0.012787 0.000000
0.892061 0.012787 0.000000
0.928997 0.012787 0.000000
0.954791 0.012787 0.000000
0.973358 0.012787 0.000000
0.987696 0.012787 0.000000
0.065887 0.014231 0.000000
0.091407 0.014231 0.000000
0.122253 0.014231 0.000000
0.163891 0.014231 0.000000
0.225248 0.014231 0.000000
0.315694 0.014231 0.000000
0.432220 0.014231 0.000000
0.558781 0.014231 0.000000
0.674345 0.014231 0.000000
0.767389 0.014231 0.000000
0.839122 0.014231 0.000000
0.892061 0.014231 0.000000
0.928997 0.014231 0.000000
0.954791 0.014231 0.000000
0.973358 0.014231 0.000000
0.987696 0.014231 0.000000
0.065887 0.062329 0.000000
0.091407 0.062329 0.000000
0.122253 0.062329 0.000000
0.163891 0.062329 0.000000
0.225248 0.062329 0.000000
0.315694 0.062329 0.000000
0.432220 0.062329 0.000000
0.558781 0.062329 0.000000
0.674345 0.062329 0.000000
0.767389 0.062329 0.000000
0.839122 0.062329 0.000000
0.892061 0.062329 0.000000
0.928997 0.062329 0.000000
0.954791 0.062329 0.000000
0.973358 0.062329 0.000000
0.987696 0.062329 0.000000
0.065887 0.127625 0.000000
0.091407 0.127625 0.000000
0.122253 0.127625 0.000000
0.163891 0.127625 0.000000
0.225248 0.127625 0.000000
0.315694 0.127625 0.000000
0.432220 0.127625 0.000000
0.558781 0.127625 0.000000
0.674345 0.127625 0.000000
0.767389 0.127625 0.000000
0.839122 0.127625 0.000000
0.892061 0.127625 0.000000
0.928997 0.127625 0.000000
0.954791 0.127625 0.000000
0.973358 0.127625 0.000000
0.987696 0.127625 0.000000
0.065887 0.212526 0.000000
0.091407 0.212526 0.000000
0.122253 0.212526 0.000000
0.163891 0.212526 0.000000
0.225248 0.212526 0.000000
0.315694 0.212526 0.000000
0.432220 0.212526 0.000000
0.558781 0.212526 0.000000
0.674345 0.212526 0.000000
0.767389 0.212526 0.000000
0.839122 0.212526 0.000000
0.892061 0.212526 0.000000
0.928997 0.212526 0.000000
0.954791 0.212526 0.000000
0.973358 0.212526 0.000000
0.987696 0.212526 0.000000
0.065887 0.321595 0.000000
0.091407 0.321595 0.000000
0.122253 0.321595 0.000000
0.163891 0.321595 0.000000
0.225248 0.321595 0.000000
0.315694 0.321595 0.000000
0.432220 0.321595 0.000000
0.558781 0.321595 0.000000
0.674345 0.321595 0.000000
0.767389 0.321595 0.000000
0.839122 0.321595 0.000000
0.892061 0.321595 0.000000
0.928997 0.321595 0.000000
0.954791 0.321595 0.000000
0.973358 0.321595 0.000000
0.987696 0.321595 0.000000
0.065887 0.445801 0.000000
0.091407 0.445801 0.000000
0.122253 0.445801 0.000000
0.163891 0.445801 0.000000
0.225248 0.445801 0.000000
0.315694 0.445801 0.000000
0.432220 0.445801 0.000000
0.558781 0.445801 0.000000
0.674345 0.445801 0.000000
0.767389 0.445801 0.000000
0.839122 0.445801 0.000000
0.892061 0.445801 0.000000
0.928997 0.445801 0.000000
0.954791 0.445801 0.000000
0.973358 0.445801 0.000000
0.987696 0.445801 0.000000
0.065887 0.571835 0.000000
0.091407 0.571835 0.000000
0.122253 0.571835 0.000000
0.163891 0.571835 0.000000
0.225248 0.571835 0.000000
0.315694 0.571835 0.000000
0.432220 0.571835 0.000000
0.558781 0.571835 0.000000
0.674345 0.571835 0.000000
0.767389 0.571835 0.000000
0.839122 0.571835 0.000000
0.892061 0.571835 0.000000
0.928997 0.571835 0.000000
0.954791 0.571835 0.000000
0.973358 0.571835 0.000000
0.987696 0.571835 0.000000
0.065887 0.686589 0.000000
0.091407 0.686589 0.000000
0.122253 0.686589 0.000000
0.163891 0.686589 0.000000
0.225248 0.686589 0.000000
0.315694 0.686589 0.000000
0.432220 0.686589 0.000000
0.558781 0.686589 0.000000
0.674345 0.686589 0.000000
0.767389 0.686589 0.000000
0.839122 0.686589 0.000000
0.892061 0.686589 0.000000
0.928997 0.686589 0.000000
0.954791 0.686589 0.000000
0.973358 0.686589 0.000000
0.987696 0.686589 0.000000
0.065887 0.782562 0.000000
0.091407 0.782562 0.000000
0.122253 0.782562 0.000000
0.163891 0.782562 0.000000
0.225248 0.782562 0.000000
0.315694 0.782562 0.000000
0.432220 0.782562 0.000000
0.558781 0.782562 0.000000
0.674345 0.782562 0.000000
0.767389 0.782562 0.000000
0.839122 0.782562 0.000000
0.892061 0.782562 0.000000
0.928997 0.782562 0.000000
0.954791 0.782562 0.000000
0.973358 0.782562 0.000000
0.987696 0.782562 0.000000
0.065887 0.857758 0.000000
0.091407 0.857758 0.000000
0.122253 0.857758 0.000000
0.163891 0.857758 0.000000
0.225248 0.857758 0.000000
0.315694 0.857758 0.000000
0.432220 0.857758 0.000000
0.558781 0.857758 0.000000
0.674345 0.857758 0.000000
0.767389 0.857758 0.000000
0.839122 0.857758 0.000000
0.892061 0.857758 0.000000
0.928997 0.857758 0.000000
0.954791 0.857758 0.000000
0.973358 0.857758 0.000000
0.987696 0.857758 0.000000
0.065887 0.911499 0.000000
0.091407 0.911499 0.000000
0.122253 0.911499 0.000000
0.163891 0.911499 0.000000
0.225248 0.911499 0.000000
0.315694 0.911499 0.000000
0.432220 0.911499 0.000000
0.558781 0.911499 0.000000
0.674345 0.911499 0.000000
0.767389 0.911499 0.000000
0.839122 0.911499 0.000000
0.892061 0.911499 0.000000
0.928997 0.911499 0.000000
0.954791 0.911499 0.000000
0.973358 0.911499 0.000000
0.987696 0.911499 0.000000
0.065887 0.946753 0.000000
0.091407 0.946753 0.000000
0.122253 0.946753 0.000000
0.163891 0.946753 0.000000
0.225248 0.946753 0.000000
0.315694 0.946753 0.000000
0.432220 0.946753 0.000000
0.558781 0.946753 0.000000
0.674345 0.946753 0.000000
0.767389 0.946753 0.000000
0.839122 0.946753 0.000000
0.892061 0.946753 0.000000
0.928997 0.946753 0.000000
0.954791 0.946753 0.000000
0.973358 0.946753 0.000000
0.987696 0.946753 0.000000
0.065887 0.970007 0.000000
0.091407 0.970007 0.000000
0.122253 0.970007 0.000000
0.163891 0.970007 0.000000
0.225248 0.970007 0.000000
0.315694 0.970007 0.000000
0.432220 0.970007 0.000000
0.558781 0.970007 0.000000
0.674345 0.970007 0.000000
0.767389 0.970007 0.000000
0.839122 0.970007 0.000000
0.892061 0.970007 0.000000
0.928997 0.970007 0.000000
0.954791 0.970007 0.000000
0.973358 0.970007 0.000000
0.987696 0.970007 0.000000
0.065887 0.986481 0.000000
0.091407 0.986481 0.000000
0.122253 0.986481 0.000000
0.163891 0.986481 0.000000
0.225248 0.986481 0.000000
0.315694 0.986481 0.000000
0.432220 0.986481 0.000000
0.558781 0.986481 0.000000
0.674345 0.986481 0.000000
0.767389 0.986481 0.000000
0.839122 0.986481 0.000000
0.892061 0.986481 0.000000
0.928997 0.986481 0.000000
0.954791 0.986481 0.000000
0.973358 0.986481 0.000000
0.987696 0.986481 0.000000
0.065887 0.999936 0.000000
0.091407 0.999936 0.000000
0.122253 0.999936 0.000000
0.163891 0.999936 0.000000
0.225248 0.999936 0.000000
0.315694 0.999936 0.000000
0.432220 0.999936 0.000000
0.558781 0.999936 0.000000
0.674345 0.999936 0.000000
0.767389 0.999936 0.000000
0.839122 0.999936 0.000000
0.892061 0.999936 0.000000
0.928997 0.999936 0.000000
0.954791 0.999936 0.000000
0.973358 0.999936 0.000000
0.987696 0.999936 0.000000
0.065887 0.012787 0.028578
0.091407 0.012787 0.028578
0.122253 0.012787 0.028578
0.163891 0.012787 0.028578
0.225248 0.012787 0.028578
0.315694 0.012787 0.028578
0.432220 0.012787 0.028578
0.558781 0.012787 0.028578
0.674345 0.012787 0.028578
0.767389 0.012787 0.028578
0.839122 0.012787 0.028578
0.892061 0.012787 0.028578
0.928997 0.012787 0.028578
0.954791 0.012787 0.028578
0.973358 0.012787 0.028578
0.987696 0.012787 0.028578
0.065887 0.014231 0.028578
0.091407 0.014231 0.028578
0.122253 0.014231 0.028578
0.163891 0.014231 0.028578
0.225248 0.014231 0.028578
0.315694 0.014231 0.028578
0.432220 0.014231 0.028578
0.558781 0.014231 0.028578
0.674345 0.014231 0.028578
0.767389 0.014231 0.028578
0.839122 0.014231 0.028578
0.892061 0.014231 0.028578
0.928997 0.014231 0.028578
0.954791 0.014231 0.028578
0.973358 0.014231 0.028578
0.987696 0.014231 0.028578
0.065887 0.062329 0.028578
0.091407 0.062329 0.028578
0.122253 0.062329 0.028578
0.163891 0.062329 0.028578
0.225248 0.062329 0.028578
0.315694 0.062329 0.028578
0.432220 0.062329 0.028578
0.558781 0.062329 0.028578
0.674345 0.062329 0.028578
0.767389 0.062329 0.028578
0.839122 0.062329 0.028578
0.892061 0.062329 0.028578
0.928997 0.062329 0.028578
0.954791 0.062329 0.028578
0.973358 0.062329 0.028578
0.987696 0.062329 0.028578
0.065887 0.127625 0.028578
0.091407 0.127625 0.028578
0.122253 0.127625 0.028578
0.163891 0.127625 0.028578
0.225248 0.127625 0.028578
0.315694 0.127625 0.028578
0.432220 0.127625 0.028578
0.558781 0.127625 0.028578
0.674345 0.127625 0.028578
0.767389 0.127625 0.028578
0.839122 0.127625 0.028578
0.892061 0.127625 0.028578
0.928997 0.127625 0.028578
0.954791 0.127625 0.028578
0.973358 0.127625 0.028578
0.987696 0.127625 0.028578
0.065887 0.212526 0.028578
0.091407 0.212526 0.028578
0.122253 0.212526 0.028578
0.163891 0.212526 0.028578
0.225248 0.212526 0.028578
0.315694 0.212526 0.028578
0.432220 0.212526 0.028578
0.558781 0.212526 0.028578
0.674345 0.212526 0.028578
0.767389 0.212526 0.028578
0.839122 0.212526 0.028578
0.892061 0.212526 0.028578
0.928997 0.212526 0.028578
0.954791 0.212526 0.028578
0.973358 0.212526 0.028578
0.987696 0.212526 0.028578
0.065887 0.321595 0.028578
0.091407 0.321595 0.028578
0.122253 0.321595 0.028578
0.163891 0.321595 0.028578
0.225248 0.321595 0.028578
0.315694 0.321595 0.028578
0.432220 0.321595 0.028578
0.558781 0.321595 0.028578
0.674345 0.321595 0.028578
0.767389 0.321595 0.028578
0.839122 0.321595 0.028578
0.892061 0.321595 0.028578
0.928997 0.321595 0.028578
0.954791 0.321595 0.028578
0.973358 0.321595 0.028578
0.987696 0.321595 0.028578
0.065887 0.445801 0.028578
0.091407 0.445801 0.028578
0.122253 0.445801 0.028578
0.163891 0.445801 0.028578
0.225248 0.445801 0.028578
0.315694 0.445801 0.028578
0.432220 0.445801 0.028578
0.558781 0.445801 0.028578
0.674345 0.445801 0.028578
0.767389 0.445801 0.028578
0.839122 0.445801 0.028578
0.892061 0.445801 0.028578
0.928997 0.445801 0.028578
0.954791 0.445801 0.028578
0.973358 0.445801 0.028578
0.987696 0.445801 0.028578
0.065887 0.571835 0.028578
0.091407 0.571835 0.028578
0.122253 0.571835 0.028578
0.163891 0.571835 0.028578
0.225248 0.571835 0.028578
0.315694 0.571835 0.028578
0.432220 0.571835 0.028578
0.558781 0.571835 0.028578
0.674345 0.571835 0.028578
0.767389 0.571835 0.028578
0.839122 0.571835 0.028578
0.892061 0.571835 0.028578
0.928997 0.571835 0.028578
0.954791 0.571835 0.028578
0.973358 0.571835 0.028578
0.987696 0.571835 0.028578
0.065887 0.686589 0.028578
0.091407 0.686589 0.028578
0.122253 0.686589 0.028578
0.163891 0.686589 0.028578
0.225248 0.686589 0.028578
0.315694 0.686589 0.028578
0.432220 0.686589 0.028578
0.558781 0.686589 0.028578
0.674345 0.686589 0.028578
0.767389 0.686589 0.028578
0.839122 0.686589 0.028578
0.892061 0.686589 0.028578
0.928997 0.686589 0.028578
0.954791 0.686589 0.028578
0.973358 0.686589 0.028578
0.987696 0.686589 0.028578
0.065887 0.782562 0.028578
0.091407 0.782562 0.028578
0.122253 0.782562 0.028578
0.163891 0.782562 0.028578
0.225248 0.782562 0.028578
0.315694 0.782562 0.028578
0.432220 0.782562 0.028578
0.558781 0.782562 0.028578
0.674345 0.782562 0.028578
0.767389 0.782562 0.028578
0.839122 0.782562 0.028578
0.892061 0.782562 0.028578
0.928997 0.782562 0.028578
0.954791 0.782562 0.028578
0.973358 0.782562 0.028578
0.987696 0.782562 0.028578
0.065887 0.857758 0.028578
0.091407 0.857758 0.028578
0.122253 0.857758 0.028578
0.163891 0.857758 0.028578
0.225248 0.857758 0.028578
0.315694 0.857758 0.028578
0.432220 0.857758 0.028578
0.558781 0.857758 0.028578
0.674345 0.857758 0.028578
0.767389 0.857758 0.028578
0.839122 0.857758 0.028578
0.892061 0.857758 0.028578
0.928997 0.857758 0.028578
0.954791 0.857758 0.028578
0.973358 0.857758 0.028578
0.987696 0.857758 0.028578
0.065887 0.911499 0.028578
0.091407 0.911499 0.028578
0.122253 0.911499 0.028578
0.163891 0.911499 0.028578
0.225248 0.911499 0.028578
0.315694 0.911499 0.028578
0.432220 0.911499 0.028578
0.558781 0.911499 0.028578
0.674345 0.911499 0.028578
0.767389 0.911499 0.028578
0.839122 0.911499 0.028578
0.892061 0.911499 0.028578
0.928997 0.911499 0.028578
0.954791 0.911499 0.028578
0.973358 0.911499 0.028578
0.987696 0.911499 0.028578
0.065887 0.946753 0.028578
0.091407 0.946753 0.028578
0.122253 0.946753 0.028578
0.163891 0.946753 0.028578
0.225248 0.946753 0.028578
0.315694 0.946753 0.028578
0.432220 0.946753 0.028578
0.558781 0.946753 0.028578
0.674345 0.946753 0.028578
0.767389 0.946753 0.028578
0.839122 0.946753 0.028578
0.892061 0.946753 0.028578
0.928997 0.946753 0.028578
0.954791 0.946753 0.028578
0.973358 0.946753 0.028578
0.987696 0.946753 0.028578
0.065887 0.970007 0.028578
0.091407 0.970007 0.028578
0.122253 0.970007 0.028578
0.163891 0.970007 0.028578
0.225248 0.970007 0.028578
0.315694 0.970007 0.028578
0.432220 0.970007 0.028578
0.558781 0.970007 0.028578
0.674345 0.970007 0.028578
0.767389 0.970007 0.028578
0.839122 0.970007 0.028578
0.892061 0.970007 0.028578
0.928997 0.970007 0.028578
0.954791 0.970007 0.028578
0.973358 0.970007 0.028578
0.987696 0.970007 0.028578
0.065887 0.986481 0.028578
0.091407 0.986481 0.028578
0.122253 0.986481 0.028578
0.163891 0.986481 0.028578
0.225248 0.986481 0.028578
0.315694 0.986481 0.028578
0.432220 0.986481 0.028578
0.558781 0.986481 0.028578
0.674345 0.986481 0.028578
0.767389 0.986481 0.028578
0.839122 0.986481 0.028578
0.892061 0.986481 0.028578
0.928997 0.986481 0.028578
0.954791 0.986481 0.028578
0.973358 0.986481 0.028578
0.987696 0.986481 0.028578
0.065887 0.999936 0.028578
0.091407 0.999936 0.028578
0.122253 0.999936 0.028578
0.163891 0.999936 0.028578
0.225248 0.999936 0.028578
0.315694 0.999936 0.028578
0.432220 0.999936 0.028578
0.558781 0.999936 0.028578
0.674345 0.999936 0.028578
0.767389 0.999936 0.028578
0.839122 0.999936 0.028578
0.892061 0.999936 0.028578
0.928997 0.999936 0.028578
0.954791 0.999936 0.028578
0.973358 0.999936 0.028578
0.987696 0.999936 0.028578
0.065887 0.012787 0.059359
0.091407 0.012787 0.059359
0.122253 0.012787 0.059359
0.163891 0.012787 0.059359
0.225248 0.012787 0.059359
0.315694 0.012787 0.059359
0.432220 0.012787 0.059359
0.558781 0.012787 0.059359
0.674345 0.012787 0.059359
0.767389 0.012787 0.059359
0.839122 0.012787 0.059359
0.892061 0.012787 0.059359
0.928997 0.012787 0.059359
0.954791 0.012787 0.059359
0.973358 0.012787 0.059359
0.987696 0.012787 0.059359
0.065887 0.014231 0.059359
0.091407 0.014231 0.059359
0.122253 0.014231 0.059359
0.163891 0.014231 0.059359
0.225248 0.014231 0.059359
0.315694 0.014231 0.059359
0.432220 0.014231 0.059359
0.558781 0.014231 0.059359
0.674345 0.014231 0.059359
0.767389 0.014231 0.059359
0.839122 0.014231 0.059359
0.892061 0.014231 0.059359
0.928997 0.014231 0.059359
0.954791 0.014231 0.059359
0.973358 0.014231 0.059359
0.987696 0.014231 0.059359
0.065887 0.062329 0.059359
0.091407 0.062329 0.059359
0.122253 0.062329 0.059359
0.163891 0.062329 0.059359
0.225248 0.062329 0.059359
0.315694 0.062329 0.059359
0.432220 0.062329 0.059359
0.558781 0.062329 0.059359
0.674345 0.062329 0.059359
0.767389 0.062329 0.059359
0.839122 0.062329 0.059359
0.892061 0.062329 0.059359
0.928997 0.062329 0.059359
0.954791 0.062329 0.059359
0.973358 0.062329 0.059359
0.987696 0.062329 0.059359
0.065887 0.127625 0.059359
0.091407 0.127625 0.059359
0.122253 0.127625 0.059359
0.163891 0.127625 0.059359
0.225248 0.127625 0.059359
0.315694 0.127625 0.059359
0.432220 0.127625 0.059359
0.558781 0.127625 0.059359
0.674345 0.127625 0.059359
0.767389 0.127625 0.059359
0.839122 0.127625 0.059359
0.892061 0.127625 0.059359
0.928997 0.127625 0.059359
0.954791 0.127625 0.059359
0.973358 0.127625 0.059359
0.987696 0.127625 0.059359
0.065887 0.212526 0.059359
0.091407 0.212526 0.059359
0.122253 0.212526 0.059359
0.163891 0.212526 0.059359
0.225248 0.212526 0.059359
0.315694 0.212526 0.059359
0.432220 0.212526 0.059359
0.558781 0.212526 0.059359
0.674345 0.212526 0.059359
0.767389 0.212526 0.059359
0.839122 0.212526 0.059359
0.892061 0.212526 0.059359
0.928997 0.212526 0.059359
0.954791 0.212526 0.059359
0.973358 0.212526 0.059359
0.987696 0.212526 0.059359
0.065887 0.321595 0.059359
0.091407 0.321595 0.059359
0.122253 0.321595 0.059359
0.163891 0.321595 0.059359
0.225248 0.321595 0.059359
0.315694 0.321595 0.059359
0.432220 0.321595 0.059359
0.558781 0.321595 0.059359
0.674345 0.321595 0.059359
0.767389 0.321595 0.059359
0.839122 0.321595 0.059359
0.892061 0.321595 0.059359
0.928997 0.321595 0.059359
0.954791 0.321595 0.059359
0.973358 0.321595 0.059359
0.987696 0.321595 0.059359
0.065887 0.445801 0.059359
0.091407 0.445801 0.059359
0.122253 0.445801 0.059359
0.163891 0.445801 0.059359
0.225248 0.445801 0.059359
0.315694 0.445801 0.059359
0.432220 0.445801 0.059359
0.558781 0.445801 0.059359
0.674345 0.445801 0.059359
0.767389 0.445801 0.059359
0.839122 0.445801 0.059359
0.892061 0.445801 0.059359
0.928997 0.445801 0.059359
0.954791 0.445801 0.059359
0.973358 0.445801 0.059359
0.987696 0.445801 0.059359
0.065887 0.571835 0.059359
0.091407 0.571835 0.059359
0.122253 0.571835 0.059359
0.163891 0.571835 0.059359
0.225248 0.571835 0.059359
0.315694 0.571835 0.059359
0.432220 0.571835 0.059359
0.558781 0.571835 0.059359
0.674345 0.571835 0.059359
0.767389 0.571835 0.059359
0.839122 0.571835 0.059359
0.892061 0.571835 0.059359
0.928997 0.571835 0.059359
0.954791 0.571835 0.059359
0.973358 0.571835 0.059359
0.987696 0.571835 0.059359
0.065887 0.686589 0.059359
0.091407 0.686589 0.059359
0.122253 0.686589 0.059359
0.163891 0.686589 0.059359
0.225248 0.686589 0.059359
0.315694 0.686589 0.059359
0.432220 0.686589 0.059359
0.558781 0.686589 0.059359
0.674345 0.686589 0.059359
0.767389 0.686589 0.059359
0.839122 0.686589 0.059359
0.892061 0.686589 0.059359
0.928997 0.686589 0.059359
0.954791 0.686589 0.059359
0.973358 0.686589 0.059359
0.987696 0.686589 0.059359
0.065887 0.782562 0.059359
0.091407 0.782562 0.059359
0.122253 0.782562 0.059359
0.163891 0.782562 0.059359
0.225248 0.782562 0.059359
0.315694 0.782562 0.059359
0.432220 0.782562 0.059359
0.558781 0.782562 0.059359
0.674345 0.782562 0.059359
0.767389 0.782562 0.059359
0.839122 0.782562 0.059359
0.892061 0.782562 0.059359
0.928997 0.782562 0.059359
0.954791 0.782562 0.059359
0.973358 0.782562 0.059359
0.987696 0.782562 0.059359
0.065887 0.857758 0.059359
0.091407 0.857758 0.059359
0.122253 0.857758 0.059359
0.163891 0.857758 0.059359
0.225248 0.857758 0.059359
0.315694 0.857758 0.059359
0.432220 0.857758 0.059359
0.558781 0.857758 0.059359
0.674345 0.857758 0.059359
0.767389 0.857758 0.059359
0.839122 0.857758 0.059359
0.892061 0.857758 0.059359
0.928997 0.857758 0.059359
0.954791 0.857758 0.059359
0.973358 0.857758 0.059359
0.987696 0.857758 0.059359
0.065887 0.911499 0.059359
0.091407 0.911499 0.059359
0.122253 0.911499 0.059359
0.163891 0.911499 0.059359
0.225248 0.911499 0.059359
0.315694 0.911499 0.059359
0.432220 0.911499 0.059359
0.558781 0.911499 0.059359
0.674345 0.911499 0.059359
0.767389 0.911499 0.059359
0.839122 0.911499 0.059359
0.892061 0.911499 0.059359
0.928997 0.911499 0.059359
0.954791 0.911499 0.059359
0.973358 0.911499 0.059359
0.987696 0.911499 0.059359
0.065887 0.946753 0.059359
0.091407 0.946753 0.059359
0.122253 0.946753 0.059359
0.163891 0.946753 0.059359
0.225248 0.946753 0.059359
0.315694 0.946753 0.059359
0.432220 0.946753 0.059359
0.558781 0.946753 0.059359
0.674345 0.946753 0.059359
0.767389 0.946753 0.059359
0.839122 0.946753 0.059359
0.892061 0.946753 0.059359
0.928997 0.946753 0.059359
0.954791 0.946753 0.059359
0.973358 0.946753 0.059359
0.987696 0.946753 0.059359
0.065887 0.970007 0.059359
0.091407 0.970007 0.059359
0.122253 0.970007 0.059359
0.163891 0.970007 0.059359
0.225248 0.970007 0.059359
0.315694 0.970007 0.059359
0.432220 0.970007 0.059359
0.558781 0.970007 0.059359
0.674345 0.970007 0.059359
0.767389 0.970007 0.059359
0.839122 0.970007 0.059359
0.892061 0.970007 0.059359
0.928997 0.970007 0.059359
0.954791 0.970007 0.059359
0.973358 0.970007 0.059359
0.987696 0.970007 0.059359
0.065887 0.986481 0.059359
0.091407 0.986481 0.059359
0.122253 0.986481 0.059359
0.163891 0.986481 0.059359
0.225248 0.986481 0.059359
0.315694 0.986481 0.059359
0.432220 0.986481 0.059359
0.558781 0.986481 0.059359
0.674345 0.986481 0.059359
0.767389 0.986481 0.059359
0.839122 0.986481 0.059359
0.892061 0.986481 0.059359
0.928997 0.986481 0.059359
0.954791 0.986481 0.059359
0.973358 0.986481 0.059359
0.987696 0.986481 0.059359
0.065887 0.999936 0.059359
0.091407 0.999936 0.059359
0.122253 0.999936 0.059359
0.163891 0.999936 0.059359
0.225248 0.999936 0.059359
0.315694 0.999936 0.059359
0.432220 0.999936 0.059359
0.558781 0.999936 0.059359
0.674345 0.999936 0.059359
0.767389 0.999936 0.059359
0.839122 0.999936 0.059359
0.892061 0.999936 0.059359
0.928997 0.999936 0.059359
0.954791 0.999936 0.059359
0.973358 0.999936 0.059359
0.987696 0.999936 0.059359
0.065887 0.012787 0.095093
0.091407 0.012787 0.095093
0.122253 0.012787 0.095093
0.163891 0.012787 0.095093
0.225248 0.012787 0.095093
0.315694 0.012787 0.095093
0.432220 0.012787 0.095093
0.558781 0.012787 0.095093
0.674345 0.012787 0.095093
0.767389 0.012787 0.095093
0.839122 0.012787 0.095093
0.892061 0.012787 0.095093
0.928997 0.012787 0.095093
0.954791 0.012787 0.095093
0.973358 0.012787 0.095093
0.987696 0.012787 0.095093
0.065887 0.014231 0.095093
0.091407 0.014231 0.095093
0.122253 0.014231 0.095093
0.163891 0.014231 0.095093
0.225248 0.014231 0.095093
0.315694 0.014231 0.095093
0.432220 0.014231 0.095093
0.558781 0.014231 0.095093
0.674345 0.014231 0.095093
0.767389 0.014231 0.095093
0.839122 0.014231 0.095093
0.892061 0.014231 0.095093
0.928997 0.014231 0.095093
0.954791 0.014231 0.095093
0.973358 0.014231 0.095093
0.987696 0.014231 0.095093
0.065887 0.062329 0.095093
0.091407 0.062329 0.095093
0.122253 0.062329 0.095093
0.163891 0.062329 0.095093
0.225248 0.062329 0.095093
0.315694 0.062329 0.095093
0.432220 0.062329 0.095093
0.558781 0.062329 0.095093
0.674345 0.062329 0.095093
0.767389 0.062329 0.095093
0.839122 0.062329 0.095093
0.892061 0.062329 0.095093
0.928997 0.062329 0.095093
0.954791 0.062329 0.095093
0.973358 0.062329 0.095093
0.987696 0.062329 0.095093
0.065887 0.127625 0.095093
0.091407 0.127625 0.095093
0.122253 0.127625 0.095093
0.163891 0.127625 0.095093
0.225248 0.127625 0.095093
0.315694 0.127625 0.095093
0.432220 0.127625 0.095093
0.558781 0.127625 0.095093
0.674345 0.127625 0.095093
0.767389 0.127625 0.095093
0.839122 0.127625 0.095093
0.892061 0.127625 0.095093
0.928997 0.127625 0.095093
0.954791 0.127625 0.095093
0.973358 0.127625 0.095093
0.987696 0.127625 0.095093
0.065887 0.212526 0.095093
0.091407 0.212526 0.095093
0.122253 0.212526 0.095093
0.163891 0.212526 0.095093
0.225248 0.212526 0.095093
0.315694 0.212526 0.095093
0.432220 0.212526 0.095093
0.558781 0.212526 0.095093
0.674345 0.212526 0.095093
0.767389 0.212526 0.095093
0.839122 0.212526 0.095093
0.892061 0.212526 0.095093
0.928997 0.212526 0.095093
0.954791 0.212526 0.095093
0.973358 0.212526 0.095093
0.987696 0.212526 0.095093
0.065887 0.321595 0.095093
0.091407 0.321595 0.095093
0.122253 0.321595 0.095093
0.163891 0.321595 0.095093
0.225248 0.321595 0.095093
0.315694 0.321595 0.095093
0.432220 0.321595 0.095093
0.558781 0.321595 0.095093
0.674345 0.321595 0.095093
0.767389 0.321595 0.095093
0.839122 0.321595 0.095093
0.892061 0.321595 0.095093
0.928997 0.321595 0.095093
0.954791 0.321595 0.095093
0.973358 0.321595 0.095093
0.987696 0.321595 0.095093
0.065887 0.445801 0.095093
0.091407 0.445801 0.095093
0.122253 0.445801 0.095093
0.163891 0.445801 0.095093
0.225248 0.445801 0.095093
0.315694 0.445801 0.095093
0.432220 0.445801 0.095093
0.558781 0.445801 0.095093
0.674345 0.445801 0.095093
0.767389 0.445801 0.095093
0.839122 0.445801 0.095093
0.892061 0.445801 0.095093
0.928997 0.445801 0.095093
0.954791 0.445801 0.095093
0.973358 0.445801 0.095093
0.987696 0.445801 0.095093
0.065887 0.571835 0.095093
0.091407 0.571835 0.095093
0.122253 0.571835 0.095093
0.163891 0.571835 0.095093
0.225248 0.571835 0.095093
0.315694 0.571835 0.095093
0.432220 0.571835 0.095093
0.558781 0.571835 0.095093
