Assets/LUTs/Ludwig.cube
LUT_3D_SIZE 6
0.065887 0.012787 0.000000
0.163891 0.012787 0.000000
0.432220 0.012787 0.000000
0.767389 0.012787 0.000000
0.928997 0.012787 0.000000
0.987696 0.012787 0.000000
0.065887 0.127625 0.000000
0.163891 0.127625 0.000000
0.432220 0.127625 0.000000
0.767389 0.127625 0.000000
0.928997 0.127625 0.000000
0.987696 0.127625 0.000000
0.065887 0.445801 0.000000
0.163891 0.445801 0.000000
0.432220 0.445801 0.000000
0.767389 0.445801 0.000000
0.928997 0.445801 0.000000
0.987696 0.445801 0.000000
0.065887 0.782562 0.000000
0.163891 0.782562 0.000000
0.432220 0.782562 0.000000
0.767389 0.782562 0.000000
0.928997 0.782562 0.000000
0.987696 0.782562 0.000000
0.065887 0.946753 0.000000
0.163891 0.946753 0.000000
0.432220 0.946753 0.000000
0.767389 0.946753 0.000000
0.928997 0.946753 0.000000
0.987696 0.946753 0.000000
0.065887 0.999936 0.000000
0.163891 0.999936 0.000000
0.432220 0.999936 0.000000
0.767389 0.999936 0.000000
0.928997 0.999936 0.000000
0.987696 0.999936 0.000000
0.065887 0.012787 0.095093
0.163891 0.012787 0.095093
0.432220 0.012787 0.095093
0.767389 0.012787 0.095093
0.928997 0.012787 0.095093
0.987696 0.012787 0.095093
0.065887 0.127625 0.095093
0.163891 0.127625 0.095093
0.432220 0.127625 0.095093
0.767389 0.127625 0.095093
0.928997 0.127625 0.095093
0.987696 0.127625 0.095093
0.065887 0.445801 0.095093
0.163891 0.445801 0.095093
0.432220 0.445801 0.095093
0.767389 0.445801 0.095093
0.928997 0.445801 0.095093
0.987696 0.445801 0.095093
0.065887 0.782562 0.095093
0.163891 0.782562 0.095093
0.432220 0.782562 0.095093
0.767389 0.782562 0.095093
0.928997 0.782562 0.095093
0.987696 0.782562 0.095093
0.065887 0.946753 0.095093
0.163891 0.946753 0.095093
0.432220 0.946753 0.095093
0.767389 0.946753 0.095093
0.928997 0.946753 0.095093
0.987696 0.946753 0.095093
0.065887 0.999936 0.095093
0.163891 0.999936 0.095093
0.432220 0.999936 0.095093
0.767389 0.999936 0.095093
0.928997 0.999936 0.095093
0.987696 0.999936 0.095093
0.065887 0.012787 0.284527
0.163891 0.012787 0.284527
0.432220 0.012787 0.284527
0.767389 0.012787 0.284527
0.928997 0.012787 0.284527
0.987696 0.012787 0.284527
0.065887 0.127625 0.284527
0.163891 0.127625 0.284527
0.432220 0.127625 0.284527
0.767389 0.127625 0.284527
0.928997 0.127625 0.284527
0.987696 0.127625 0.284527
0.065887 0.445801 0.284527
0.163891 0.445801 0.284527
0.432220 0.445801 0.284527
0.767389 0.445801 0.284527
0.928997 0.445801 0.284527
0.987696 0.445801 0.284527
0.065887 0.782562 0.284527
0.163891 0.782562 0.284527
0.432220 0.782562 0.284527
0.767389 0.782562 0.284527
0.928997 0.782562 0.284527
0.987696 0.782562 0.284527
0.065887 0.946753 0.284527
0.163891 0.946753 0.284527
0.432220 0.946753 0.284527
0.767389 0.946753 0.284527
0.928997 0.946753 0.284527
0.987696 0.946753 0.284527
0.065887 0.999936 0.284527
0.163891 0.999936 0.284527
0.432220 0.999936 0.284527
0.767389 0.999936 0.284527
0.928997 0.999936 0.284527
0.987696 0.999936 0.284527
0.065887 0.012787 0.665484
0.163891 0.012787 0.665484
0.432220 0.012787 0.665484
0.767389 0.012787 0.665484
0.928997 0.012787 0.665484
0.987696 0.012787 0.665484
0.065887 0.127625 0.665484
0.163891 0.127625 0.665484
0.432220 0.127625 0.665484
0.767389 0.127625 0.665484
0.928997 0.127625 0.665484
0.987696 0.127625 0.665484
0.065887 0.445801 0.665484
0.163891 0.445801 0.665484
0.432220 0.445801 0.665484
0.767389 0.445801 0.665484
0.928997 0.445801 0.665484
0.987696 0.445801 0.665484
0.065887 0.782562 0.665484
0.163891 0.782562 0.665484
0.432220 0.782562 0.665484
0.767389 0.782562 0.665484
0.928997 0.782562 0.665484
0.987696 0.782562 0.665484
0.065887 0.946753 0.665484
0.163891 0.946753 0.665484
0.432220 0.946753 0.665484
0.767389 0.946753 0.665484
0.928997 0.946753 0.665484
0.987696 0.946753 0.665484
0.065887 0.999936 0.665484
0.163891 0.999936 0.665484
0.432220 0.999936 0.665484
0.767389 0.999936 0.665484
0.928997 0.999936 0.665484
0.987696 0.999936 0.665484
0.065887 0.012787 0.929773
0.163891 0.012787 0.929773
0.432220 0.012787 0.929773
0.767389 0.012787 0.929773
0.928997 0.012787 0.929773
0.987696 0.012787 0.929773
0.065887 0.127625 0.929773
0.163891 0.127625 0.929773
0.432220 0.127625 0.929773
0.767389 0.127625 0.929773
0.928997 0.127625 0.929773
0.987696 0.127625 0.929773
0.065887 0.445801 0.929773
0.163891 0.445801 0.929773
0.432220 0.445801 0.929773
0.767389 0.445801 0.929773
0.928997 0.445801 0.929773
0.987696 0.445801 0.929773
0.065887 0.782562 0.929773
0.163891 0.782562 0.929773
0.432220 0.782562 0.929773
0.767389 0.782562 0.929773
0.928997 0.782562 0.929773
0.987696 0.782562 0.929773
0.065887 0.946753 0.929773
0.163891 0.946753 0.929773
0.432220 0.946753 0.929773
0.767389 0.946753 0.929773
0.928997 0.946753 0.929773
0.987696 0.946753 0.929773
0.065887 0.999936 0.929773
0.163891 0.999936 0.929773
0.432220 0.999936 0.929773
0.767389 0.999936 0.929773
0.928997 0.999936 0.929773
0.987696 0.999936 0.929773
0.065887 0.012787 0.999925
0.163891 0.012787 0.999925
0.432220 0.012787 0.999925
0.767389 0.012787 0.999925
0.928997 0.012787 0.999925
0.987696 0.012787 0.999925
0.065887 0.127625 0.999925
0.163891 0.127625 0.999925
0.432220 0.127625 0.999925
0.767389 0.127625 0.999925
0.928997 0.127625 0.999925
0.987696 0.127625 0.999925
0.065887 0.445801 0.999925
0.163891 0.445801 0.999925
0.432220 0.445801 0.999925
0.767389 0.445801 0.999925
0.928997 0.445801 0.999925
0.987696 0.445801 0.999925
0.065887 0.782562 0.999925
0.163891 0.782562 0.999925
0.432220 0.782562 0.999925
0.767389 0.782562 0.999925
0.928997 0.782562 0.999925
0.987696 0.782562 0.999925
0.065887 0.946753 0.999925
0.163891 0.946753 0.999925
0.432220 0.946753 0.999925
0.767389 0.946753 0.999925
0.928997 0.946753 0.999925
0.987696 0.946753 0.999925
0.065887 0.999936 0.999925
0.163891 0.999936 0.999925
0.432220 0.999936 0.999925
0.767389 0.999936 0.999925
0.928997 0.999936 0.999925
0.987696 0.999936 0.999925
