Assets/LUTs/Nashville.cube
LUT_3D_SIZE 6
0.000000 0.000000 0.195862
0.075805 0.000000 0.195862
0.459570 0.000000 0.195862
0.701746 0.000000 0.195862
0.864087 0.000000 0.195862
0.999787 0.000000 0.195862
0.000000 0.236377 0.195862
0.075805 0.236377 0.195862
0.459570 0.236377 0.195862
0.701746 0.236377 0.195862
0.864087 0.236377 0.195862
0.999787 0.236377 0.195862
0.000000 0.448377 0.195862
0.075805 0.448377 0.195862
0.459570 0.448377 0.195862
0.701746 0.448377 0.195862
0.864087 0.448377 0.195862
0.999787 0.448377 0.195862
0.000000 0.629120 0.195862
0.075805 0.629120 0.195862
0.459570 0.629120 0.195862
0.701746 0.629120 0.195862
0.864087 0.629120 0.195862
0.999787 0.629120 0.195862
0.000000 0.805261 0.195862
0.075805 0.805261 0.195862
0.459570 0.805261 0.195862
0.701746 0.805261 0.195862
0.864087 0.805261 0.195862
0.999787 0.805261 0.195862
0.000000 0.903214 0.195862
0.075805 0.903214 0.195862
0.459570 0.903214 0.195862
0.701746 0.903214 0.195862
0.864087 0.903214 0.195862
0.999787 0.903214 0.195862
0.000000 0.000000 0.315826
0.075805 0.000000 0.315826
0.459570 0.000000 0.315826
0.701746 0.000000 0.315826
0.864087 0.000000 0.315826
0.999787 0.000000 0.315826
0.000000 0.236377 0.315826
0.075805 0.236377 0.315826
0.459570 0.236377 0.315826
0.701746 0.236377 0.315826
0.864087 0.236377 0.315826
0.999787 0.236377 0.315826
0.000000 0.448377 0.315826
0.075805 0.448377 0.315826
0.459570 0.448377 0.315826
0.701746 0.448377 0.315826
0.864087 0.448377 0.315826
0.999787 0.448377 0.315826
0.000000 0.629120 0.315826
0.075805 0.629120 0.315826
0.459570 0.629120 0.315826
0.701746 0.629120 0.315826
0.864087 0.629120 0.315826
0.999787 0.629120 0.315826
0.000000 0.805261 0.315826
0.075805 0.805261 0.315826
0.459570 0.805261 0.315826
0.701746 0.805261 0.315826
0.864087 0.805261 0.315826
0.999787 0.805261 0.315826
0.000000 0.903214 0.315826
0.075805 0.903214 0.315826
0.459570 0.903214 0.315826
0.701746 0.903214 0.315826
0.864087 0.903214 0.315826
0.999787 0.903214 0.315826
0.000000 0.000000 0.435608
0.075805 0.000000 0.435608
0.459570 0.000000 0.435608
0.701746 0.000000 0.435608
0.864087 0.000000 0.435608
0.999787 0.000000 0.435608
0.000000 0.236377 0.435608
0.075805 0.236377 0.435608
0.459570 0.236377 0.435608
0.701746 0.236377 0.435608
0.864087 0.236377 0.435608
0.999787 0.236377 0.435608
0.000000 0.448377 0.435608
0.075805 0.448377 0.435608
0.459570 0.448377 0.435608
0.701746 0.448377 0.435608
0.864087 0.448377 0.435608
0.999787 0.448377 0.435608
0.000000 0.629120 0.435608
0.075805 0.629120 0.435608
0.459570 0.629120 0.435608
0.701746 0.629120 0.435608
0.864087 0.629120 0.435608
0.999787 0.629120 0.435608
0.000000 0.805261 0.435608
0.075805 0.805261 0.435608
0.459570 0.805261 0.435608
0.701746 0.805261 0.435608
0.864087 0.805261 0.435608
0.999787 0.805261 0.435608
0.000000 0.903214 0.435608
0.075805 0.903214 0.435608
0.459570 0.903214 0.435608
0.701746 0.903214 0.435608
0.864087 0.903214 0.435608
0.999787 0.903214 0.435608
0.000000 0.000000 0.562415
0.075805 0.000000 0.562415
0.459570 0.000000 0.562415
0.701746 0.000000 0.562415
0.864087 0.000000 0.562415
0.999787 0.000000 0.562415
0.000000 0.236377 0.562415
0.075805 0.236377 0.562415
0.459570 0.236377 0.562415
0.701746 0.236377 0.562415
0.864087 0.236377 0.562415
0.999787 0.236377 0.562415
0.000000 0.448377 0.562415
0.075805 0.448377 0.562415
0.459570 0.448377 0.562415
0.701746 0.448377 0.562415
0.864087 0.448377 0.562415
0.999787 0.448377 0.562415
0.000000 0.629120 0.562415
0.075805 0.629120 0.562415
0.459570 0.629120 0.562415
0.701746 0.629120 0.562415
0.864087 0.629120 0.562415
0.999787 0.629120 0.562415
0.000000 0.805261 0.562415
0.075805 0.805261 0.562415
0.459570 0.805261 0.562415
0.701746 0.805261 0.562415
0.864087 0.805261 0.562415
0.999787 0.805261 0.562415
0.000000 0.903214 0.562415
0.075805 0.903214 0.562415
0.459570 0.903214 0.562415
0.701746 0.903214 0.562415
0.864087 0.903214 0.562415
0.999787 0.903214 0.562415
0.000000 0.000000 0.692059
0.075805 0.000000 0.692059
0.459570 0.000000 0.692059
0.701746 0.000000 0.692059
0.864087 0.000000 0.692059
0.999787 0.000000 0.692059
0.000000 0.236377 0.692059
0.075805 0.236377 0.692059
0.459570 0.236377 0.692059
0.701746 0.236377 0.692059
0.864087 0.236377 0.692059
0.999787 0.236377 0.692059
0.000000 0.448377 0.692059
0.075805 0.448377 0.692059
0.459570 0.448377 0.692059
0.701746 0.448377 0.692059
0.864087 0.448377 0.692059
0.999787 0.448377 0.692059
0.000000 0.629120 0.692059
0.075805 0.629120 0.692059
0.459570 0.629120 0.692059
0.701746 0.629120 0.692059
0.864087 0.629120 0.692059
0.999787 0.629120 0.692059
0.000000 0.805261 0.692059
0.075805 0.805261 0.692059
0.459570 0.805261 0.692059
0.701746 0.805261 0.692059
0.864087 0.805261 0.692059
0.999787 0.805261 0.692059
0.000000 0.903214 0.692059
0.075805 0.903214 0.692059
0.459570 0.903214 0.692059
0.701746 0.903214 0.692059
0.864087 0.903214 0.692059
0.999787 0.903214 0.692059
0.000000 0.000000 0.819529
0.075805 0.000000 0.819529
0.459570 0.000000 0.819529
0.701746 0.000000 0.819529
0.864087 0.000000 0.819529
0.999787 0.000000 0.819529
0.000000 0.236377 0.819529
0.075805 0.236377 0.819529
0.459570 0.236377 0.819529
0.701746 0.236377 0.819529
0.864087 0.236377 0.819529
0.999787 0.236377 0.819529
0.000000 0.448377 0.819529
0.075805 0.448377 0.819529
0.459570 0.448377 0.819529
0.701746 0.448377 0.819529
0.864087 0.448377 0.819529
0.999787 0.448377 0.819529
0.000000 0.629120 0.819529
0.075805 0.629120 0.819529
0.459570 0.629120 0.819529
0.701746 0.629120 0.819529
0.864087 0.629120 0.819529
0.999787 0.629120 0.819529
0.000000 0.805261 0.819529
0.075805 0.805261 0.819529
0.459570 0.805261 0.819529
0.701746 0.805261 0.819529
0.864087 0.805261 0.819529
0.999787 0.805261 0.819529
0.000000 0.903214 0.819529
0.075805 0.903214 0.819529
0.459570 0.903214 0.819529
0.701746 0.903214 0.819529
0.864087 0.903214 0.819529
0.999787 0.903214 0.819529
