Assets/LUTs/Nashville.cube
LUT_3D_SIZE 16
0.000000 0.000000 0.195862
0.023092 0.000000 0.195862
0.046706 0.000000 0.195862
0.075805 0.000000 0.195862
0.145601 0.000000 0.195862
0.323405 0.000000 0.195862
0.459570 0.000000 0.195862
0.555792 0.000000 0.195862
0.634546 0.000000 0.195862
0.701746 0.000000 0.195862
0.760926 0.000000 0.195862
0.814525 0.000000 0.195862
0.864087 0.000000 0.195862
0.910905 0.000000 0.195862
0.955898 0.000000 0.195862
0.999787 0.000000 0.195862
0.000000 0.020579 0.195862
0.023092 0.020579 0.195862
0.046706 0.020579 0.195862
0.075805 0.020579 0.195862
0.145601 0.020579 0.195862
0.323405 0.020579 0.195862
0.459570 0.020579 0.195862
0.555792 0.020579 0.195862
0.634546 0.020579 0.195862
0.701746 0.020579 0.195862
0.760926 0.020579 0.195862
0.814525 0.020579 0.195862
0.864087 0.020579 0.195862
0.910905 0.020579 0.195862
0.955898 0.020579 0.195862
0.999787 0.020579 0.195862
0.000000 0.091604 0.195862
0.023092 0.091604 0.195862
0.046706 0.091604 0.195862
0.075805 0.091604 0.195862
0.145601 0.091604 0.195862
0.323405 0.091604 0.195862
0.459570 0.091604 0.195862
0.555792 0.091604 0.195862
0.634546 0.091604 0.195862
0.701746 0.091604 0.195862
0.760926 0.091604 0.195862
0.814525 0.091604 0.195862
0.864087 0.091604 0.195862
0.910905 0.091604 0.195862
0.955898 0.091604 0.195862
0.999787 0.091604 0.195862
0.000000 0.236377 0.195862
0.023092 0.236377 0.195862
0.046706 0.236377 0.195862
0.075805 0.236377 0.195862
0.145601 0.236377 0.195862
0.323405 0.236377 0.195862
0.459570 0.236377 0.195862
0.555792 0.236377 0.195862
0.634546 0.236377 0.195862
0.701746 0.236377 0.195862
0.760926 0.236377 0.195862
0.814525 0.236377 0.195862
0.864087 0.236377 0.195862
0.910905 0.236377 0.195862
0.955898 0.236377 0.195862
0.999787 0.236377 0.195862
0.000000 0.331869 0.195862
0.023092 0.331869 0.195862
0.046706 0.331869 0.195862
0.075805 0.331869 0.195862
0.145601 0.331869 0.195862
0.323405 0.331869 0.195862
0.459570 0.331869 0.195862
0.555792 0.331869 0.195862
0.634546 0.331869 0.195862
0.701746 0.331869 0.195862
0.760926 0.331869 0.195862
0.814525 0.331869 0.195862
0.864087 0.331869 0.195862
0.910905 0.331869 0.195862
0.955898 0.331869 0.195862
0.999787 0.331869 0.195862
0.000000 0.395844 0.195862
0.023092 0.395844 0.195862
0.046706 0.395844 0.195862
0.075805 0.395844 0.195862
0.145601 0.395844 0.195862
0.323405 0.395844 0.195862
0.459570 0.395844 0.195862
0.555792 0.395844 0.195862
0.634546 0.395844 0.195862
0.701746 0.395844 0.195862
0.760926 0.395844 0.195862
0.814525 0.395844 0.195862
0.864087 0.395844 0.195862
0.910905 0.395844 0.195862
0.955898 0.395844 0.195862
0.999787 0.395844 0.195862
0.000000 0.448377 0.195862
0.023092 0.448377 0.195862
0.046706 0.448377 0.195862
0.075805 0.448377 0.195862
0.145601 0.448377 0.195862
0.323405 0.448377 0.195862
0.459570 0.448377 0.195862
0.555792 0.448377 0.195862
0.634546 0.448377 0.195862
0.701746 0.448377 0.195862
0.760926 0.448377 0.195862
0.814525 0.448377 0.195862
0.864087 0.448377 0.195862
0.910905 0.448377 0.195862
0.955898 0.448377 0.195862
0.999787 0.448377 0.195862
0.000000 0.500340 0.195862
0.023092 0.500340 0.195862
0.046706 0.500340 0.195862
0.075805 0.500340 0.195862
0.145601 0.500340 0.195862
0.323405 0.500340 0.195862
0.459570 0.500340 0.195862
0.555792 0.500340 0.195862
0.634546 0.500340 0.195862
0.701746 0.500340 0.195862
0.760926 0.500340 0.195862
0.814525 0.500340 0.195862
0.864087 0.500340 0.195862
0.910905 0.500340 0.195862
0.955898 0.500340 0.195862
0.999787 0.500340 0.195862
0.000000 0.560242 0.195862
0.023092 0.560242 0.195862
0.046706 0.560242 0.195862
0.075805 0.560242 0.195862
0.145601 0.560242 0.195862
0.323405 0.560242 0.195862
0.459570 0.560242 0.195862
0.555792 0.560242 0.195862
0.634546 0.560242 0.195862
0.701746 0.560242 0.195862
0.760926 0.560242 0.195862
0.814525 0.560242 0.195862
0.864087 0.560242 0.195862
0.910905 0.560242 0.195862
0.955898 0.560242 0.195862
0.999787 0.560242 0.195862
0.000000 0.629120 0.195862
0.023092 0.629120 0.195862
0.046706 0.629120 0.195862
0.075805 0.629120 0.195862
0.145601 0.629120 0.195862
0.323405 0.629120 0.195862
0.459570 0.629120 0.195862
0.555792 0.629120 0.195862
0.634546 0.629120 0.195862
0.701746 0.629120 0.195862
0.760926 0.629120 0.195862
0.814525 0.629120 0.195862
0.864087 0.629120 0.195862
0.910905 0.629120 0.195862
0.955898 0.629120 0.195862
0.999787 0.629120 0.195862
0.000000 0.698497 0.195862
0.023092 0.698497 0.195862
0.046706 0.698497 0.195862
0.075805 0.698497 0.195862
0.145601 0.698497 0.195862
0.323405 0.698497 0.195862
0.459570 0.698497 0.195862
0.555792 0.698497 0.195862
0.634546 0.698497 0.195862
0.701746 0.698497 0.195862
0.760926 0.698497 0.195862
0.814525 0.698497 0.195862
0.864087 0.698497 0.195862
0.910905 0.698497 0.195862
0.955898 0.698497 0.195862
0.999787 0.698497 0.195862
0.000000 0.758500 0.195862
0.023092 0.758500 0.195862
0.046706 0.758500 0.195862
0.075805 0.758500 0.195862
0.145601 0.758500 0.195862
0.323405 0.758500 0.195862
0.459570 0.758500 0.195862
0.555792 0.758500 0.195862
0.634546 0.758500 0.195862
0.701746 0.758500 0.195862
0.760926 0.758500 0.195862
0.814525 0.758500 0.195862
0.864087 0.758500 0.195862
0.910905 0.758500 0.195862
0.955898 0.758500 0.195862
0.999787 0.758500 0.195862
0.000000 0.805261 0.195862
0.023092 0.805261 0.195862
0.046706 0.805261 0.195862
0.075805 0.805261 0.195862
0.145601 0.805261 0.195862
0.323405 0.805261 0.195862
0.459570 0.805261 0.195862
0.555792 0.805261 0.195862
0.634546 0.805261 0.195862
0.701746 0.805261 0.195862
0.760926 0.805261 0.195862
0.814525 0.805261 0.195862
0.864087 0.805261 0.195862
0.910905 0.805261 0.195862
0.955898 0.805261 0.195862
0.999787 0.805261 0.195862
0.000000 0.842652 0.195862
0.023092 0.842652 0.195862
0.046706 0.842652 0.195862
0.075805 0.842652 0.195862
0.145601 0.842652 0.195862
0.323405 0.842652 0.195862
0.459570 0.842652 0.195862
0.555792 0.842652 0.195862
0.634546 0.842652 0.195862
0.701746 0.842652 0.195862
0.760926 0.842652 0.195862
0.814525 0.842652 0.195862
0.864087 0.842652 0.195862
0.910905 0.842652 0.195862
0.955898 0.842652 0.195862
0.999787 0.842652 0.195862
0.000000 0.874471 0.195862
0.023092 0.874471 0.195862
0.046706 0.874471 0.195862
0.075805 0.874471 0.195862
0.145601 0.874471 0.195862
0.323405 0.874471 0.195862
0.459570 0.874471 0.195862
0.555792 0.874471 0.195862
0.634546 0.874471 0.195862
0.701746 0.874471 0.195862
0.760926 0.874471 0.195862
0.814525 0.874471 0.195862
0.864087 0.874471 0.195862
0.910905 0.874471 0.195862
0.955898 0.874471 0.195862
0.999787 0.874471 0.195862
0.000000 0.903214 0.195862
0.023092 0.903214 0.195862
0.046706 0.903214 0.195862
0.075805 0.903214 0.195862
0.145601 0.903214 0.195862
0.323405 0.903214 0.195862
0.459570 0.903214 0.195862
0.555792 0.903214 0.195862
0.634546 0.903214 0.195862
0.701746 0.903214 0.195862
0.760926 0.903214 0.195862
0.814525 0.903214 0.195862
0.864087 0.903214 0.195862
0.910905 0.903214 0.195862
0.955898 0.903214 0.195862
0.999787 0.903214 0.195862
0.000000 0.000000 0.236558
0.023092 0.000000 0.236558
0.046706 0.000000 0.236558
0.075805 0.000000 0.236558
0.145601 0.000000 0.236558
0.323405 0.000000 0.236558
0.459570 0.000000 0.236558
0.555792 0.000000 0.236558
0.634546 0.000000 0.236558
0.701746 0.000000 0.236558
0.760926 0.000000 0.236558
0.814525 0.000000 0.236558
0.864087 0.000000 0.236558
0.910905 0.000000 0.236558
0.955898 0.000000 0.236558
0.999787 0.000000 0.236558
0.000000 0.020579 0.236558
0.023092 0.020579 0.236558
0.046706 0.020579 0.236558
0.075805 0.020579 0.236558
0.145601 0.020579 0.236558
0.323405 0.020579 0.236558
0.459570 0.020579 0.236558
0.555792 0.020579 0.236558
0.634546 0.020579 0.236558
0.701746 0.020579 0.236558
0.760926 0.020579 0.236558
0.814525 0.020579 0.236558
0.864087 0.020579 0.236558
0.910905 0.020579 0.236558
0.955898 0.020579 0.236558
0.999787 0.020579 0.236558
0.000000 0.091604 0.236558
0.023092 0.091604 0.236558
0.046706 0.091604 0.236558
0.075805 0.091604 0.236558
0.145601 0.091604 0.236558
0.323405 0.091604 0.236558
0.459570 0.091604 0.236558
0.555792 0.091604 0.236558
0.634546 0.091604 0.236558
0.701746 0.091604 0.236558
0.760926 0.091604 0.236558
0.814525 0.091604 0.236558
0.864087 0.091604 0.236558
0.910905 0.091604 0.236558
0.955898 0.091604 0.236558
0.999787 0.091604 0.236558
0.000000 0.236377 0.236558
0.023092 0.236377 0.236558
0.046706 0.236377 0.236558
0.075805 0.236377 0.236558
0.145601 0.236377 0.236558
0.323405 0.236377 0.236558
0.459570 0.236377 0.236558
0.555792 0.236377 0.236558
0.634546 0.236377 0.236558
0.701746 0.236377 0.236558
0.760926 0.236377 0.236558
0.814525 0.236377 0.236558
0.864087 0.236377 0.236558
0.910905 0.236377 0.236558
0.955898 0.236377 0.236558
0.999787 0.236377 0.236558
0.000000 0.331869 0.236558
0.023092 0.331869 0.236558
0.046706 0.331869 0.236558
0.075805 0.331869 0.236558
0.145601 0.331869 0.236558
0.323405 0.331869 0.236558
0.459570 0.331869 0.236558
0.555792 0.331869 0.236558
0.634546 0.331869 0.236558
0.701746 0.331869 0.236558
0.760926 0.331869 0.236558
0.814525 0.331869 0.236558
0.864087 0.331869 0.236558
0.910905 0.331869 0.236558
0.955898 0.331869 0.236558
0.999787 0.331869 0.236558
0.000000 0.395844 0.236558
0.023092 0.395844 0.236558
0.046706 0.395844 0.236558
0.075805 0.395844 0.236558
0.145601 0.395844 0.236558
0.323405 0.395844 0.236558
0.459570 0.395844 0.236558
0.555792 0.395844 0.236558
0.634546 0.395844 0.236558
0.701746 0.395844 0.236558
0.760926 0.395844 0.236558
0.814525 0.395844 0.236558
0.864087 0.395844 0.236558
0.910905 0.395844 0.236558
0.955898 0.395844 0.236558
0.999787 0.395844 0.236558
0.000000 0.448377 0.236558
0.023092 0.448377 0.236558
0.046706 0.448377 0.236558
0.075805 0.448377 0.236558
0.145601 0.448377 0.236558
0.323405 0.448377 0.236558
0.459570 0.448377 0.236558
0.555792 0.448377 0.236558
0.634546 0.448377 0.236558
0.701746 0.448377 0.236558
0.760926 0.448377 0.236558
0.814525 0.448377 0.236558
0.864087 0.448377 0.236558
0.910905 0.448377 0.236558
0.955898 0.448377 0.236558
0.999787 0.448377 0.236558
0.000000 0.500340 0.236558
0.023092 0.500340 0.236558
0.046706 0.500340 0.236558
0.075805 0.500340 0.236558
0.145601 0.500340 0.236558
0.323405 0.500340 0.236558
0.459570 0.500340 0.236558
0.555792 0.500340 0.236558
0.634546 0.500340 0.236558
0.701746 0.500340 0.236558
0.760926 0.500340 0.236558
0.814525 0.500340 0.236558
0.864087 0.500340 0.236558
0.910905 0.500340 0.236558
0.955898 0.500340 0.236558
0.999787 0.500340 0.236558
0.000000 0.560242 0.236558
0.023092 0.560242 0.236558
0.046706 0.560242 0.236558
0.075805 0.560242 0.236558
0.145601 0.560242 0.236558
0.323405 0.560242 0.236558
0.459570 0.560242 0.236558
0.555792 0.560242 0.236558
0.634546 0.560242 0.236558
0.701746 0.560242 0.236558
0.760926 0.560242 0.236558
0.814525 0.560242 0.236558
0.864087 0.560242 0.236558
0.910905 0.560242 0.236558
0.955898 0.560242 0.236558
0.999787 0.560242 0.236558
0.000000 0.629120 0.236558
0.023092 0.629120 0.236558
0.046706 0.629120 0.236558
0.075805 0.629120 0.236558
0.145601 0.629120 0.236558
0.323405 0.629120 0.236558
0.459570 0.629120 0.236558
0.555792 0.629120 0.236558
0.634546 0.629120 0.236558
0.701746 0.629120 0.236558
0.760926 0.629120 0.236558
0.814525 0.629120 0.236558
0.864087 0.629120 0.236558
0.910905 0.629120 0.236558
0.955898 0.629120 0.236558
0.999787 0.629120 0.236558
0.000000 0.698497 0.236558
0.023092 0.698497 0.236558
0.046706 0.698497 0.236558
0.075805 0.698497 0.236558
0.145601 0.698497 0.236558
0.323405 0.698497 0.236558
0.459570 0.698497 0.236558
0.555792 0.698497 0.236558
0.634546 0.698497 0.236558
0.701746 0.698497 0.236558
0.760926 0.698497 0.236558
0.814525 0.698497 0.236558
0.864087 0.698497 0.236558
0.910905 0.698497 0.236558
0.955898 0.698497 0.236558
0.999787 0.698497 0.236558
0.000000 0.758500 0.236558
0.023092 0.758500 0.236558
0.046706 0.758500 0.236558
0.075805 0.758500 0.236558
0.145601 0.758500 0.236558
0.323405 0.758500 0.236558
0.459570 0.758500 0.236558
0.555792 0.758500 0.236558
0.634546 0.758500 0.236558
0.701746 0.758500 0.236558
0.760926 0.758500 0.236558
0.814525 0.758500 0.236558
0.864087 0.758500 0.236558
0.910905 0.758500 0.236558
0.955898 0.758500 0.236558
0.999787 0.758500 0.236558
0.000000 0.805261 0.236558
0.023092 0.805261 0.236558
0.046706 0.805261 0.236558
0.075805 0.805261 0.236558
0.145601 0.805261 0.236558
0.323405 0.805261 0.236558
0.459570 0.805261 0.236558
0.555792 0.805261 0.236558
0.634546 0.805261 0.236558
0.701746 0.805261 0.236558
0.760926 0.805261 0.236558
0.814525 0.805261 0.236558
0.864087 0.805261 0.236558
0.910905 0.805261 0.236558
0.955898 0.805261 0.236558
0.999787 0.805261 0.236558
0.000000 0.842652 0.236558
0.023092 0.842652 0.236558
0.046706 0.842652 0.236558
0.075805 0.842652 0.236558
0.145601 0.842652 0.236558
0.323405 0.842652 0.236558
0.459570 0.842652 0.236558
0.555792 0.842652 0.236558
0.634546 0.842652 0.236558
0.701746 0.842652 0.236558
0.760926 0.842652 0.236558
0.814525 0.842652 0.236558
0.864087 0.842652 0.236558
0.910905 0.842652 0.236558
0.955898 0.842652 0.236558
0.999787 0.842652 0.236558
0.000000 0.874471 0.236558
0.023092 0.874471 0.236558
0.046706 0.874471 0.236558
0.075805 0.874471 0.236558
0.145601 0.874471 0.236558
0.323405 0.874471 0.236558
0.459570 0.874471 0.236558
0.555792 0.874471 0.236558
0.634546 0.874471 0.236558
0.701746 0.874471 0.236558
0.760926 0.874471 0.236558
0.814525 0.874471 0.236558
0.864087 0.874471 0.236558
0.910905 0.874471 0.236558
0.955898 0.874471 0.236558
0.999787 0.874471 0.236558
0.000000 0.903214 0.236558
0.023092 0.903214 0.236558
0.046706 0.903214 0.236558
0.075805 0.903214 0.236558
0.145601 0.903214 0.236558
0.323405 0.903214 0.236558
0.459570 0.903214 0.236558
0.555792 0.903214 0.236558
0.634546 0.903214 0.236558
0.701746 0.903214 0.236558
0.760926 0.903214 0.236558
0.814525 0.903214 0.236558
0.864087 0.903214 0.236558
0.910905 0.903214 0.236558
0.955898 0.903214 0.236558
0.999787 0.903214 0.236558
0.000000 0.000000 0.276530
0.023092 0.000000 0.276530
0.046706 0.000000 0.276530
0.075805 0.000000 0.276530
0.145601 0.000000 0.276530
0.323405 0.000000 0.276530
0.459570 0.000000 0.276530
0.555792 0.000000 0.276530
0.634546 0.000000 0.276530
0.701746 0.000000 0.276530
0.760926 0.000000 0.276530
0.814525 0.000000 0.276530
0.864087 0.000000 0.276530
0.910905 0.000000 0.276530
0.955898 0.000000 0.276530
0.999787 0.000000 0.276530
0.000000 0.020579 0.276530
0.023092 0.020579 0.276530
0.046706 0.020579 0.276530
0.075805 0.020579 0.276530
0.145601 0.020579 0.276530
0.323405 0.020579 0.276530
0.459570 0.020579 0.276530
0.555792 0.020579 0.276530
0.634546 0.020579 0.276530
0.701746 0.020579 0.276530
0.760926 0.020579 0.276530
0.814525 0.020579 0.276530
0.864087 0.020579 0.276530
0.910905 0.020579 0.276530
0.955898 0.020579 0.276530
0.999787 0.020579 0.276530
0.000000 0.091604 0.276530
0.023092 0.091604 0.276530
0.046706 0.091604 0.276530
0.075805 0.091604 0.276530
0.145601 0.091604 0.276530
0.323405 0.091604 0.276530
0.459570 0.091604 0.276530
0.555792 0.091604 0.276530
0.634546 0.091604 0.276530
0.701746 0.091604 0.276530
0.760926 0.091604 0.276530
0.814525 0.091604 0.276530
0.864087 0.091604 0.276530
0.910905 0.091604 0.276530
0.955898 0.091604 0.276530
0.999787 0.091604 0.276530
0.000000 0.236377 0.276530
0.023092 0.236377 0.276530
0.046706 0.236377 0.276530
0.075805 0.236377 0.276530
0.145601 0.236377 0.276530
0.323405 0.236377 0.276530
0.459570 0.236377 0.276530
0.555792 0.236377 0.276530
0.634546 0.236377 0.276530
0.701746 0.236377 0.276530
0.760926 0.236377 0.276530
0.814525 0.236377 0.276530
0.864087 0.236377 0.276530
0.910905 0.236377 0.276530
0.955898 0.236377 0.276530
0.999787 0.236377 0.276530
0.000000 0.331869 0.276530
0.023092 0.331869 0.276530
0.046706 0.331869 0.276530
0.075805 0.331869 0.276530
0.145601 0.331869 0.276530
0.323405 0.331869 0.276530
0.459570 0.331869 0.276530
0.555792 0.331869 0.276530
0.634546 0.331869 0.276530
0.701746 0.331869 0.276530
0.760926 0.331869 0.276530
0.814525 0.331869 0.276530
0.864087 0.331869 0.276530
0.910905 0.331869 0.276530
0.955898 0.331869 0.276530
0.999787 0.331869 0.276530
0.000000 0.395844 0.276530
0.023092 0.395844 0.276530
0.046706 0.395844 0.276530
0.075805 0.395844 0.276530
0.145601 0.395844 0.276530
0.323405 0.395844 0.276530
0.459570 0.395844 0.276530
0.555792 0.395844 0.276530
0.634546 0.395844 0.276530
0.701746 0.395844 0.276530
0.760926 0.395844 0.276530
0.814525 0.395844 0.276530
0.864087 0.395844 0.276530
0.910905 0.395844 0.276530
0.955898 0.395844 0.276530
0.999787 0.395844 0.276530
0.000000 0.448377 0.276530
0.023092 0.448377 0.276530
0.046706 0.448377 0.276530
0.075805 0.448377 0.276530
0.145601 0.448377 0.276530
0.323405 0.448377 0.276530
0.459570 0.448377 0.276530
0.555792 0.448377 0.276530
0.634546 0.448377 0.276530
0.701746 0.448377 0.276530
0.760926 0.448377 0.276530
0.814525 0.448377 0.276530
0.864087 0.448377 0.276530
0.910905 0.448377 0.276530
0.955898 0.448377 0.276530
0.999787 0.448377 0.276530
0.000000 0.500340 0.276530
0.023092 0.500340 0.276530
0.046706 0.500340 0.276530
0.075805 0.500340 0.276530
0.145601 0.500340 0.276530
0.323405 0.500340 0.276530
0.459570 0.500340 0.276530
0.555792 0.500340 0.276530
0.634546 0.500340 0.276530
0.701746 0.500340 0.276530
0.760926 0.500340 0.276530
0.814525 0.500340 0.276530
0.864087 0.500340 0.276530
0.910905 0.500340 0.276530
0.955898 0.500340 0.276530
0.999787 0.500340 0.276530
0.000000 0.560242 0.276530
0.023092 0.560242 0.276530
0.046706 0.560242 0.276530
0.075805 0.560242 0.276530
0.145601 0.560242 0.276530
0.323405 0.560242 0.276530
0.459570 0.560242 0.276530
0.555792 0.560242 0.276530
0.634546 0.560242 0.276530
0.701746 0.560242 0.276530
0.760926 0.560242 0.276530
0.814525 0.560242 0.276530
0.864087 0.560242 0.276530
0.910905 0.560242 0.276530
0.955898 0.560242 0.276530
0.999787 0.560242 0.276530
0.000000 0.629120 0.276530
0.023092 0.629120 0.276530
0.046706 0.629120 0.276530
0.075805 0.629120 0.276530
0.145601 0.629120 0.276530
0.323405 0.629120 0.276530
0.459570 0.629120 0.276530
0.555792 0.629120 0.276530
0.634546 0.629120 0.276530
0.701746 0.629120 0.276530
0.760926 0.629120 0.276530
0.814525 0.629120 0.276530
0.864087 0.629120 0.276530
0.910905 0.629120 0.276530
0.955898 0.629120 0.276530
0.999787 0.629120 0.276530
0.000000 0.698497 0.276530
0.023092 0.698497 0.276530
0.046706 0.698497 0.276530
0.075805 0.698497 0.276530
0.145601 0.698497 0.276530
0.323405 0.698497 0.276530
0.459570 0.698497 0.276530
0.555792 0.698497 0.276530
0.634546 0.698497 0.276530
0.701746 0.698497 0.276530
0.760926 0.698497 0.276530
0.814525 0.698497 0.276530
0.864087 0.698497 0.276530
0.910905 0.698497 0.276530
0.955898 0.698497 0.276530
0.999787 0.698497 0.276530
0.000000 0.758500 0.276530
0.023092 0.758500 0.276530
0.046706 0.758500 0.276530
0.075805 0.758500 0.276530
0.145601 0.758500 0.276530
0.323405 0.758500 0.276530
0.459570 0.758500 0.276530
0.555792 0.758500 0.276530
0.634546 0.758500 0.276530
0.701746 0.758500 0.276530
0.760926 0.758500 0.276530
0.814525 0.758500 0.276530
0.864087 0.758500 0.276530
0.910905 0.758500 0.276530
0.955898 0.758500 0.276530
0.999787 0.758500 0.276530
0.000000 0.805261 0.276530
0.023092 0.805261 0.276530
0.046706 0.805261 0.276530
0.075805 0.805261 0.276530
0.145601 0.805261 0.276530
0.323405 0.805261 0.276530
0.459570 0.805261 0.276530
0.555792 0.805261 0.276530
0.634546 0.805261 0.276530
0.701746 0.805261 0.276530
0.760926 0.805261 0.276530
0.814525 0.805261 0.276530
0.864087 0.805261 0.276530
0.910905 0.805261 0.276530
0.955898 0.805261 0.276530
0.999787 0.805261 0.276530
0.000000 0.842652 0.276530
0.023092 0.842652 0.276530
0.046706 0.842652 0.276530
0.075805 0.842652 0.276530
0.145601 0.842652 0.276530
0.323405 0.842652 0.276530
0.459570 0.842652 0.276530
0.555792 0.842652 0.276530
0.634546 0.842652 0.276530
0.701746 0.842652 0.276530
0.760926 0.842652 0.276530
0.814525 0.842652 0.276530
0.864087 0.842652 0.276530
0.910905 0.842652 0.276530
0.955898 0.842652 0.276530
0.999787 0.842652 0.276530
0.000000 0.874471 0.276530
0.023092 0.874471 0.276530
0.046706 0.874471 0.276530
0.075805 0.874471 0.276530
0.145601 0.874471 0.276530
0.323405 0.874471 0.276530
0.459570 0.874471 0.276530
0.555792 0.874471 0.276530
0.634546 0.874471 0.276530
0.701746 0.874471 0.276530
0.760926 0.874471 0.276530
0.814525 0.874471 0.276530
0.864087 0.874471 0.276530
0.910905 0.874471 0.276530
0.955898 0.874471 0.276530
0.999787 0.874471 0.276530
0.000000 0.903214 0.276530
0.023092 0.903214 0.276530
0.046706 0.903214 0.276530
0.075805 0.903214 0.276530
0.145601 0.903214 0.276530
0.323405 0.903214 0.276530
0.459570 0.903214 0.276530
0.555792 0.903214 0.276530
0.634546 0.903214 0.276530
0.701746 0.903214 0.276530
0.760926 0.903214 0.276530
0.814525 0.903214 0.276530
0.864087 0.903214 0.276530
0.910905 0.903214 0.276530
0.955898 0.903214 0.276530
0.999787 0.903214 0.276530
0.000000 0.000000 0.315826
0.023092 0.000000 0.315826
0.046706 0.000000 0.315826
0.075805 0.000000 0.315826
0.145601 0.000000 0.315826
0.323405 0.000000 0.315826
0.459570 0.000000 0.315826
0.555792 0.000000 0.315826
0.634546 0.000000 0.315826
0.701746 0.000000 0.315826
0.760926 0.000000 0.315826
0.814525 0.000000 0.315826
0.864087 0.000000 0.315826
0.910905 0.000000 0.315826
0.955898 0.000000 0.315826
0.999787 0.000000 0.315826
0.000000 0.020579 0.315826
0.023092 0.020579 0.315826
0.046706 0.020579 0.315826
0.075805 0.020579 0.315826
0.145601 0.020579 0.315826
0.323405 0.020579 0.315826
0.459570 0.020579 0.315826
0.555792 0.020579 0.315826
0.634546 0.020579 0.315826
0.701746 0.020579 0.315826
0.760926 0.020579 0.315826
0.814525 0.020579 0.315826
0.864087 0.020579 0.315826
0.910905 0.020579 0.315826
0.955898 0.020579 0.315826
0.999787 0.020579 0.315826
0.000000 0.091604 0.315826
0.023092 0.091604 0.315826
0.046706 0.091604 0.315826
0.075805 0.091604 0.315826
0.145601 0.091604 0.315826
0.323405 0.091604 0.315826
0.459570 0.091604 0.315826
0.555792 0.091604 0.315826
0.634546 0.091604 0.315826
0.701746 0.091604 0.315826
0.760926 0.091604 0.315826
0.814525 0.091604 0.315826
0.864087 0.091604 0.315826
0.910905 0.091604 0.315826
0.955898 0.091604 0.315826
0.999787 0.091604 0.315826
0.000000 0.236377 0.315826
0.023092 0.236377 0.315826
0.046706 0.236377 0.315826
0.075805 0.236377 0.315826
0.145601 0.236377 0.315826
0.323405 0.236377 0.315826
0.459570 0.236377 0.315826
0.555792 0.236377 0.315826
0.634546 0.236377 0.315826
0.701746 0.236377 0.315826
0.760926 0.236377 0.315826
0.814525 0.236377 0.315826
0.864087 0.236377 0.315826
0.910905 0.236377 0.315826
0.955898 0.236377 0.315826
0.999787 0.236377 0.315826
0.000000 0.331869 0.315826
0.023092 0.331869 0.315826
0.046706 0.331869 0.315826
0.075805 0.331869 0.315826
0.145601 0.331869 0.315826
0.323405 0.331869 0.315826
0.459570 0.331869 0.315826
0.555792 0.331869 0.315826
0.634546 0.331869 0.315826
0.701746 0.331869 0.315826
0.760926 0.331869 0.315826
0.814525 0.331869 0.315826
0.864087 0.331869 0.315826
0.910905 0.331869 0.315826
0.955898 0.331869 0.315826
0.999787 0.331869 0.315826
0.000000 0.395844 0.315826
0.023092 0.395844 0.315826
0.046706 0.395844 0.315826
0.075805 0.395844 0.315826
0.145601 0.395844 0.315826
0.323405 0.395844 0.315826
0.459570 0.395844 0.315826
0.555792 0.395844 0.315826
0.634546 0.395844 0.315826
0.701746 0.395844 0.315826
0.760926 0.395844 0.315826
0.814525 0.395844 0.315826
0.864087 0.395844 0.315826
0.910905 0.395844 0.315826
0.955898 0.395844 0.315826
0.999787 0.395844 0.315826
0.000000 0.448377 0.315826
0.023092 0.448377 0.315826
0.046706 0.448377 0.315826
0.075805 0.448377 0.315826
0.145601 0.448377 0.315826
0.323405 0.448377 0.315826
0.459570 0.448377 0.315826
0.555792 0.448377 0.315826
0.634546 0.448377 0.315826
0.701746 0.448377 0.315826
0.760926 0.448377 0.315826
0.814525 0.448377 0.315826
0.864087 0.448377 0.315826
0.910905 0.448377 0.315826
0.955898 0.448377 0.315826
0.999787 0.448377 0.315826
0.000000 0.500340 0.315826
0.023092 0.500340 0.315826
0.046706 0.500340 0.315826
0.075805 0.500340 0.315826
0.145601 0.500340 0.315826
0.323405 0.500340 0.315826
0.459570 0.500340 0.315826
0.555792 0.500340 0.315826
