Assets/LUTs/Perpetua.cube
LUT_3D_SIZE 6
0.000000 0.000000 0.070740
0.198395 0.000000 0.070740
0.326422 0.000000 0.070740
0.595575 0.000000 0.070740
0.888012 0.000000 0.070740
0.999871 0.000000 0.070740
0.000000 0.208100 0.070740
0.198395 0.208100 0.070740
0.326422 0.208100 0.070740
0.595575 0.208100 0.070740
0.888012 0.208100 0.070740
0.999871 0.208100 0.070740
0.000000 0.430627 0.070740
0.198395 0.430627 0.070740
0.326422 0.430627 0.070740
0.595575 0.430627 0.070740
0.888012 0.430627 0.070740
0.999871 0.430627 0.070740
0.000000 0.641131 0.070740
0.198395 0.641131 0.070740
0.326422 0.641131 0.070740
0.595575 0.641131 0.070740
0.888012 0.641131 0.070740
0.999871 0.641131 0.070740
0.000000 0.841296 0.070740
0.198395 0.841296 0.070740
0.326422 0.841296 0.070740
0.595575 0.841296 0.070740
0.888012 0.841296 0.070740
0.999871 0.841296 0.070740
0.000000 1.000000 0.070740
0.198395 1.000000 0.070740
0.326422 1.000000 0.070740
0.595575 1.000000 0.070740
0.888012 1.000000 0.070740
0.999871 1.000000 0.070740
0.000000 0.000000 0.279199
0.198395 0.000000 0.279199
0.326422 0.000000 0.279199
0.595575 0.000000 0.279199
0.888012 0.000000 0.279199
0.999871 0.000000 0.279199
0.000000 0.208100 0.279199
0.198395 0.208100 0.279199
0.326422 0.208100 0.279199
0.595575 0.208100 0.279199
0.888012 0.208100 0.279199
0.999871 0.208100 0.279199
0.000000 0.430627 0.279199
0.198395 0.430627 0.279199
0.326422 0.430627 0.279199
0.595575 0.430627 0.279199
0.888012 0.430627 0.279199
0.999871 0.430627 0.279199
0.000000 0.641131 0.279199
0.198395 0.641131 0.279199
0.326422 0.641131 0.279199
0.595575 0.641131 0.279199
0.888012 0.641131 0.279199
0.999871 0.641131 0.279199
0.000000 0.841296 0.279199
0.198395 0.841296 0.279199
0.326422 0.841296 0.279199
0.595575 0.841296 0.279199
0.888012 0.841296 0.279199
0.999871 0.841296 0.279199
0.000000 1.000000 0.279199
0.198395 1.000000 0.279199
0.326422 1.000000 0.279199
0.595575 1.000000 0.279199
0.888012 1.000000 0.279199
0.999871 1.000000 0.279199
0.000000 0.000000 0.409314
0.198395 0.000000 0.409314
0.326422 0.000000 0.409314
0.595575 0.000000 0.409314
0.888012 0.000000 0.409314
0.999871 0.000000 0.409314
0.000000 0.208100 0.409314
0.198395 0.208100 0.409314
0.326422 0.208100 0.409314
0.595575 0.208100 0.409314
0.888012 0.208100 0.409314
0.999871 0.208100 0.409314
0.000000 0.430627 0.409314
0.198395 0.430627 0.409314
0.326422 0.430627 0.409314
0.595575 0.430627 0.409314
0.888012 0.430627 0.409314
0.999871 0.430627 0.409314
0.000000 0.641131 0.409314
0.198395 0.641131 0.409314
0.326422 0.641131 0.409314
0.595575 0.641131 0.409314
0.888012 0.641131 0.409314
0.999871 0.641131 0.409314
0.000000 0.841296 0.409314
0.198395 0.841296 0.409314
0.326422 0.841296 0.409314
0.595575 0.841296 0.409314
0.888012 0.841296 0.409314
0.999871 0.841296 0.409314
0.000000 1.000000 0.409314
0.198395 1.000000 0.409314
0.326422 1.000000 0.409314
0.595575 1.000000 0.409314
0.888012 1.000000 0.409314
0.999871 1.000000 0.409314
0.000000 0.000000 0.538580
0.198395 0.000000 0.538580
0.326422 0.000000 0.538580
0.595575 0.000000 0.538580
0.888012 0.000000 0.538580
0.999871 0.000000 0.538580
0.000000 0.208100 0.538580
0.198395 0.208100 0.538580
0.326422 0.208100 0.538580
0.595575 0.208100 0.538580
0.888012 0.208100 0.538580
0.999871 0.208100 0.538580
0.000000 0.430627 0.538580
0.198395 0.430627 0.538580
0.326422 0.430627 0.538580
0.595575 0.430627 0.538580
0.888012 0.430627 0.538580
0.999871 0.430627 0.538580
0.000000 0.641131 0.538580
0.198395 0.641131 0.538580
0.326422 0.641131 0.538580
0.595575 0.641131 0.538580
0.888012 0.641131 0.538580
0.999871 0.641131 0.538580
0.000000 0.841296 0.538580
0.198395 0.841296 0.538580
0.326422 0.841296 0.538580
0.595575 0.841296 0.538580
0.888012 0.841296 0.538580
0.999871 0.841296 0.538580
0.000000 1.000000 0.538580
0.198395 1.000000 0.538580
0.326422 1.000000 0.538580
0.595575 1.000000 0.538580
0.888012 1.000000 0.538580
0.999871 1.000000 0.538580
0.000000 0.000000 0.725812
0.198395 0.000000 0.725812
0.326422 0.000000 0.725812
0.595575 0.000000 0.725812
0.888012 0.000000 0.725812
0.999871 0.000000 0.725812
0.000000 0.208100 0.725812
0.198395 0.208100 0.725812
0.326422 0.208100 0.725812
0.595575 0.208100 0.725812
0.888012 0.208100 0.725812
0.999871 0.208100 0.725812
0.000000 0.430627 0.725812
0.198395 0.430627 0.725812
0.326422 0.430627 0.725812
0.595575 0.430627 0.725812
0.888012 0.430627 0.725812
0.999871 0.430627 0.725812
0.000000 0.641131 0.725812
0.198395 0.641131 0.725812
0.326422 0.641131 0.725812
0.595575 0.641131 0.725812
0.888012 0.641131 0.725812
0.999871 0.641131 0.725812
0.000000 0.841296 0.725812
0.198395 0.841296 0.725812
0.326422 0.841296 0.725812
0.595575 0.841296 0.725812
0.888012 0.841296 0.725812
0.999871 0.841296 0.725812
0.000000 1.000000 0.725812
0.198395 1.000000 0.725812
0.326422 1.000000 0.725812
0.595575 1.000000 0.725812
0.888012 1.000000 0.725812
0.999871 1.000000 0.725812
0.000000 0.000000 0.999522
0.198395 0.000000 0.999522
0.326422 0.000000 0.999522
0.595575 0.000000 0.999522
0.888012 0.000000 0.999522
0.999871 0.000000 0.999522
0.000000 0.208100 0.999522
0.198395 0.208100 0.999522
0.326422 0.208100 0.999522
0.595575 0.208100 0.999522
0.888012 0.208100 0.999522
0.999871 0.208100 0.999522
0.000000 0.430627 0.999522
0.198395 0.430627 0.999522
0.326422 0.430627 0.999522
0.595575 0.430627 0.999522
0.888012 0.430627 0.999522
0.999871 0.430627 0.999522
0.000000 0.641131 0.999522
0.198395 0.641131 0.999522
0.326422 0.641131 0.999522
0.595575 0.641131 0.999522
0.888012 0.641131 0.999522
0.999871 0.641131 0.999522
0.000000 0.841296 0.999522
0.198395 0.841296 0.999522
0.326422 0.841296 0.999522
0.595575 0.841296 0.999522
0.888012 0.841296 0.999522
0.999871 0.841296 0.999522
0.000000 1.000000 0.999522
0.198395 1.000000 0.999522
0.326422 1.000000 0.999522
0.595575 1.000000 0.999522
0.888012 1.000000 0.999522
0.999871 1.000000 0.999522
