Assets/LUTs/Perpetua.cube
LUT_3D_SIZE 16
0.000000 0.000000 0.070740
0.051143 0.000000 0.070740
0.132119 0.000000 0.070740
0.198395 0.000000 0.070740
0.247233 0.000000 0.070740
0.285370 0.000000 0.070740
0.326422 0.000000 0.070740
0.384690 0.000000 0.070740
0.474481 0.000000 0.070740
0.595575 0.000000 0.070740
0.718923 0.000000 0.070740
0.817226 0.000000 0.070740
0.888012 0.000000 0.070740
0.937431 0.000000 0.070740
0.972396 0.000000 0.070740
0.999871 0.000000 0.070740
0.000000 0.067946 0.070740
0.051143 0.067946 0.070740
0.132119 0.067946 0.070740
0.198395 0.067946 0.070740
0.247233 0.067946 0.070740
0.285370 0.067946 0.070740
0.326422 0.067946 0.070740
0.384690 0.067946 0.070740
0.474481 0.067946 0.070740
0.595575 0.067946 0.070740
0.718923 0.067946 0.070740
0.817226 0.067946 0.070740
0.888012 0.067946 0.070740
0.937431 0.067946 0.070740
0.972396 0.067946 0.070740
0.999871 0.067946 0.070740
0.000000 0.136953 0.070740
0.051143 0.136953 0.070740
0.132119 0.136953 0.070740
0.198395 0.136953 0.070740
0.247233 0.136953 0.070740
0.285370 0.136953 0.070740
0.326422 0.136953 0.070740
0.384690 0.136953 0.070740
0.474481 0.136953 0.070740
0.595575 0.136953 0.070740
0.718923 0.136953 0.070740
0.817226 0.136953 0.070740
0.888012 0.136953 0.070740
0.937431 0.136953 0.070740
0.972396 0.136953 0.070740
0.999871 0.136953 0.070740
0.000000 0.208100 0.070740
0.051143 0.208100 0.070740
0.132119 0.208100 0.070740
0.198395 0.208100 0.070740
0.247233 0.208100 0.070740
0.285370 0.208100 0.070740
0.326422 0.208100 0.070740
0.384690 0.208100 0.070740
0.474481 0.208100 0.070740
0.595575 0.208100 0.070740
0.718923 0.208100 0.070740
0.817226 0.208100 0.070740
0.888012 0.208100 0.070740
0.937431 0.208100 0.070740
0.972396 0.208100 0.070740
0.999871 0.208100 0.070740
0.000000 0.281537 0.070740
0.051143 0.281537 0.070740
0.132119 0.281537 0.070740
0.198395 0.281537 0.070740
0.247233 0.281537 0.070740
0.285370 0.281537 0.070740
0.326422 0.281537 0.070740
0.384690 0.281537 0.070740
0.474481 0.281537 0.070740
0.595575 0.281537 0.070740
0.718923 0.281537 0.070740
0.817226 0.281537 0.070740
0.888012 0.281537 0.070740
0.937431 0.281537 0.070740
0.972396 0.281537 0.070740
0.999871 0.281537 0.070740
0.000000 0.356160 0.070740
0.051143 0.356160 0.070740
0.132119 0.356160 0.070740
0.198395 0.356160 0.070740
0.247233 0.356160 0.070740
0.285370 0.356160 0.070740
0.326422 0.356160 0.070740
0.384690 0.356160 0.070740
0.474481 0.356160 0.070740
0.595575 0.356160 0.070740
0.718923 0.356160 0.070740
0.817226 0.356160 0.070740
0.888012 0.356160 0.070740
0.937431 0.356160 0.070740
0.972396 0.356160 0.070740
0.999871 0.356160 0.070740
0.000000 0.430627 0.070740
0.051143 0.430627 0.070740
0.132119 0.430627 0.070740
0.198395 0.430627 0.070740
0.247233 0.430627 0.070740
0.285370 0.430627 0.070740
0.326422 0.430627 0.070740
0.384690 0.430627 0.070740
0.474481 0.430627 0.070740
0.595575 0.430627 0.070740
0.718923 0.430627 0.070740
0.817226 0.430627 0.070740
0.888012 0.430627 0.070740
0.937431 0.430627 0.070740
0.972396 0.430627 0.070740
0.999871 0.430627 0.070740
0.000000 0.503664 0.070740
0.051143 0.503664 0.070740
0.132119 0.503664 0.070740
0.198395 0.503664 0.070740
0.247233 0.503664 0.070740
0.285370 0.503664 0.070740
0.326422 0.503664 0.070740
0.384690 0.503664 0.070740
0.474481 0.503664 0.070740
0.595575 0.503664 0.070740
0.718923 0.503664 0.070740
0.817226 0.503664 0.070740
0.888012 0.503664 0.070740
0.937431 0.503664 0.070740
0.972396 0.503664 0.070740
0.999871 0.503664 0.070740
0.000000 0.573875 0.070740
0.051143 0.573875 0.070740
0.132119 0.573875 0.070740
0.198395 0.573875 0.070740
0.247233 0.573875 0.070740
0.285370 0.573875 0.070740
0.326422 0.573875 0.070740
0.384690 0.573875 0.070740
0.474481 0.573875 0.070740
0.595575 0.573875 0.070740
0.718923 0.573875 0.070740
0.817226 0.573875 0.070740
0.888012 0.573875 0.070740
0.937431 0.573875 0.070740
0.972396 0.573875 0.070740
0.999871 0.573875 0.070740
0.000000 0.641131 0.070740
0.051143 0.641131 0.070740
0.132119 0.641131 0.070740
0.198395 0.641131 0.070740
0.247233 0.641131 0.070740
0.285370 0.641131 0.070740
0.326422 0.641131 0.070740
0.384690 0.641131 0.070740
0.474481 0.641131 0.070740
0.595575 0.641131 0.070740
0.718923 0.641131 0.070740
0.817226 0.641131 0.070740
0.888012 0.641131 0.070740
0.937431 0.641131 0.070740
0.972396 0.641131 0.070740
0.999871 0.641131 0.070740
0.000000 0.706980 0.070740
0.051143 0.706980 0.070740
0.132119 0.706980 0.070740
0.198395 0.706980 0.070740
0.247233 0.706980 0.070740
0.285370 0.706980 0.070740
0.326422 0.706980 0.070740
0.384690 0.706980 0.070740
0.474481 0.706980 0.070740
0.595575 0.706980 0.070740
0.718923 0.706980 0.070740
0.817226 0.706980 0.070740
0.888012 0.706980 0.070740
0.937431 0.706980 0.070740
0.972396 0.706980 0.070740
0.999871 0.706980 0.070740
0.000000 0.773462 0.070740
0.051143 0.773462 0.070740
0.132119 0.773462 0.070740
0.198395 0.773462 0.070740
0.247233 0.773462 0.070740
0.285370 0.773462 0.070740
0.326422 0.773462 0.070740
0.384690 0.773462 0.070740
0.474481 0.773462 0.070740
0.595575 0.773462 0.070740
0.718923 0.773462 0.070740
0.817226 0.773462 0.070740
0.888012 0.773462 0.070740
0.937431 0.773462 0.070740
0.972396 0.773462 0.070740
0.999871 0.773462 0.070740
0.000000 0.841296 0.070740
0.051143 0.841296 0.070740
0.132119 0.841296 0.070740
0.198395 0.841296 0.070740
0.247233 0.841296 0.070740
0.285370 0.841296 0.070740
0.326422 0.841296 0.070740
0.384690 0.841296 0.070740
0.474481 0.841296 0.070740
0.595575 0.841296 0.070740
0.718923 0.841296 0.070740
0.817226 0.841296 0.070740
0.888012 0.841296 0.070740
0.937431 0.841296 0.070740
0.972396 0.841296 0.070740
0.999871 0.841296 0.070740
0.000000 0.910156 0.070740
0.051143 0.910156 0.070740
0.132119 0.910156 0.070740
0.198395 0.910156 0.070740
0.247233 0.910156 0.070740
0.285370 0.910156 0.070740
0.326422 0.910156 0.070740
0.384690 0.910156 0.070740
0.474481 0.910156 0.070740
0.595575 0.910156 0.070740
0.718923 0.910156 0.070740
0.817226 0.910156 0.070740
0.888012 0.910156 0.070740
0.937431 0.910156 0.070740
0.972396 0.910156 0.070740
0.999871 0.910156 0.070740
0.000000 0.979541 0.070740
0.051143 0.979541 0.070740
0.132119 0.979541 0.070740
0.198395 0.979541 0.070740
0.247233 0.979541 0.070740
0.285370 0.979541 0.070740
0.326422 0.979541 0.070740
0.384690 0.979541 0.070740
0.474481 0.979541 0.070740
0.595575 0.979541 0.070740
0.718923 0.979541 0.070740
0.817226 0.979541 0.070740
0.888012 0.979541 0.070740
0.937431 0.979541 0.070740
0.972396 0.979541 0.070740
0.999871 0.979541 0.070740
0.000000 1.000000 0.070740
0.051143 1.000000 0.070740
0.132119 1.000000 0.070740
0.198395 1.000000 0.070740
0.247233 1.000000 0.070740
0.285370 1.000000 0.070740
0.326422 1.000000 0.070740
0.384690 1.000000 0.070740
0.474481 1.000000 0.070740
0.595575 1.000000 0.070740
0.718923 1.000000 0.070740
0.817226 1.000000 0.070740
0.888012 1.000000 0.070740
0.937431 1.000000 0.070740
0.972396 1.000000 0.070740
0.999871 1.000000 0.070740
0.000000 0.000000 0.149156
0.051143 0.000000 0.149156
0.132119 0.000000 0.149156
0.198395 0.000000 0.149156
0.247233 0.000000 0.149156
0.285370 0.000000 0.149156
0.326422 0.000000 0.149156
0.384690 0.000000 0.149156
0.474481 0.000000 0.149156
0.595575 0.000000 0.149156
0.718923 0.000000 0.149156
0.817226 0.000000 0.149156
0.888012 0.000000 0.149156
0.937431 0.000000 0.149156
0.972396 0.000000 0.149156
0.999871 0.000000 0.149156
0.000000 0.067946 0.149156
0.051143 0.067946 0.149156
0.132119 0.067946 0.149156
0.198395 0.067946 0.149156
0.247233 0.067946 0.149156
0.285370 0.067946 0.149156
0.326422 0.067946 0.149156
0.384690 0.067946 0.149156
0.474481 0.067946 0.149156
0.595575 0.067946 0.149156
0.718923 0.067946 0.149156
0.817226 0.067946 0.149156
0.888012 0.067946 0.149156
0.937431 0.067946 0.149156
0.972396 0.067946 0.149156
0.999871 0.067946 0.149156
0.000000 0.136953 0.149156
0.051143 0.136953 0.149156
0.132119 0.136953 0.149156
0.198395 0.136953 0.149156
0.247233 0.136953 0.149156
0.285370 0.136953 0.149156
0.326422 0.136953 0.149156
0.384690 0.136953 0.149156
0.474481 0.136953 0.149156
0.595575 0.136953 0.149156
0.718923 0.136953 0.149156
0.817226 0.136953 0.149156
0.888012 0.136953 0.149156
0.937431 0.136953 0.149156
0.972396 0.136953 0.149156
0.999871 0.136953 0.149156
0.000000 0.208100 0.149156
0.051143 0.208100 0.149156
0.132119 0.208100 0.149156
0.198395 0.208100 0.149156
0.247233 0.208100 0.149156
0.285370 0.208100 0.149156
0.326422 0.208100 0.149156
0.384690 0.208100 0.149156
0.474481 0.208100 0.149156
0.595575 0.208100 0.149156
0.718923 0.208100 0.149156
0.817226 0.208100 0.149156
0.888012 0.208100 0.149156
0.937431 0.208100 0.149156
0.972396 0.208100 0.149156
0.999871 0.208100 0.149156
0.000000 0.281537 0.149156
0.051143 0.281537 0.149156
0.132119 0.281537 0.149156
0.198395 0.281537 0.149156
0.247233 0.281537 0.149156
0.285370 0.281537 0.149156
0.326422 0.281537 0.149156
0.384690 0.281537 0.149156
0.474481 0.281537 0.149156
0.595575 0.281537 0.149156
0.718923 0.281537 0.149156
0.817226 0.281537 0.149156
0.888012 0.281537 0.149156
0.937431 0.281537 0.149156
0.972396 0.281537 0.149156
0.999871 0.281537 0.149156
0.000000 0.356160 0.149156
0.051143 0.356160 0.149156
0.132119 0.356160 0.149156
0.198395 0.356160 0.149156
0.247233 0.356160 0.149156
0.285370 0.356160 0.149156
0.326422 0.356160 0.149156
0.384690 0.356160 0.149156
0.474481 0.356160 0.149156
0.595575 0.356160 0.149156
0.718923 0.356160 0.149156
0.817226 0.356160 0.149156
0.888012 0.356160 0.149156
0.937431 0.356160 0.149156
0.972396 0.356160 0.149156
0.999871 0.356160 0.149156
0.000000 0.430627 0.149156
0.051143 0.430627 0.149156
0.132119 0.430627 0.149156
0.198395 0.430627 0.149156
0.247233 0.430627 0.149156
0.285370 0.430627 0.149156
0.326422 0.430627 0.149156
0.384690 0.430627 0.149156
0.474481 0.430627 0.149156
0.595575 0.430627 0.149156
0.718923 0.430627 0.149156
0.817226 0.430627 0.149156
0.888012 0.430627 0.149156
0.937431 0.430627 0.149156
0.972396 0.430627 0.149156
0.999871 0.430627 0.149156
0.000000 0.503664 0.149156
0.051143 0.503664 0.149156
0.132119 0.503664 0.149156
0.198395 0.503664 0.149156
0.247233 0.503664 0.149156
0.285370 0.503664 0.149156
0.326422 0.503664 0.149156
0.384690 0.503664 0.149156
0.474481 0.503664 0.149156
0.595575 0.503664 0.149156
0.718923 0.503664 0.149156
0.817226 0.503664 0.149156
0.888012 0.503664 0.149156
0.937431 0.503664 0.149156
0.972396 0.503664 0.149156
0.999871 0.503664 0.149156
0.000000 0.573875 0.149156
0.051143 0.573875 0.149156
0.132119 0.573875 0.149156
0.198395 0.573875 0.149156
0.247233 0.573875 0.149156
0.285370 0.573875 0.149156
0.326422 0.573875 0.149156
0.384690 0.573875 0.149156
0.474481 0.573875 0.149156
0.595575 0.573875 0.149156
0.718923 0.573875 0.149156
0.817226 0.573875 0.149156
0.888012 0.573875 0.149156
0.937431 0.573875 0.149156
0.972396 0.573875 0.149156
0.999871 0.573875 0.149156
0.000000 0.641131 0.149156
0.051143 0.641131 0.149156
0.132119 0.641131 0.149156
0.198395 0.641131 0.149156
0.247233 0.641131 0.149156
0.285370 0.641131 0.149156
0.326422 0.641131 0.149156
0.384690 0.641131 0.149156
0.474481 0.641131 0.149156
0.595575 0.641131 0.149156
0.718923 0.641131 0.149156
0.817226 0.641131 0.149156
0.888012 0.641131 0.149156
0.937431 0.641131 0.149156
0.972396 0.641131 0.149156
0.999871 0.641131 0.149156
0.000000 0.706980 0.149156
0.051143 0.706980 0.149156
0.132119 0.706980 0.149156
0.198395 0.706980 0.149156
0.247233 0.706980 0.149156
0.285370 0.706980 0.149156
0.326422 0.706980 0.149156
0.384690 0.706980 0.149156
0.474481 0.706980 0.149156
0.595575 0.706980 0.149156
0.718923 0.706980 0.149156
0.817226 0.706980 0.149156
0.888012 0.706980 0.149156
0.937431 0.706980 0.149156
0.972396 0.706980 0.149156
0.999871 0.706980 0.149156
0.000000 0.773462 0.149156
0.051143 0.773462 0.149156
0.132119 0.773462 0.149156
0.198395 0.773462 0.149156
0.247233 0.773462 0.149156
0.285370 0.773462 0.149156
0.326422 0.773462 0.149156
0.384690 0.773462 0.149156
0.474481 0.773462 0.149156
0.595575 0.773462 0.149156
0.718923 0.773462 0.149156
0.817226 0.773462 0.149156
0.888012 0.773462 0.149156
0.937431 0.773462 0.149156
0.972396 0.773462 0.149156
0.999871 0.773462 0.149156
0.000000 0.841296 0.149156
0.051143 0.841296 0.149156
0.132119 0.841296 0.149156
0.198395 0.841296 0.149156
0.247233 0.841296 0.149156
0.285370 0.841296 0.149156
0.326422 0.841296 0.149156
0.384690 0.841296 0.149156
0.474481 0.841296 0.149156
0.595575 0.841296 0.149156
0.718923 0.841296 0.149156
0.817226 0.841296 0.149156
0.888012 0.841296 0.149156
0.937431 0.841296 0.149156
0.972396 0.841296 0.149156
0.999871 0.841296 0.149156
0.000000 0.910156 0.149156
0.051143 0.910156 0.149156
0.132119 0.910156 0.149156
0.198395 0.910156 0.149156
0.247233 0.910156 0.149156
0.285370 0.910156 0.149156
0.326422 0.910156 0.149156
0.384690 0.910156 0.149156
0.474481 0.910156 0.149156
0.595575 0.910156 0.149156
0.718923 0.910156 0.149156
0.817226 0.910156 0.149156
0.888012 0.910156 0.149156
0.937431 0.910156 0.149156
0.972396 0.910156 0.149156
0.999871 0.910156 0.149156
0.000000 0.979541 0.149156
0.051143 0.979541 0.149156
0.132119 0.979541 0.149156
0.198395 0.979541 0.149156
0.247233 0.979541 0.149156
0.285370 0.979541 0.149156
0.326422 0.979541 0.149156
0.384690 0.979541 0.149156
0.474481 0.979541 0.149156
0.595575 0.979541 0.149156
0.718923 0.979541 0.149156
0.817226 0.979541 0.149156
0.888012 0.979541 0.149156
0.937431 0.979541 0.149156
0.972396 0.979541 0.149156
0.999871 0.979541 0.149156
0.000000 1.000000 0.149156
0.051143 1.000000 0.149156
0.132119 1.000000 0.149156
0.198395 1.000000 0.149156
0.247233 1.000000 0.149156
0.285370 1.000000 0.149156
0.326422 1.000000 0.149156
0.384690 1.000000 0.149156
0.474481 1.000000 0.149156
0.595575 1.000000 0.149156
0.718923 1.000000 0.149156
0.817226 1.000000 0.149156
0.888012 1.000000 0.149156
0.937431 1.000000 0.149156
0.972396 1.000000 0.149156
0.999871 1.000000 0.149156
0.000000 0.000000 0.220213
0.051143 0.000000 0.220213
0.132119 0.000000 0.220213
0.198395 0.000000 0.220213
0.247233 0.000000 0.220213
0.285370 0.000000 0.220213
0.326422 0.000000 0.220213
0.384690 0.000000 0.220213
0.474481 0.000000 0.220213
0.595575 0.000000 0.220213
0.718923 0.000000 0.220213
0.817226 0.000000 0.220213
0.888012 0.000000 0.220213
0.937431 0.000000 0.220213
0.972396 0.000000 0.220213
0.999871 0.000000 0.220213
0.000000 0.067946 0.220213
0.051143 0.067946 0.220213
0.132119 0.067946 0.220213
0.198395 0.067946 0.220213
0.247233 0.067946 0.220213
0.285370 0.067946 0.220213
0.326422 0.067946 0.220213
0.384690 0.067946 0.220213
0.474481 0.067946 0.220213
0.595575 0.067946 0.220213
0.718923 0.067946 0.220213
0.817226 0.067946 0.220213
0.888012 0.067946 0.220213
0.937431 0.067946 0.220213
0.972396 0.067946 0.220213
0.999871 0.067946 0.220213
0.000000 0.136953 0.220213
0.051143 0.136953 0.220213
0.132119 0.136953 0.220213
0.198395 0.136953 0.220213
0.247233 0.136953 0.220213
0.285370 0.136953 0.220213
0.326422 0.136953 0.220213
0.384690 0.136953 0.220213
0.474481 0.136953 0.220213
0.595575 0.136953 0.220213
0.718923 0.136953 0.220213
0.817226 0.136953 0.220213
0.888012 0.136953 0.220213
0.937431 0.136953 0.220213
0.972396 0.136953 0.220213
0.999871 0.136953 0.220213
0.000000 0.208100 0.220213
0.051143 0.208100 0.220213
0.132119 0.208100 0.220213
0.198395 0.208100 0.220213
0.247233 0.208100 0.220213
0.285370 0.208100 0.220213
0.326422 0.208100 0.220213
0.384690 0.208100 0.220213
0.474481 0.208100 0.220213
0.595575 0.208100 0.220213
0.718923 0.208100 0.220213
0.817226 0.208100 0.220213
0.888012 0.208100 0.220213
0.937431 0.208100 0.220213
0.972396 0.208100 0.220213
0.999871 0.208100 0.220213
0.000000 0.281537 0.220213
0.051143 0.281537 0.220213
0.132119 0.281537 0.220213
0.198395 0.281537 0.220213
0.247233 0.281537 0.220213
0.285370 0.281537 0.220213
0.326422 0.281537 0.220213
0.384690 0.281537 0.220213
0.474481 0.281537 0.220213
0.595575 0.281537 0.220213
0.718923 0.281537 0.220213
0.817226 0.281537 0.220213
0.888012 0.281537 0.220213
0.937431 0.281537 0.220213
0.972396 0.281537 0.220213
0.999871 0.281537 0.220213
0.000000 0.356160 0.220213
0.051143 0.356160 0.220213
0.132119 0.356160 0.220213
0.198395 0.356160 0.220213
0.247233 0.356160 0.220213
0.285370 0.356160 0.220213
0.326422 0.356160 0.220213
0.384690 0.356160 0.220213
0.474481 0.356160 0.220213
0.595575 0.356160 0.220213
0.718923 0.356160 0.220213
0.817226 0.356160 0.220213
0.888012 0.356160 0.220213
0.937431 0.356160 0.220213
0.972396 0.356160 0.220213
0.999871 0.356160 0.220213
0.000000 0.430627 0.220213
0.051143 0.430627 0.220213
0.132119 0.430627 0.220213
0.198395 0.430627 0.220213
0.247233 0.430627 0.220213
0.285370 0.430627 0.220213
0.326422 0.430627 0.220213
0.384690 0.430627 0.220213
0.474481 0.430627 0.220213
0.595575 0.430627 0.220213
0.718923 0.430627 0.220213
0.817226 0.430627 0.220213
0.888012 0.430627 0.220213
0.937431 0.430627 0.220213
0.972396 0.430627 0.220213
0.999871 0.430627 0.220213
0.000000 0.503664 0.220213
0.051143 0.503664 0.220213
0.132119 0.503664 0.220213
0.198395 0.503664 0.220213
0.247233 0.503664 0.220213
0.285370 0.503664 0.220213
0.326422 0.503664 0.220213
0.384690 0.503664 0.220213
0.474481 0.503664 0.220213
0.595575 0.503664 0.220213
0.718923 0.503664 0.220213
0.817226 0.503664 0.220213
0.888012 0.503664 0.220213
0.937431 0.503664 0.220213
0.972396 0.503664 0.220213
0.999871 0.503664 0.220213
0.000000 0.573875 0.220213
0.051143 0.573875 0.220213
0.132119 0.573875 0.220213
0.198395 0.573875 0.220213
0.247233 0.573875 0.220213
0.285370 0.573875 0.220213
0.326422 0.573875 0.220213
0.384690 0.573875 0.220213
0.474481 0.573875 0.220213
0.595575 0.573875 0.220213
0.718923 0.573875 0.220213
0.817226 0.573875 0.220213
0.888012 0.573875 0.220213
0.937431 0.573875 0.220213
0.972396 0.573875 0.220213
0.999871 0.573875 0.220213
0.000000 0.641131 0.220213
0.051143 0.641131 0.220213
0.132119 0.641131 0.220213
0.198395 0.641131 0.220213
0.247233 0.641131 0.220213
0.285370 0.641131 0.220213
0.326422 0.641131 0.220213
0.384690 0.641131 0.220213
0.474481 0.641131 0.220213
0.595575 0.641131 0.220213
0.718923 0.641131 0.220213
0.817226 0.641131 0.220213
0.888012 0.641131 0.220213
0.937431 0.641131 0.220213
0.972396 0.641131 0.220213
0.999871 0.641131 0.220213
0.000000 0.706980 0.220213
0.051143 0.706980 0.220213
0.132119 0.706980 0.220213
0.198395 0.706980 0.220213
0.247233 0.706980 0.220213
0.285370 0.706980 0.220213
0.326422 0.706980 0.220213
0.384690 0.706980 0.220213
0.474481 0.706980 0.220213
0.595575 0.706980 0.220213
0.718923 0.706980 0.220213
0.817226 0.706980 0.220213
0.888012 0.706980 0.220213
0.937431 0.706980 0.220213
0.972396 0.706980 0.220213
0.999871 0.706980 0.220213
0.000000 0.773462 0.220213
0.051143 0.773462 0.220213
0.132119 0.773462 0.220213
0.198395 0.773462 0.220213
0.247233 0.773462 0.220213
0.285370 0.773462 0.220213
0.326422 0.773462 0.220213
0.384690 0.773462 0.220213
0.474481 0.773462 0.220213
0.595575 0.773462 0.220213
0.718923 0.773462 0.220213
0.817226 0.773462 0.220213
0.888012 0.773462 0.220213
0.937431 0.773462 0.220213
0.972396 0.773462 0.220213
0.999871 0.773462 0.220213
0.000000 0.841296 0.220213
0.051143 0.841296 0.220213
0.132119 0.841296 0.220213
0.198395 0.841296 0.220213
0.247233 0.841296 0.220213
0.285370 0.841296 0.220213
0.326422 0.841296 0.220213
0.384690 0.841296 0.220213
0.474481 0.841296 0.220213
0.595575 0.841296 0.220213
0.718923 0.841296 0.220213
0.817226 0.841296 0.220213
0.888012 0.841296 0.220213
0.937431 0.841296 0.220213
0.972396 0.841296 0.220213
0.999871 0.841296 0.220213
0.000000 0.910156 0.220213
0.051143 0.910156 0.220213
0.132119 0.910156 0.220213
0.198395 0.910156 0.220213
0.247233 0.910156 0.220213
0.285370 0.910156 0.220213
0.326422 0.910156 0.220213
0.384690 0.910156 0.220213
0.474481 0.910156 0.220213
0.595575 0.910156 0.220213
0.718923 0.910156 0.220213
0.817226 0.910156 0.220213
0.888012 0.910156 0.220213
0.937431 0.910156 0.220213
0.972396 0.910156 0.220213
0.999871 0.910156 0.220213
0.000000 0.979541 0.220213
0.051143 0.979541 0.220213
0.132119 0.979541 0.220213
0.198395 0.979541 0.220213
0.247233 0.979541 0.220213
0.285370 0.979541 0.220213
0.326422 0.979541 0.220213
0.384690 0.979541 0.220213
0.474481 0.979541 0.220213
0.595575 0.979541 0.220213
0.718923 0.979541 0.220213
0.817226 0.979541 0.220213
0.888012 0.979541 0.220213
0.937431 0.979541 0.220213
0.972396 0.979541 0.220213
0.999871 0.979541 0.220213
0.000000 1.000000 0.220213
0.051143 1.000000 0.220213
0.132119 1.000000 0.220213
0.198395 1.000000 0.220213
0.247233 1.000000 0.220213
0.285370 1.000000 0.220213
0.326422 1.000000 0.220213
0.384690 1.000000 0.220213
0.474481 1.000000 0.220213
0.595575 1.000000 0.220213
0.718923 1.000000 0.220213
0.817226 1.000000 0.220213
0.888012 1.000000 0.220213
0.937431 1.000000 0.220213
0.972396 1.000000 0.220213
0.999871 1.000000 0.220213
0.000000 0.000000 0.279199
0.051143 0.000000 0.279199
0.132119 0.000000 0.279199
0.198395 0.000000 0.279199
0.247233 0.000000 0.279199
0.285370 0.000000 0.279199
0.326422 0.000000 0.279199
0.384690 0.000000 0.279199
0.474481 0.000000 0.279199
0.595575 0.000000 0.279199
0.718923 0.000000 0.279199
0.817226 0.000000 0.279199
0.888012 0.000000 0.279199
0.937431 0.000000 0.279199
0.972396 0.000000 0.279199
0.999871 0.000000 0.279199
0.000000 0.067946 0.279199
0.051143 0.067946 0.279199
0.132119 0.067946 0.279199
0.198395 0.067946 0.279199
0.247233 0.067946 0.279199
0.285370 0.067946 0.279199
0.326422 0.067946 0.279199
0.384690 0.067946 0.279199
0.474481 0.067946 0.279199
0.595575 0.067946 0.279199
0.718923 0.067946 0.279199
0.817226 0.067946 0.279199
0.888012 0.067946 0.279199
0.937431 0.067946 0.279199
0.972396 0.067946 0.279199
0.999871 0.067946 0.279199
0.000000 0.136953 0.279199
0.051143 0.136953 0.279199
0.132119 0.136953 0.279199
0.198395 0.136953 0.279199
0.247233 0.136953 0.279199
0.285370 0.136953 0.279199
0.326422 0.136953 0.279199
0.384690 0.136953 0.279199
0.474481 0.136953 0.279199
0.595575 0.136953 0.279199
0.718923 0.136953 0.279199
0.817226 0.136953 0.279199
0.888012 0.136953 0.279199
0.937431 0.136953 0.279199
0.972396 0.136953 0.279199
0.999871 0.136953 0.279199
0.000000 0.208100 0.279199
0.051143 0.208100 0.279199
0.132119 0.208100 0.279199
0.198395 0.208100 0.279199
0.247233 0.208100 0.279199
0.285370 0.208100 0.279199
0.326422 0.208100 0.279199
0.384690 0.208100 0.279199
0.474481 0.208100 0.279199
0.595575 0.208100 0.279199
0.718923 0.208100 0.279199
0.817226 0.208100 0.279199
0.888012 0.208100 0.279199
0.937431 0.208100 0.279199
0.972396 0.208100 0.279199
0.999871 0.208100 0.279199
0.000000 0.281537 0.279199
0.051143 0.281537 0.279199
0.132119 0.281537 0.279199
0.198395 0.281537 0.279199
0.247233 0.281537 0.279199
0.285370 0.281537 0.279199
0.326422 0.281537 0.279199
0.384690 0.281537 0.279199
0.474481 0.281537 0.279199
0.595575 0.281537 0.279199
0.718923 0.281537 0.279199
0.817226 0.281537 0.279199
0.888012 0.281537 0.279199
0.937431 0.281537 0.279199
0.972396 0.281537 0.279199
0.999871 0.281537 0.279199
0.000000 0.356160 0.279199
0.051143 0.356160 0.279199
0.132119 0.356160 0.279199
0.198395 0.356160 0.279199
0.247233 0.356160 0.279199
0.285370 0.356160 0.279199
0.326422 0.356160 0.279199
0.384690 0.356160 0.279199
0.474481 0.356160 0.279199
0.595575 0.356160 0.279199
0.718923 0.356160 0.279199
0.817226 0.356160 0.279199
0.888012 0.356160 0.279199
0.937431 0.356160 0.279199
0.972396 0.356160 0.279199
0.999871 0.356160 0.279199
0.000000 0.430627 0.279199
0.051143 0.430627 0.279199
0.132119 0.430627 0.279199
0.198395 0.430627 0.279199
0.247233 0.430627 0.279199
0.285370 0.430627 0.279199
0.326422 0.430627 0.279199
0.384690 0.430627 0.279199
0.474481 0.430627 0.279199
0.595575 0.430627 0.279199
0.718923 0.430627 0.279199
0.817226 0.430627 0.279199
0.888012 0.430627 0.279199
0.937431 0.430627 0.279199
0.972396 0.430627 0.279199
0.999871 0.430627 0.279199
0.000000 0.503664 0.279199
0.051143 0.503664 0.279199
0.132119 0.503664 0.279199
0.198395 0.503664 0.279199
0.247233 0.503664 0.279199
0.285370 0.503664 0.279199
0.326422 0.503664 0.279199
0.384690 0.503664 0.279199
