Assets/LUTs/Rise.cube
LUT_3D_SIZE 6
0.149902 0.149902 0.149902
0.433899 0.149902 0.149902
0.662433 0.149902 0.149902
0.809284 0.149902 0.149902
0.905805 0.149902 0.149902
0.989706 0.149902 0.149902
0.149902 0.432068 0.149902
0.433899 0.432068 0.149902
0.662433 0.432068 0.149902
0.809284 0.432068 0.149902
0.905805 0.432068 0.149902
0.989706 0.432068 0.149902
0.149902 0.652716 0.149902
0.433899 0.652716 0.149902
0.662433 0.652716 0.149902
0.809284 0.652716 0.149902
0.905805 0.652716 0.149902
0.989706 0.652716 0.149902
0.149902 0.801141 0.149902
0.433899 0.801141 0.149902
0.662433 0.801141 0.149902
0.809284 0.801141 0.149902
0.905805 0.801141 0.149902
0.989706 0.801141 0.149902
0.149902 0.905432 0.149902
0.433899 0.905432 0.149902
0.662433 0.905432 0.149902
0.809284 0.905432 0.149902
0.905805 0.905432 0.149902
0.989706 0.905432 0.149902
0.149902 0.983654 0.149902
0.433899 0.983654 0.149902
0.662433 0.983654 0.149902
0.809284 0.983654 0.149902
0.905805 0.983654 0.149902
0.989706 0.983654 0.149902
0.149902 0.149902 0.410064
0.433899 0.149902 0.410064
0.662433 0.149902 0.410064
0.809284 0.149902 0.410064
0.905805 0.149902 0.410064
0.989706 0.149902 0.410064
0.149902 0.432068 0.410064
0.433899 0.432068 0.410064
0.662433 0.432068 0.410064
0.809284 0.432068 0.410064
0.905805 0.432068 0.410064
0.989706 0.432068 0.410064
0.149902 0.652716 0.410064
0.433899 0.652716 0.410064
0.662433 0.652716 0.410064
0.809284 0.652716 0.410064
0.905805 0.652716 0.410064
0.989706 0.652716 0.410064
0.149902 0.801141 0.410064
0.433899 0.801141 0.410064
0.662433 0.801141 0.410064
0.809284 0.801141 0.410064
0.905805 0.801141 0.410064
0.989706 0.801141 0.410064
0.149902 0.905432 0.410064
0.433899 0.905432 0.410064
0.662433 0.905432 0.410064
0.809284 0.905432 0.410064
0.905805 0.905432 0.410064
0.989706 0.905432 0.410064
0.149902 0.983654 0.410064
0.433899 0.983654 0.410064
0.662433 0.983654 0.410064
0.809284 0.983654 0.410064
0.905805 0.983654 0.410064
0.989706 0.983654 0.410064
0.149902 0.149902 0.633344
0.433899 0.149902 0.633344
0.662433 0.149902 0.633344
0.809284 0.149902 0.633344
0.905805 0.149902 0.633344
0.989706 0.149902 0.633344
0.149902 0.432068 0.633344
0.433899 0.432068 0.633344
0.662433 0.432068 0.633344
0.809284 0.432068 0.633344
0.905805 0.432068 0.633344
0.989706 0.432068 0.633344
0.149902 0.652716 0.633344
0.433899 0.652716 0.633344
0.662433 0.652716 0.633344
0.809284 0.652716 0.633344
0.905805 0.652716 0.633344
0.989706 0.652716 0.633344
0.149902 0.801141 0.633344
0.433899 0.801141 0.633344
0.662433 0.801141 0.633344
0.809284 0.801141 0.633344
0.905805 0.801141 0.633344
0.989706 0.801141 0.633344
0.149902 0.905432 0.633344
0.433899 0.905432 0.633344
0.662433 0.905432 0.633344
0.809284 0.905432 0.633344
0.905805 0.905432 0.633344
0.989706 0.905432 0.633344
0.149902 0.983654 0.633344
0.433899 0.983654 0.633344
0.662433 0.983654 0.633344
0.809284 0.983654 0.633344
0.905805 0.983654 0.633344
0.989706 0.983654 0.633344
0.149902 0.149902 0.780927
0.433899 0.149902 0.780927
0.662433 0.149902 0.780927
0.809284 0.149902 0.780927
0.905805 0.149902 0.780927
0.989706 0.149902 0.780927
0.149902 0.432068 0.780927
0.433899 0.432068 0.780927
0.662433 0.432068 0.780927
0.809284 0.432068 0.780927
0.905805 0.432068 0.780927
0.989706 0.432068 0.780927
0.149902 0.652716 0.780927
0.433899 0.652716 0.780927
0.662433 0.652716 0.780927
0.809284 0.652716 0.780927
0.905805 0.652716 0.780927
0.989706 0.652716 0.780927
0.149902 0.801141 0.780927
0.433899 0.801141 0.780927
0.662433 0.801141 0.780927
0.809284 0.801141 0.780927
0.905805 0.801141 0.780927
0.989706 0.801141 0.780927
0.149902 0.905432 0.780927
0.433899 0.905432 0.780927
0.662433 0.905432 0.780927
0.809284 0.905432 0.780927
0.905805 0.905432 0.780927
0.989706 0.905432 0.780927
0.149902 0.983654 0.780927
0.433899 0.983654 0.780927
0.662433 0.983654 0.780927
0.809284 0.983654 0.780927
0.905805 0.983654 0.780927
0.989706 0.983654 0.780927
0.149902 0.149902 0.891962
0.433899 0.149902 0.891962
0.662433 0.149902 0.891962
0.809284 0.149902 0.891962
0.905805 0.149902 0.891962
0.989706 0.149902 0.891962
0.149902 0.432068 0.891962
0.433899 0.432068 0.891962
0.662433 0.432068 0.891962
0.809284 0.432068 0.891962
0.905805 0.432068 0.891962
0.989706 0.432068 0.891962
0.149902 0.652716 0.891962
0.433899 0.652716 0.891962
0.662433 0.652716 0.891962
0.809284 0.652716 0.891962
0.905805 0.652716 0.891962
0.989706 0.652716 0.891962
0.149902 0.801141 0.891962
0.433899 0.801141 0.891962
0.662433 0.801141 0.891962
0.809284 0.801141 0.891962
0.905805 0.801141 0.891962
0.989706 0.801141 0.891962
0.149902 0.905432 0.891962
0.433899 0.905432 0.891962
0.662433 0.905432 0.891962
0.809284 0.905432 0.891962
0.905805 0.905432 0.891962
0.989706 0.905432 0.891962
0.149902 0.983654 0.891962
0.433899 0.983654 0.891962
0.662433 0.983654 0.891962
0.809284 0.983654 0.891962
0.905805 0.983654 0.891962
0.989706 0.983654 0.891962
0.149902 0.149902 0.999826
0.433899 0.149902 0.999826
0.662433 0.149902 0.999826
0.809284 0.149902 0.999826
0.905805 0.149902 0.999826
0.989706 0.149902 0.999826
0.149902 0.432068 0.999826
0.433899 0.432068 0.999826
0.662433 0.432068 0.999826
0.809284 0.432068 0.999826
0.905805 0.432068 0.999826
0.989706 0.432068 0.999826
0.149902 0.652716 0.999826
0.433899 0.652716 0.999826
0.662433 0.652716 0.999826
0.809284 0.652716 0.999826
0.905805 0.652716 0.999826
0.989706 0.652716 0.999826
0.149902 0.801141 0.999826
0.433899 0.801141 0.999826
0.662433 0.801141 0.999826
0.809284 0.801141 0.999826
0.905805 0.801141 0.999826
0.989706 0.801141 0.999826
0.149902 0.905432 0.999826
0.433899 0.905432 0.999826
0.662433 0.905432 0.999826
0.809284 0.905432 0.999826
0.905805 0.905432 0.999826
0.989706 0.905432 0.999826
0.149902 0.983654 0.999826
0.433899 0.983654 0.999826
0.662433 0.983654 0.999826
0.809284 0.983654 0.999826
0.905805 0.983654 0.999826
0.989706 0.983654 0.999826
