Assets/LUTs/Rise.cube
LUT_3D_SIZE 16
0.149902 0.149902 0.149902
0.248720 0.149902 0.149902
0.344435 0.149902 0.149902
0.433899 0.149902 0.149902
0.517322 0.149902 0.149902
0.594350 0.149902 0.149902
0.662433 0.149902 0.149902
0.720537 0.149902 0.149902
0.768962 0.149902 0.149902
0.809284 0.149902 0.149902
0.844055 0.149902 0.149902
0.875812 0.149902 0.149902
0.905805 0.149902 0.149902
0.934544 0.149902 0.149902
0.962398 0.149902 0.149902
0.989706 0.149902 0.149902
0.149902 0.248769 0.149902
0.248720 0.248769 0.149902
0.344435 0.248769 0.149902
0.433899 0.248769 0.149902
0.517322 0.248769 0.149902
0.594350 0.248769 0.149902
0.662433 0.248769 0.149902
0.720537 0.248769 0.149902
0.768962 0.248769 0.149902
0.809284 0.248769 0.149902
0.844055 0.248769 0.149902
0.875812 0.248769 0.149902
0.905805 0.248769 0.149902
0.934544 0.248769 0.149902
0.962398 0.248769 0.149902
0.989706 0.248769 0.149902
0.149902 0.343970 0.149902
0.248720 0.343970 0.149902
0.344435 0.343970 0.149902
0.433899 0.343970 0.149902
0.517322 0.343970 0.149902
0.594350 0.343970 0.149902
0.662433 0.343970 0.149902
0.720537 0.343970 0.149902
0.768962 0.343970 0.149902
0.809284 0.343970 0.149902
0.844055 0.343970 0.149902
0.875812 0.343970 0.149902
0.905805 0.343970 0.149902
0.934544 0.343970 0.149902
0.962398 0.343970 0.149902
0.989706 0.343970 0.149902
0.149902 0.432068 0.149902
0.248720 0.432068 0.149902
0.344435 0.432068 0.149902
0.433899 0.432068 0.149902
0.517322 0.432068 0.149902
0.594350 0.432068 0.149902
0.662433 0.432068 0.149902
0.720537 0.432068 0.149902
0.768962 0.432068 0.149902
0.809284 0.432068 0.149902
0.844055 0.432068 0.149902
0.875812 0.432068 0.149902
0.905805 0.432068 0.149902
0.934544 0.432068 0.149902
0.962398 0.432068 0.149902
0.989706 0.432068 0.149902
0.149902 0.513241 0.149902
0.248720 0.513241 0.149902
0.344435 0.513241 0.149902
0.433899 0.513241 0.149902
0.517322 0.513241 0.149902
0.594350 0.513241 0.149902
0.662433 0.513241 0.149902
0.720537 0.513241 0.149902
0.768962 0.513241 0.149902
0.809284 0.513241 0.149902
0.844055 0.513241 0.149902
0.875812 0.513241 0.149902
0.905805 0.513241 0.149902
0.934544 0.513241 0.149902
0.962398 0.513241 0.149902
0.989706 0.513241 0.149902
0.149902 0.587209 0.149902
0.248720 0.587209 0.149902
0.344435 0.587209 0.149902
0.433899 0.587209 0.149902
0.517322 0.587209 0.149902
0.594350 0.587209 0.149902
0.662433 0.587209 0.149902
0.720537 0.587209 0.149902
0.768962 0.587209 0.149902
0.809284 0.587209 0.149902
0.844055 0.587209 0.149902
0.875812 0.587209 0.149902
0.905805 0.587209 0.149902
0.934544 0.587209 0.149902
0.962398 0.587209 0.149902
0.989706 0.587209 0.149902
0.149902 0.652716 0.149902
0.248720 0.652716 0.149902
0.344435 0.652716 0.149902
0.433899 0.652716 0.149902
0.517322 0.652716 0.149902
0.594350 0.652716 0.149902
0.662433 0.652716 0.149902
0.720537 0.652716 0.149902
0.768962 0.652716 0.149902
0.809284 0.652716 0.149902
0.844055 0.652716 0.149902
0.875812 0.652716 0.149902
0.905805 0.652716 0.149902
0.934544 0.652716 0.149902
0.962398 0.652716 0.149902
0.989706 0.652716 0.149902
0.149902 0.709646 0.149902
0.248720 0.709646 0.149902
0.344435 0.709646 0.149902
0.433899 0.709646 0.149902
0.517322 0.709646 0.149902
0.594350 0.709646 0.149902
0.662433 0.709646 0.149902
0.720537 0.709646 0.149902
0.768962 0.709646 0.149902
0.809284 0.709646 0.149902
0.844055 0.709646 0.149902
0.875812 0.709646 0.149902
0.905805 0.709646 0.149902
0.934544 0.709646 0.149902
0.962398 0.709646 0.149902
0.989706 0.709646 0.149902
0.149902 0.758683 0.149902
0.248720 0.758683 0.149902
0.344435 0.758683 0.149902
0.433899 0.758683 0.149902
0.517322 0.758683 0.149902
0.594350 0.758683 0.149902
0.662433 0.758683 0.149902
0.720537 0.758683 0.149902
0.768962 0.758683 0.149902
0.809284 0.758683 0.149902
0.844055 0.758683 0.149902
0.875812 0.758683 0.149902
0.905805 0.758683 0.149902
0.934544 0.758683 0.149902
0.962398 0.758683 0.149902
0.989706 0.758683 0.149902
0.149902 0.801141 0.149902
0.248720 0.801141 0.149902
0.344435 0.801141 0.149902
0.433899 0.801141 0.149902
0.517322 0.801141 0.149902
0.594350 0.801141 0.149902
0.662433 0.801141 0.149902
0.720537 0.801141 0.149902
0.768962 0.801141 0.149902
0.809284 0.801141 0.149902
0.844055 0.801141 0.149902
0.875812 0.801141 0.149902
0.905805 0.801141 0.149902
0.934544 0.801141 0.149902
0.962398 0.801141 0.149902
0.989706 0.801141 0.149902
0.149902 0.838796 0.149902
0.248720 0.838796 0.149902
0.344435 0.838796 0.149902
0.433899 0.838796 0.149902
0.517322 0.838796 0.149902
0.594350 0.838796 0.149902
0.662433 0.838796 0.149902
0.720537 0.838796 0.149902
0.768962 0.838796 0.149902
0.809284 0.838796 0.149902
0.844055 0.838796 0.149902
0.875812 0.838796 0.149902
0.905805 0.838796 0.149902
0.934544 0.838796 0.149902
0.962398 0.838796 0.149902
0.989706 0.838796 0.149902
0.149902 0.873317 0.149902
0.248720 0.873317 0.149902
0.344435 0.873317 0.149902
0.433899 0.873317 0.149902
0.517322 0.873317 0.149902
0.594350 0.873317 0.149902
0.662433 0.873317 0.149902
0.720537 0.873317 0.149902
0.768962 0.873317 0.149902
0.809284 0.873317 0.149902
0.844055 0.873317 0.149902
0.875812 0.873317 0.149902
0.905805 0.873317 0.149902
0.934544 0.873317 0.149902
0.962398 0.873317 0.149902
0.989706 0.873317 0.149902
0.149902 0.905432 0.149902
0.248720 0.905432 0.149902
0.344435 0.905432 0.149902
0.433899 0.905432 0.149902
0.517322 0.905432 0.149902
0.594350 0.905432 0.149902
0.662433 0.905432 0.149902
0.720537 0.905432 0.149902
0.768962 0.905432 0.149902
0.809284 0.905432 0.149902
0.844055 0.905432 0.149902
0.875812 0.905432 0.149902
0.905805 0.905432 0.149902
0.934544 0.905432 0.149902
0.962398 0.905432 0.149902
0.989706 0.905432 0.149902
0.149902 0.934651 0.149902
0.248720 0.934651 0.149902
0.344435 0.934651 0.149902
0.433899 0.934651 0.149902
0.517322 0.934651 0.149902
0.594350 0.934651 0.149902
0.662433 0.934651 0.149902
0.720537 0.934651 0.149902
0.768962 0.934651 0.149902
0.809284 0.934651 0.149902
0.844055 0.934651 0.149902
0.875812 0.934651 0.149902
0.905805 0.934651 0.149902
0.934544 0.934651 0.149902
0.962398 0.934651 0.149902
0.989706 0.934651 0.149902
0.149902 0.960412 0.149902
0.248720 0.960412 0.149902
0.344435 0.960412 0.149902
0.433899 0.960412 0.149902
0.517322 0.960412 0.149902
0.594350 0.960412 0.149902
0.662433 0.960412 0.149902
0.720537 0.960412 0.149902
0.768962 0.960412 0.149902
0.809284 0.960412 0.149902
0.844055 0.960412 0.149902
0.875812 0.960412 0.149902
0.905805 0.960412 0.149902
0.934544 0.960412 0.149902
0.962398 0.960412 0.149902
0.989706 0.960412 0.149902
0.149902 0.983654 0.149902
0.248720 0.983654 0.149902
0.344435 0.983654 0.149902
0.433899 0.983654 0.149902
0.517322 0.983654 0.149902
0.594350 0.983654 0.149902
0.662433 0.983654 0.149902
0.720537 0.983654 0.149902
0.768962 0.983654 0.149902
0.809284 0.983654 0.149902
0.844055 0.983654 0.149902
0.875812 0.983654 0.149902
0.905805 0.983654 0.149902
0.934544 0.983654 0.149902
0.962398 0.983654 0.149902
0.989706 0.983654 0.149902
0.149902 0.149902 0.207749
0.248720 0.149902 0.207749
0.344435 0.149902 0.207749
0.433899 0.149902 0.207749
0.517322 0.149902 0.207749
0.594350 0.149902 0.207749
0.662433 0.149902 0.207749
0.720537 0.149902 0.207749
0.768962 0.149902 0.207749
0.809284 0.149902 0.207749
0.844055 0.149902 0.207749
0.875812 0.149902 0.207749
0.905805 0.149902 0.207749
0.934544 0.149902 0.207749
0.962398 0.149902 0.207749
0.989706 0.149902 0.207749
0.149902 0.248769 0.207749
0.248720 0.248769 0.207749
0.344435 0.248769 0.207749
0.433899 0.248769 0.207749
0.517322 0.248769 0.207749
0.594350 0.248769 0.207749
0.662433 0.248769 0.207749
0.720537 0.248769 0.207749
0.768962 0.248769 0.207749
0.809284 0.248769 0.207749
0.844055 0.248769 0.207749
0.875812 0.248769 0.207749
0.905805 0.248769 0.207749
0.934544 0.248769 0.207749
0.962398 0.248769 0.207749
0.989706 0.248769 0.207749
0.149902 0.343970 0.207749
0.248720 0.343970 0.207749
0.344435 0.343970 0.207749
0.433899 0.343970 0.207749
0.517322 0.343970 0.207749
0.594350 0.343970 0.207749
0.662433 0.343970 0.207749
0.720537 0.343970 0.207749
0.768962 0.343970 0.207749
0.809284 0.343970 0.207749
0.844055 0.343970 0.207749
0.875812 0.343970 0.207749
0.905805 0.343970 0.207749
0.934544 0.343970 0.207749
0.962398 0.343970 0.207749
0.989706 0.343970 0.207749
0.149902 0.432068 0.207749
0.248720 0.432068 0.207749
0.344435 0.432068 0.207749
0.433899 0.432068 0.207749
0.517322 0.432068 0.207749
0.594350 0.432068 0.207749
0.662433 0.432068 0.207749
0.720537 0.432068 0.207749
0.768962 0.432068 0.207749
0.809284 0.432068 0.207749
0.844055 0.432068 0.207749
0.875812 0.432068 0.207749
0.905805 0.432068 0.207749
0.934544 0.432068 0.207749
0.962398 0.432068 0.207749
0.989706 0.432068 0.207749
0.149902 0.513241 0.207749
0.248720 0.513241 0.207749
0.344435 0.513241 0.207749
0.433899 0.513241 0.207749
0.517322 0.513241 0.207749
0.594350 0.513241 0.207749
0.662433 0.513241 0.207749
0.720537 0.513241 0.207749
0.768962 0.513241 0.207749
0.809284 0.513241 0.207749
0.844055 0.513241 0.207749
0.875812 0.513241 0.207749
0.905805 0.513241 0.207749
0.934544 0.513241 0.207749
0.962398 0.513241 0.207749
0.989706 0.513241 0.207749
0.149902 0.587209 0.207749
0.248720 0.587209 0.207749
0.344435 0.587209 0.207749
0.433899 0.587209 0.207749
0.517322 0.587209 0.207749
0.594350 0.587209 0.207749
0.662433 0.587209 0.207749
0.720537 0.587209 0.207749
0.768962 0.587209 0.207749
0.809284 0.587209 0.207749
0.844055 0.587209 0.207749
0.875812 0.587209 0.207749
0.905805 0.587209 0.207749
0.934544 0.587209 0.207749
0.962398 0.587209 0.207749
0.989706 0.587209 0.207749
0.149902 0.652716 0.207749
0.248720 0.652716 0.207749
0.344435 0.652716 0.207749
0.433899 0.652716 0.207749
0.517322 0.652716 0.207749
0.594350 0.652716 0.207749
0.662433 0.652716 0.207749
0.720537 0.652716 0.207749
0.768962 0.652716 0.207749
0.809284 0.652716 0.207749
0.844055 0.652716 0.207749
0.875812 0.652716 0.207749
0.905805 0.652716 0.207749
0.934544 0.652716 0.207749
0.962398 0.652716 0.207749
0.989706 0.652716 0.207749
0.149902 0.709646 0.207749
0.248720 0.709646 0.207749
0.344435 0.709646 0.207749
0.433899 0.709646 0.207749
0.517322 0.709646 0.207749
0.594350 0.709646 0.207749
0.662433 0.709646 0.207749
0.720537 0.709646 0.207749
0.768962 0.709646 0.207749
0.809284 0.709646 0.207749
0.844055 0.709646 0.207749
0.875812 0.709646 0.207749
0.905805 0.709646 0.207749
0.934544 0.709646 0.207749
0.962398 0.709646 0.207749
0.989706 0.709646 0.207749
0.149902 0.758683 0.207749
0.248720 0.758683 0.207749
0.344435 0.758683 0.207749
0.433899 0.758683 0.207749
0.517322 0.758683 0.207749
0.594350 0.758683 0.207749
0.662433 0.758683 0.207749
0.720537 0.758683 0.207749
0.768962 0.758683 0.207749
0.809284 0.758683 0.207749
0.844055 0.758683 0.207749
0.875812 0.758683 0.207749
0.905805 0.758683 0.207749
0.934544 0.758683 0.207749
0.962398 0.758683 0.207749
0.989706 0.758683 0.207749
0.149902 0.801141 0.207749
0.248720 0.801141 0.207749
0.344435 0.801141 0.207749
0.433899 0.801141 0.207749
0.517322 0.801141 0.207749
0.594350 0.801141 0.207749
0.662433 0.801141 0.207749
0.720537 0.801141 0.207749
0.768962 0.801141 0.207749
0.809284 0.801141 0.207749
0.844055 0.801141 0.207749
0.875812 0.801141 0.207749
0.905805 0.801141 0.207749
0.934544 0.801141 0.207749
0.962398 0.801141 0.207749
0.989706 0.801141 0.207749
0.149902 0.838796 0.207749
0.248720 0.838796 0.207749
0.344435 0.838796 0.207749
0.433899 0.838796 0.207749
0.517322 0.838796 0.207749
0.594350 0.838796 0.207749
0.662433 0.838796 0.207749
0.720537 0.838796 0.207749
0.768962 0.838796 0.207749
0.809284 0.838796 0.207749
0.844055 0.838796 0.207749
0.875812 0.838796 0.207749
0.905805 0.838796 0.207749
0.934544 0.838796 0.207749
0.962398 0.838796 0.207749
0.989706 0.838796 0.207749
0.149902 0.873317 0.207749
0.248720 0.873317 0.207749
0.344435 0.873317 0.207749
0.433899 0.873317 0.207749
0.517322 0.873317 0.207749
0.594350 0.873317 0.207749
0.662433 0.873317 0.207749
0.720537 0.873317 0.207749
0.768962 0.873317 0.207749
0.809284 0.873317 0.207749
0.844055 0.873317 0.207749
0.875812 0.873317 0.207749
0.905805 0.873317 0.207749
0.934544 0.873317 0.207749
0.962398 0.873317 0.207749
0.989706 0.873317 0.207749
0.149902 0.905432 0.207749
0.248720 0.905432 0.207749
0.344435 0.905432 0.207749
0.433899 0.905432 0.207749
0.517322 0.905432 0.207749
0.594350 0.905432 0.207749
0.662433 0.905432 0.207749
0.720537 0.905432 0.207749
0.768962 0.905432 0.207749
0.809284 0.905432 0.207749
0.844055 0.905432 0.207749
0.875812 0.905432 0.207749
0.905805 0.905432 0.207749
0.934544 0.905432 0.207749
0.962398 0.905432 0.207749
0.989706 0.905432 0.207749
0.149902 0.934651 0.207749
0.248720 0.934651 0.207749
0.344435 0.934651 0.207749
0.433899 0.934651 0.207749
0.517322 0.934651 0.207749
0.594350 0.934651 0.207749
0.662433 0.934651 0.207749
0.720537 0.934651 0.207749
0.768962 0.934651 0.207749
0.809284 0.934651 0.207749
0.844055 0.934651 0.207749
0.875812 0.934651 0.207749
0.905805 0.934651 0.207749
0.934544 0.934651 0.207749
0.962398 0.934651 0.207749
0.989706 0.934651 0.207749
0.149902 0.960412 0.207749
0.248720 0.960412 0.207749
0.344435 0.960412 0.207749
0.433899 0.960412 0.207749
0.517322 0.960412 0.207749
0.594350 0.960412 0.207749
0.662433 0.960412 0.207749
0.720537 0.960412 0.207749
0.768962 0.960412 0.207749
0.809284 0.960412 0.207749
0.844055 0.960412 0.207749
0.875812 0.960412 0.207749
0.905805 0.960412 0.207749
0.934544 0.960412 0.207749
0.962398 0.960412 0.207749
0.989706 0.960412 0.207749
0.149902 0.983654 0.207749
0.248720 0.983654 0.207749
0.344435 0.983654 0.207749
0.433899 0.983654 0.207749
0.517322 0.983654 0.207749
0.594350 0.983654 0.207749
0.662433 0.983654 0.207749
0.720537 0.983654 0.207749
0.768962 0.983654 0.207749
0.809284 0.983654 0.207749
0.844055 0.983654 0.207749
0.875812 0.983654 0.207749
0.905805 0.983654 0.207749
0.934544 0.983654 0.207749
0.962398 0.983654 0.207749
0.989706 0.983654 0.207749
0.149902 0.149902 0.314032
0.248720 0.149902 0.314032
0.344435 0.149902 0.314032
0.433899 0.149902 0.314032
0.517322 0.149902 0.314032
0.594350 0.149902 0.314032
0.662433 0.149902 0.314032
0.720537 0.149902 0.314032
0.768962 0.149902 0.314032
0.809284 0.149902 0.314032
0.844055 0.149902 0.314032
0.875812 0.149902 0.314032
0.905805 0.149902 0.314032
0.934544 0.149902 0.314032
0.962398 0.149902 0.314032
0.989706 0.149902 0.314032
0.149902 0.248769 0.314032
0.248720 0.248769 0.314032
0.344435 0.248769 0.314032
0.433899 0.248769 0.314032
0.517322 0.248769 0.314032
0.594350 0.248769 0.314032
0.662433 0.248769 0.314032
0.720537 0.248769 0.314032
0.768962 0.248769 0.314032
0.809284 0.248769 0.314032
0.844055 0.248769 0.314032
0.875812 0.248769 0.314032
0.905805 0.248769 0.314032
0.934544 0.248769 0.314032
0.962398 0.248769 0.314032
0.989706 0.248769 0.314032
0.149902 0.343970 0.314032
0.248720 0.343970 0.314032
0.344435 0.343970 0.314032
0.433899 0.343970 0.314032
0.517322 0.343970 0.314032
0.594350 0.343970 0.314032
0.662433 0.343970 0.314032
0.720537 0.343970 0.314032
0.768962 0.343970 0.314032
0.809284 0.343970 0.314032
0.844055 0.343970 0.314032
0.875812 0.343970 0.314032
0.905805 0.343970 0.314032
0.934544 0.343970 0.314032
0.962398 0.343970 0.314032
0.989706 0.343970 0.314032
0.149902 0.432068 0.314032
0.248720 0.432068 0.314032
0.344435 0.432068 0.314032
0.433899 0.432068 0.314032
0.517322 0.432068 0.314032
0.594350 0.432068 0.314032
0.662433 0.432068 0.314032
0.720537 0.432068 0.314032
0.768962 0.432068 0.314032
0.809284 0.432068 0.314032
0.844055 0.432068 0.314032
0.875812 0.432068 0.314032
0.905805 0.432068 0.314032
0.934544 0.432068 0.314032
0.962398 0.432068 0.314032
0.989706 0.432068 0.314032
0.149902 0.513241 0.314032
0.248720 0.513241 0.314032
0.344435 0.513241 0.314032
0.433899 0.513241 0.314032
0.517322 0.513241 0.314032
0.594350 0.513241 0.314032
0.662433 0.513241 0.314032
0.720537 0.513241 0.314032
0.768962 0.513241 0.314032
0.809284 0.513241 0.314032
0.844055 0.513241 0.314032
0.875812 0.513241 0.314032
0.905805 0.513241 0.314032
0.934544 0.513241 0.314032
0.962398 0.513241 0.314032
0.989706 0.513241 0.314032
0.149902 0.587209 0.314032
0.248720 0.587209 0.314032
0.344435 0.587209 0.314032
0.433899 0.587209 0.314032
0.517322 0.587209 0.314032
0.594350 0.587209 0.314032
0.662433 0.587209 0.314032
0.720537 0.587209 0.314032
0.768962 0.587209 0.314032
0.809284 0.587209 0.314032
0.844055 0.587209 0.314032
0.875812 0.587209 0.314032
0.905805 0.587209 0.314032
0.934544 0.587209 0.314032
0.962398 0.587209 0.314032
0.989706 0.587209 0.314032
0.149902 0.652716 0.314032
0.248720 0.652716 0.314032
0.344435 0.652716 0.314032
0.433899 0.652716 0.314032
0.517322 0.652716 0.314032
0.594350 0.652716 0.314032
0.662433 0.652716 0.314032
0.720537 0.652716 0.314032
0.768962 0.652716 0.314032
0.809284 0.652716 0.314032
0.844055 0.652716 0.314032
0.875812 0.652716 0.314032
0.905805 0.652716 0.314032
0.934544 0.652716 0.314032
0.962398 0.652716 0.314032
0.989706 0.652716 0.314032
0.149902 0.709646 0.314032
0.248720 0.709646 0.314032
0.344435 0.709646 0.314032
0.433899 0.709646 0.314032
0.517322 0.709646 0.314032
0.594350 0.709646 0.314032
0.662433 0.709646 0.314032
0.720537 0.709646 0.314032
0.768962 0.709646 0.314032
0.809284 0.709646 0.314032
0.844055 0.709646 0.314032
0.875812 0.709646 0.314032
0.905805 0.709646 0.314032
0.934544 0.709646 0.314032
0.962398 0.709646 0.314032
0.989706 0.709646 0.314032
0.149902 0.758683 0.314032
0.248720 0.758683 0.314032
0.344435 0.758683 0.314032
0.433899 0.758683 0.314032
0.517322 0.758683 0.314032
0.594350 0.758683 0.314032
0.662433 0.758683 0.314032
0.720537 0.758683 0.314032
0.768962 0.758683 0.314032
0.809284 0.758683 0.314032
0.844055 0.758683 0.314032
0.875812 0.758683 0.314032
0.905805 0.758683 0.314032
0.934544 0.758683 0.314032
0.962398 0.758683 0.314032
0.989706 0.758683 0.314032
0.149902 0.801141 0.314032
0.248720 0.801141 0.314032
0.344435 0.801141 0.314032
0.433899 0.801141 0.314032
0.517322 0.801141 0.314032
0.594350 0.801141 0.314032
0.662433 0.801141 0.314032
0.720537 0.801141 0.314032
0.768962 0.801141 0.314032
0.809284 0.801141 0.314032
0.844055 0.801141 0.314032
0.875812 0.801141 0.314032
0.905805 0.801141 0.314032
0.934544 0.801141 0.314032
0.962398 0.801141 0.314032
0.989706 0.801141 0.314032
0.149902 0.838796 0.314032
0.248720 0.838796 0.314032
0.344435 0.838796 0.314032
0.433899 0.838796 0.314032
0.517322 0.838796 0.314032
0.594350 0.838796 0.314032
0.662433 0.838796 0.314032
0.720537 0.838796 0.314032
0.768962 0.838796 0.314032
0.809284 0.838796 0.314032
0.844055 0.838796 0.314032
0.875812 0.838796 0.314032
0.905805 0.838796 0.314032
0.934544 0.838796 0.314032
0.962398 0.838796 0.314032
0.989706 0.838796 0.314032
0.149902 0.873317 0.314032
0.248720 0.873317 0.314032
0.344435 0.873317 0.314032
0.433899 0.873317 0.314032
0.517322 0.873317 0.314032
0.594350 0.873317 0.314032
0.662433 0.873317 0.314032
0.720537 0.873317 0.314032
0.768962 0.873317 0.314032
0.809284 0.873317 0.314032
0.844055 0.873317 0.314032
0.875812 0.873317 0.314032
0.905805 0.873317 0.314032
0.934544 0.873317 0.314032
0.962398 0.873317 0.314032
0.989706 0.873317 0.314032
0.149902 0.905432 0.314032
0.248720 0.905432 0.314032
0.344435 0.905432 0.314032
0.433899 0.905432 0.314032
0.517322 0.905432 0.314032
0.594350 0.905432 0.314032
0.662433 0.905432 0.314032
0.720537 0.905432 0.314032
0.768962 0.905432 0.314032
0.809284 0.905432 0.314032
0.844055 0.905432 0.314032
0.875812 0.905432 0.314032
0.905805 0.905432 0.314032
0.934544 0.905432 0.314032
0.962398 0.905432 0.314032
0.989706 0.905432 0.314032
0.149902 0.934651 0.314032
0.248720 0.934651 0.314032
0.344435 0.934651 0.314032
0.433899 0.934651 0.314032
0.517322 0.934651 0.314032
0.594350 0.934651 0.314032
0.662433 0.934651 0.314032
0.720537 0.934651 0.314032
0.768962 0.934651 0.314032
0.809284 0.934651 0.314032
0.844055 0.934651 0.314032
0.875812 0.934651 0.314032
0.905805 0.934651 0.314032
0.934544 0.934651 0.314032
0.962398 0.934651 0.314032
0.989706 0.934651 0.314032
0.149902 0.960412 0.314032
0.248720 0.960412 0.314032
0.344435 0.960412 0.314032
0.433899 0.960412 0.314032
0.517322 0.960412 0.314032
0.594350 0.960412 0.314032
0.662433 0.960412 0.314032
0.720537 0.960412 0.314032
0.768962 0.960412 0.314032
0.809284 0.960412 0.314032
0.844055 0.960412 0.314032
0.875812 0.960412 0.314032
0.905805 0.960412 0.314032
0.934544 0.960412 0.314032
0.962398 0.960412 0.314032
0.989706 0.960412 0.314032
0.149902 0.983654 0.314032
0.248720 0.983654 0.314032
0.344435 0.983654 0.314032
0.433899 0.983654 0.314032
0.517322 0.983654 0.314032
0.594350 0.983654 0.314032
0.662433 0.983654 0.314032
0.720537 0.983654 0.314032
0.768962 0.983654 0.314032
0.809284 0.983654 0.314032
0.844055 0.983654 0.314032
0.875812 0.983654 0.314032
0.905805 0.983654 0.314032
0.934544 0.983654 0.314032
0.962398 0.983654 0.314032
0.989706 0.983654 0.314032
0.149902 0.149902 0.410064
0.248720 0.149902 0.410064
0.344435 0.149902 0.410064
0.433899 0.149902 0.410064
0.517322 0.149902 0.410064
0.594350 0.149902 0.410064
0.662433 0.149902 0.410064
0.720537 0.149902 0.410064
0.768962 0.149902 0.410064
0.809284 0.149902 0.410064
0.844055 0.149902 0.410064
0.875812 0.149902 0.410064
0.905805 0.149902 0.410064
0.934544 0.149902 0.410064
0.962398 0.149902 0.410064
0.989706 0.149902 0.410064
0.149902 0.248769 0.410064
0.248720 0.248769 0.410064
0.344435 0.248769 0.410064
0.433899 0.248769 0.410064
0.517322 0.248769 0.410064
0.594350 0.248769 0.410064
0.662433 0.248769 0.410064
0.720537 0.248769 0.410064
0.768962 0.248769 0.410064
0.809284 0.248769 0.410064
0.844055 0.248769 0.410064
0.875812 0.248769 0.410064
0.905805 0.248769 0.410064
0.934544 0.248769 0.410064
0.962398 0.248769 0.410064
0.989706 0.248769 0.410064
0.149902 0.343970 0.410064
0.248720 0.343970 0.410064
0.344435 0.343970 0.410064
0.433899 0.343970 0.410064
0.517322 0.343970 0.410064
0.594350 0.343970 0.410064
0.662433 0.343970 0.410064
0.720537 0.343970 0.410064
0.768962 0.343970 0.410064
0.809284 0.343970 0.410064
0.844055 0.343970 0.410064
0.875812 0.343970 0.410064
0.905805 0.343970 0.410064
0.934544 0.343970 0.410064
0.962398 0.343970 0.410064
0.989706 0.343970 0.410064
0.149902 0.432068 0.410064
0.248720 0.432068 0.410064
0.344435 0.432068 0.410064
0.433899 0.432068 0.410064
0.517322 0.432068 0.410064
0.594350 0.432068 0.410064
0.662433 0.432068 0.410064
0.720537 0.432068 0.410064
0.768962 0.432068 0.410064
0.809284 0.432068 0.410064
0.844055 0.432068 0.410064
0.875812 0.432068 0.410064
0.905805 0.432068 0.410064
0.934544 0.432068 0.410064
0.962398 0.432068 0.410064
0.989706 0.432068 0.410064
0.149902 0.513241 0.410064
0.248720 0.513241 0.410064
0.344435 0.513241 0.410064
0.433899 0.513241 0.410064
0.517322 0.513241 0.410064
0.594350 0.513241 0.410064
0.662433 0.513241 0.410064
0.720537 0.513241 0.410064
0.768962 0.513241 0.410064
0.809284 0.513241 0.410064
0.844055 0.513241 0.410064
0.875812 0.513241 0.410064
0.905805 0.513241 0.410064
0.934544 0.513241 0.410064
0.962398 0.513241 0.410064
0.989706 0.513241 0.410064
0.149902 0.587209 0.410064
0.248720 0.587209 0.410064
0.344435 0.587209 0.410064
0.433899 0.587209 0.410064
0.517322 0.587209 0.410064
0.594350 0.587209 0.410064
0.662433 0.587209 0.410064
0.720537 0.587209 0.410064
0.768962 0.587209 0.410064
0.809284 0.587209 0.410064
0.844055 0.587209 0.410064
0.875812 0.587209 0.410064
0.905805 0.587209 0.410064
0.934544 0.587209 0.410064
0.962398 0.587209 0.410064
0.989706 0.587209 0.410064
0.149902 0.652716 0.410064
0.248720 0.652716 0.410064
0.344435 0.652716 0.410064
0.433899 0.652716 0.410064
0.517322 0.652716 0.410064
0.594350 0.652716 0.410064
0.662433 0.652716 0.410064
0.720537 0.652716 0.410064
0.768962 0.652716 0.410064
0.809284 0.652716 0.410064
0.844055 0.652716 0.410064
0.875812 0.652716 0.410064
0.905805 0.652716 0.410064
0.934544 0.652716 0.410064
0.962398 0.652716 0.410064
0.989706 0.652716 0.410064
0.149902 0.709646 0.410064
0.248720 0.709646 0.410064
0.344435 0.709646 0.410064
0.433899 0.709646 0.410064
0.517322 0.709646 0.410064
0.594350 0.709646 0.410064
0.662433 0.709646 0.410064
0.720537 0.709646 0.410064
