Assets/LUTs/Sierra.cube
LUT_3D_SIZE 6
0.011475 0.000000 0.079407
0.074886 0.000000 0.079407
0.179315 0.000000 0.079407
0.290587 0.000000 0.079407
0.400029 0.000000 0.079407
0.515312 0.000000 0.079407
0.011475 0.084231 0.079407
0.074886 0.084231 0.079407
0.179315 0.112062 0.079407
0.290587 0.126813 0.079407
0.400029 0.135344 0.079407
0.515312 0.141987 0.079407
0.011475 0.213495 0.079407
0.096307 0.213495 0.079407
0.179315 0.213495 0.079407
0.290587 0.238875 0.079407
0.400029 0.253489 0.079407
0.515312 0.264529 0.079407
0.011475 0.338384 0.079407
0.107902 0.338384 0.079407
0.201642 0.338384 0.079407
0.290587 0.338384 0.079407
0.400029 0.359406 0.079407
0.515312 0.375888 0.079407
0.011475 0.466969 0.079407
0.114680 0.466969 0.079407
0.214564 0.466969 0.079407
0.308840 0.466969 0.079407
0.400029 0.466969 0.079407
0.515312 0.488624 0.079407
0.011475 0.593442 0.079407
0.119966 0.593442 0.079407
0.224627 0.593442 0.079407
0.323040 0.593442 0.079407
0.418784 0.593442 0.079407
0.515312 0.593442 0.079407
0.011475 0.000000 0.135710
0.074886 0.000000 0.135710
0.179315 0.000000 0.156146
0.290587 0.000000 0.167493
0.400029 0.000000 0.174574
0.515312 0.000000 0.180088
0.011475 0.084231 0.135710
0.074886 0.084231 0.135710
0.179315 0.084231 0.135710
0.290587 0.084231 0.135710
0.400029 0.084231 0.135710
0.515312 0.084231 0.135710
0.011475 0.213495 0.156146
0.074886 0.213495 0.135710
0.179315 0.213495 0.135710
0.290587 0.231771 0.135710
0.400029 0.242994 0.135710
0.515312 0.252292 0.135710
0.011475 0.338384 0.167493
0.074886 0.338384 0.135710
0.195339 0.338384 0.135710
0.290587 0.338384 0.135710
0.400029 0.355990 0.135710
0.515312 0.370551 0.135710
0.011475 0.466969 0.174574
0.074886 0.466969 0.135710
0.205279 0.466969 0.135710
0.305870 0.466969 0.135710
0.400029 0.466969 0.135710
0.515312 0.486576 0.135710
0.011475 0.593442 0.180088
0.074886 0.593442 0.135710
0.213508 0.593442 0.135710
0.318453 0.593442 0.135710
0.417040 0.593442 0.135710
0.515312 0.593442 0.135710
0.011475 0.000000 0.249278
0.096307 0.000000 0.249278
0.179315 0.000000 0.249278
0.290587 0.000000 0.278607
0.400029 0.000000 0.296274
0.515312 0.000000 0.310044
0.011475 0.112062 0.249278
0.074886 0.084231 0.249278
0.179315 0.084231 0.249278
0.290587 0.084231 0.270231
0.400029 0.084231 0.283587
0.515312 0.084231 0.294827
0.011475 0.213495 0.249278
0.074886 0.213495 0.249278
0.179315 0.213495 0.249278
0.290587 0.213495 0.249278
0.400029 0.213495 0.249278
0.515312 0.213495 0.249278
0.011475 0.338384 0.278607
0.074886 0.338384 0.270231
0.179315 0.338384 0.249278
0.290587 0.338384 0.249278
0.400029 0.347429 0.249278
0.515312 0.356230 0.249278
0.011475 0.466969 0.296274
0.074886 0.466969 0.283587
0.179315 0.466969 0.249278
0.298479 0.466969 0.249278
0.400029 0.466969 0.249278
0.515312 0.481233 0.249278
0.011475 0.593442 0.310044
0.074886 0.593442 0.294827
0.179315 0.593442 0.249278
0.306091 0.593442 0.249278
0.412379 0.593442 0.249278
0.515312 0.593442 0.249278
0.011475 0.000000 0.403997
0.107902 0.000000 0.403997
0.201642 0.000000 0.403997
0.290587 0.000000 0.403997
0.400029 0.000000 0.429683
0.515312 0.000000 0.449226
0.011475 0.126813 0.403997
0.074886 0.084231 0.403997
0.195339 0.084231 0.403997
0.290587 0.084231 0.403997
0.400029 0.084231 0.425503
0.515312 0.084231 0.442948
0.011475 0.238875 0.403997
0.074886 0.231771 0.403997
0.179315 0.213495 0.403997
0.290587 0.213495 0.403997
0.400029 0.213495 0.415104
0.515312 0.213495 0.425826
0.011475 0.338384 0.403997
0.074886 0.338384 0.403997
0.179315 0.338384 0.403997
0.290587 0.338384 0.403997
0.400029 0.338384 0.403997
0.515312 0.338384 0.403997
0.011475 0.466969 0.429683
0.074886 0.466969 0.425503
0.179315 0.466969 0.415104
0.290587 0.466969 0.403997
0.400029 0.466969 0.403997
0.515312 0.474895 0.403997
0.011475 0.593442 0.449226
0.074886 0.593442 0.442948
0.179315 0.593442 0.425826
0.290587 0.593442 0.403997
0.406907 0.593442 0.403997
0.515312 0.593442 0.403997
0.011475 0.000000 0.552474
0.114680 0.000000 0.552474
0.214564 0.000000 0.552474
0.308840 0.000000 0.552474
0.400029 0.000000 0.552474
0.515312 0.000000 0.577047
0.011475 0.135344 0.552474
0.074886 0.084231 0.552474
0.205279 0.084231 0.552474
0.305870 0.084231 0.552474
0.400029 0.084231 0.552474
0.515312 0.084231 0.574752
0.011475 0.253489 0.552474
0.074886 0.242994 0.552474
0.179315 0.213495 0.552474
0.298479 0.213495 0.552474
0.400029 0.213495 0.552474
0.515312 0.213495 0.568700
0.011475 0.359406 0.552474
0.074886 0.355990 0.552474
0.179315 0.347429 0.552474
0.290587 0.338384 0.552474
0.400029 0.338384 0.552474
0.515312 0.338384 0.561471
0.011475 0.466969 0.552474
0.074886 0.466969 0.552474
0.179315 0.466969 0.552474
0.290587 0.466969 0.552474
0.400029 0.466969 0.552474
0.515312 0.466969 0.552474
0.011475 0.593442 0.577047
0.074886 0.593442 0.574752
0.179315 0.593442 0.568700
0.290587 0.593442 0.561471
0.400029 0.593442 0.552474
0.515312 0.593442 0.552474
0.011475 0.000000 0.703183
0.119966 0.000000 0.703183
0.224627 0.000000 0.703183
0.323040 0.000000 0.703183
0.418784 0.000000 0.703183
0.515312 0.000000 0.703183
0.011475 0.141987 0.703183
0.074886 0.084231 0.703183
0.213508 0.084231 0.703183
0.318453 0.084231 0.703183
0.417040 0.084231 0.703183
0.515312 0.084231 0.703183
0.011475 0.264529 0.703183
0.074886 0.252292 0.703183
0.179315 0.213495 0.703183
0.306091 0.213495 0.703183
0.412379 0.213495 0.703183
0.515312 0.213495 0.703183
0.011475 0.375888 0.703183
0.074886 0.370551 0.703183
0.179315 0.356230 0.703183
0.290587 0.338384 0.703183
0.406907 0.338384 0.703183
0.515312 0.338384 0.703183
0.011475 0.488624 0.703183
0.074886 0.486576 0.703183
0.179315 0.481233 0.703183
0.290587 0.474895 0.703183
0.400029 0.466969 0.703183
0.515312 0.466969 0.703183
0.011475 0.593442 0.703183
0.074886 0.593442 0.703183
0.179315 0.593442 0.703183
0.290587 0.593442 0.703183
0.400029 0.593442 0.703183
0.515312 0.593442 0.703183
