Assets/LUTs/Sierra.cube
LUT_3D_SIZE 16
0.011475 0.000000 0.079407
0.023838 0.000000 0.079407
0.046381 0.000000 0.079407
0.074886 0.000000 0.079407
0.107440 0.000000 0.079407
0.142587 0.000000 0.079407
0.179315 0.000000 0.079407
0.216609 0.000000 0.079407
0.253772 0.000000 0.079407
0.290587 0.000000 0.079407
0.327015 0.000000 0.079407
0.363811 0.000000 0.079407
0.400029 0.000000 0.079407
0.436132 0.000000 0.079407
0.473941 0.000000 0.079407
0.515312 0.000000 0.079407
0.011475 0.016514 0.079407
0.023838 0.016514 0.079407
0.046381 0.023313 0.079407
0.074886 0.028279 0.079407
0.107440 0.032175 0.079407
0.142587 0.035319 0.079407
0.179315 0.037890 0.079407
0.216609 0.039977 0.079407
0.253772 0.041679 0.079407
0.290587 0.043076 0.079407
0.327015 0.044244 0.079407
0.363811 0.045285 0.079407
0.400029 0.046095 0.079407
0.436132 0.046741 0.079407
0.473941 0.047463 0.079407
0.515312 0.048447 0.079407
0.011475 0.046554 0.079407
0.028928 0.046554 0.079407
0.046381 0.046554 0.079407
0.074886 0.056385 0.079407
0.107440 0.064102 0.079407
0.142587 0.070325 0.079407
0.179315 0.075418 0.079407
0.216609 0.079533 0.079407
0.253772 0.082853 0.079407
0.290587 0.085572 0.079407
0.327015 0.087847 0.079407
0.363811 0.089885 0.079407
0.400029 0.091465 0.079407
0.436132 0.092725 0.079407
0.473941 0.094124 0.079407
0.515312 0.096053 0.079407
0.011475 0.084231 0.079407
0.032644 0.084231 0.079407
0.053794 0.084231 0.079407
0.074886 0.084231 0.079407
0.107440 0.095513 0.079407
0.142587 0.104622 0.079407
0.179315 0.112062 0.079407
0.216609 0.118078 0.079407
0.253772 0.122884 0.079407
0.290587 0.126813 0.079407
0.327015 0.130115 0.079407
0.363811 0.133052 0.079407
0.400029 0.135344 0.079407
0.436132 0.137167 0.079407
0.473941 0.139198 0.079407
0.515312 0.141987 0.079407
0.011475 0.126233 0.079407
0.035563 0.126233 0.079407
0.059608 0.126233 0.079407
0.083607 0.126233 0.079407
0.107440 0.126233 0.079407
0.142587 0.137946 0.079407
0.179315 0.147538 0.079407
0.216609 0.155237 0.079407
0.253772 0.161322 0.079407
0.290587 0.166315 0.079407
0.327015 0.170488 0.079407
0.363811 0.174206 0.079407
0.400029 0.177120 0.079407
0.436132 0.179429 0.079407
0.473941 0.181985 0.079407
0.515312 0.185526 0.079407
0.011475 0.169990 0.079407
0.037916 0.169990 0.079407
0.064299 0.169990 0.079407
0.090597 0.169990 0.079407
0.116749 0.169990 0.079407
0.142587 0.169990 0.079407
0.179315 0.181372 0.079407
0.216609 0.190515 0.079407
0.253772 0.197718 0.079407
0.290587 0.203631 0.079407
0.327015 0.208548 0.079407
0.363811 0.212979 0.079407
0.400029 0.216418 0.079407
0.436132 0.219135 0.079407
0.473941 0.222164 0.079407
0.515312 0.226141 0.079407
0.011475 0.213495 0.079407
0.039841 0.213495 0.079407
0.068137 0.213495 0.079407
0.096307 0.213495 0.079407
0.124305 0.213495 0.079407
0.151979 0.213495 0.079407
0.179315 0.213495 0.079407
0.216609 0.223904 0.079407
0.253772 0.232143 0.079407
0.290587 0.238875 0.079407
0.327015 0.244544 0.079407
0.363811 0.249566 0.079407
0.400029 0.253489 0.079407
0.436132 0.256518 0.079407
0.473941 0.259897 0.079407
0.515312 0.264529 0.079407
0.011475 0.255740 0.079407
0.041408 0.255740 0.079407
0.071258 0.255740 0.079407
0.100953 0.255740 0.079407
0.130420 0.255740 0.079407
0.159555 0.255740 0.079407
0.188348 0.255740 0.079407
0.216609 0.255740 0.079407
0.253772 0.265051 0.079407
0.290587 0.272684 0.079407
0.327015 0.279072 0.079407
0.363811 0.284760 0.079407
0.400029 0.289117 0.079407
0.436132 0.292580 0.079407
0.473941 0.296443 0.079407
0.515312 0.301751 0.079407
0.011475 0.297075 0.079407
0.042694 0.297075 0.079407
0.073821 0.297075 0.079407
0.104766 0.297075 0.079407
0.135436 0.297075 0.079407
0.165743 0.297075 0.079407
0.195659 0.297075 0.079407
0.225077 0.297075 0.079407
0.253772 0.297075 0.079407
0.290587 0.305644 0.079407
0.327015 0.312803 0.079407
0.363811 0.319205 0.079407
0.400029 0.324171 0.079407
0.436132 0.328138 0.079407
0.473941 0.332525 0.079407
0.515312 0.338608 0.079407
0.011475 0.338384 0.079407
0.043749 0.338384 0.079407
0.075924 0.338384 0.079407
0.107902 0.338384 0.079407
0.139553 0.338384 0.079407
0.170823 0.338384 0.079407
0.201642 0.338384 0.079407
0.231872 0.338384 0.079407
0.261449 0.338384 0.079407
0.290587 0.338384 0.079407
0.327015 0.346464 0.079407
0.363811 0.353752 0.079407
0.400029 0.359406 0.079407
0.436132 0.363917 0.079407
0.473941 0.368961 0.079407
0.515312 0.375888 0.079407
0.011475 0.380542 0.079407
0.044631 0.380542 0.079407
0.077684 0.380542 0.079407
0.110527 0.380542 0.079407
0.142996 0.380542 0.079407
0.175068 0.380542 0.079407
0.206647 0.380542 0.079407
0.237539 0.380542 0.079407
0.267827 0.380542 0.079407
0.297636 0.380542 0.079407
0.327015 0.380542 0.079407
0.363811 0.388787 0.079407
0.400029 0.395161 0.079407
0.436132 0.400249 0.079407
0.473941 0.405926 0.079407
0.515312 0.413675 0.079407
0.011475 0.424150 0.079407
0.045418 0.424150 0.079407
0.079255 0.424150 0.079407
0.112850 0.424150 0.079407
0.146076 0.424150 0.079407
0.178855 0.424150 0.079407
0.211070 0.424150 0.079407
0.242608 0.424150 0.079407
0.273515 0.424150 0.079407
0.303920 0.424150 0.079407
0.333965 0.424150 0.079407
0.363811 0.424150 0.079407
0.400029 0.431186 0.079407
0.436132 0.436810 0.079407
0.473941 0.443003 0.079407
0.515312 0.451504 0.079407
0.011475 0.466969 0.079407
0.046034 0.466969 0.079407
0.080476 0.466969 0.079407
0.114680 0.466969 0.079407
0.148470 0.466969 0.079407
0.181815 0.466969 0.079407
0.214564 0.466969 0.079407
0.246548 0.466969 0.079407
0.277946 0.466969 0.079407
0.308840 0.466969 0.079407
0.339373 0.466969 0.079407
0.369751 0.466969 0.079407
0.400029 0.466969 0.079407
0.436132 0.472906 0.079407
0.473941 0.479532 0.079407
0.515312 0.488624 0.079407
0.011475 0.508168 0.079407
0.046519 0.508168 0.079407
0.081451 0.508168 0.079407
0.116122 0.508168 0.079407
0.150371 0.508168 0.079407
0.184166 0.508168 0.079407
0.217313 0.508168 0.079407
0.249686 0.508168 0.079407
0.281473 0.508168 0.079407
0.312731 0.508168 0.079407
0.343680 0.508168 0.079407
0.374448 0.508168 0.079407
0.405164 0.508168 0.079407
0.436132 0.508168 0.079407
0.473941 0.515146 0.079407
0.515312 0.524701 0.079407
0.011475 0.549417 0.079407
0.047065 0.549417 0.079407
0.082533 0.549417 0.079407
0.117740 0.549417 0.079407
0.152501 0.549417 0.079407
0.186777 0.549417 0.079407
0.220390 0.549417 0.079407
0.253190 0.549417 0.079407
0.285402 0.549417 0.079407
0.317086 0.549417 0.079407
0.348449 0.549417 0.079407
0.379688 0.549417 0.079407
0.410891 0.549417 0.079407
0.442333 0.549417 0.079407
0.473941 0.549417 0.079407
0.515312 0.559377 0.079407
0.011475 0.593442 0.079407
0.047812 0.593442 0.079407
0.084022 0.593442 0.079407
0.119966 0.593442 0.079407
0.155409 0.593442 0.079407
0.190371 0.593442 0.079407
0.224627 0.593442 0.079407
0.258006 0.593442 0.079407
0.290787 0.593442 0.079407
0.323040 0.593442 0.079407
0.355029 0.593442 0.079407
0.386902 0.593442 0.079407
0.418784 0.593442 0.079407
0.450945 0.593442 0.079407
0.483230 0.593442 0.079407
0.515312 0.593442 0.079407
0.011475 0.000000 0.090143
0.023838 0.000000 0.090143
0.046381 0.000000 0.094565
0.074886 0.000000 0.097792
0.107440 0.000000 0.100325
0.142587 0.000000 0.102409
0.179315 0.000000 0.104112
0.216609 0.000000 0.105498
0.253772 0.000000 0.106636
0.290587 0.000000 0.107569
0.327015 0.000000 0.108349
0.363811 0.000000 0.109050
0.400029 0.000000 0.109589
0.436132 0.000000 0.110026
0.473941 0.000000 0.110506
0.515312 0.000000 0.111165
0.011475 0.016514 0.090143
0.023838 0.016514 0.090143
0.046381 0.016514 0.090143
0.074886 0.016514 0.090143
0.107440 0.016514 0.090143
0.142587 0.016514 0.090143
0.179315 0.016514 0.090143
0.216609 0.016514 0.090143
0.253772 0.016514 0.090143
0.290587 0.016514 0.090143
0.327015 0.016514 0.090143
0.363811 0.016514 0.090143
0.400029 0.016514 0.090143
0.436132 0.016514 0.090143
0.473941 0.016514 0.090143
0.515312 0.016514 0.090143
0.011475 0.046554 0.094565
0.023838 0.046554 0.090143
0.046381 0.046554 0.090143
0.074886 0.054173 0.090143
0.107440 0.060595 0.090143
0.142587 0.065932 0.090143
0.179315 0.070367 0.090143
0.216609 0.074010 0.090143
0.253772 0.077019 0.090143
0.290587 0.079484 0.090143
0.327015 0.081509 0.090143
0.363811 0.083327 0.090143
0.400029 0.084744 0.090143
0.436132 0.085877 0.090143
0.473941 0.087141 0.090143
0.515312 0.088872 0.090143
0.011475 0.084231 0.097792
0.023838 0.084231 0.090143
0.052130 0.084231 0.090143
0.074886 0.084231 0.090143
0.107440 0.094356 0.090143
0.142587 0.102748 0.090143
0.179315 0.109725 0.090143
0.216609 0.115401 0.090143
0.253772 0.120010 0.090143
0.290587 0.123746 0.090143
0.327015 0.126884 0.090143
0.363811 0.129687 0.090143
0.400029 0.131870 0.090143
0.436132 0.133611 0.090143
0.473941 0.135560 0.090143
0.515312 0.138243 0.090143
0.011475 0.126233 0.100325
0.023838 0.126233 0.090143
0.056962 0.126233 0.090143
0.082713 0.126233 0.090143
0.107440 0.126233 0.090143
0.142587 0.137247 0.090143
0.179315 0.146382 0.090143
0.216609 0.153831 0.090143
0.253772 0.159702 0.090143
0.290587 0.164528 0.090143
0.327015 0.168573 0.090143
0.363811 0.172191 0.090143
0.400029 0.175017 0.090143
0.436132 0.177258 0.090143
0.473941 0.179774 0.090143
0.515312 0.183227 0.090143
0.011475 0.169990 0.102409
0.023838 0.169990 0.090143
0.060986 0.169990 0.090143
0.089160 0.169990 0.090143
0.116201 0.169990 0.090143
0.142587 0.169990 0.090143
0.179315 0.180912 0.090143
0.216609 0.189791 0.090143
0.253772 0.196779 0.090143
0.290587 0.202555 0.090143
0.327015 0.207369 0.090143
0.363811 0.211690 0.090143
0.400029 0.215053 0.090143
0.436132 0.217703 0.090143
0.473941 0.220710 0.090143
0.515312 0.224679 0.090143
0.011475 0.213495 0.104112
0.023838 0.213495 0.090143
0.064328 0.213495 0.090143
0.094504 0.213495 0.090143
0.123402 0.213495 0.090143
0.151604 0.213495 0.090143
0.179315 0.213495 0.090143
0.216609 0.223605 0.090143
0.253772 0.231643 0.090143
0.290587 0.238222 0.090143
0.327015 0.243753 0.090143
0.363811 0.248711 0.090143
0.400029 0.252567 0.090143
0.436132 0.255556 0.090143
0.473941 0.258902 0.090143
0.515312 0.263476 0.090143
0.011475 0.255740 0.105498
0.023838 0.255740 0.090143
0.067072 0.255740 0.090143
0.098871 0.255740 0.090143
0.129255 0.255740 0.090143
0.158925 0.255740 0.090143
0.188080 0.255740 0.090143
0.216609 0.255740 0.090143
0.253772 0.264832 0.090143
0.290587 0.272308 0.090143
0.327015 0.278580 0.090143
0.363811 0.284189 0.090143
0.400029 0.288473 0.090143
0.436132 0.291888 0.090143
0.473941 0.295705 0.090143
0.515312 0.300970 0.090143
0.011475 0.297075 0.106636
0.023838 0.297075 0.090143
0.069345 0.297075 0.090143
0.102486 0.297075 0.090143
0.134095 0.297075 0.090143
0.164940 0.297075 0.090143
0.195227 0.297075 0.090143
0.224884 0.297075 0.090143
0.253772 0.297075 0.090143
0.290587 0.305474 0.090143
0.327015 0.312500 0.090143
0.363811 0.318806 0.090143
0.400029 0.323704 0.090143
0.436132 0.327625 0.090143
0.473941 0.332007 0.090143
0.515312 0.337998 0.090143
0.011475 0.338384 0.107569
0.023838 0.338384 0.090143
0.071212 0.338384 0.090143
0.105460 0.338384 0.090143
0.138083 0.338384 0.090143
0.169887 0.338384 0.090143
0.201067 0.338384 0.090143
0.231542 0.338384 0.090143
0.261300 0.338384 0.090143
0.290587 0.338384 0.090143
0.327015 0.346331 0.090143
0.363811 0.353512 0.090143
0.400029 0.359099 0.090143
0.436132 0.363559 0.090143
0.473941 0.368535 0.090143
0.515312 0.375392 0.090143
0.011475 0.380542 0.108349
0.023838 0.380542 0.090143
0.072782 0.380542 0.090143
0.107955 0.380542 0.090143
0.141418 0.380542 0.090143
0.174029 0.380542 0.090143
0.205958 0.380542 0.090143
0.237106 0.380542 0.090143
0.267564 0.380542 0.090143
0.297519 0.380542 0.090143
0.327015 0.380542 0.090143
0.363811 0.388659 0.090143
0.400029 0.394935 0.090143
0.436132 0.399948 0.090143
0.473941 0.405630 0.090143
0.515312 0.413313 0.090143
0.011475 0.424150 0.109050
0.023838 0.424150 0.090143
0.074189 0.424150 0.090143
0.110184 0.424150 0.090143
0.144400 0.424150 0.090143
0.177740 0.424150 0.090143
0.210312 0.424150 0.090143
0.242083 0.424150 0.090143
0.273178 0.424150 0.090143
0.303730 0.424150 0.090143
0.333859 0.424150 0.090143
0.363811 0.424150 0.090143
0.400029 0.431086 0.090143
0.436132 0.436680 0.090143
0.473941 0.442796 0.090143
0.515312 0.451248 0.090143
0.011475 0.466969 0.109589
0.023838 0.466969 0.090143
0.075284 0.466969 0.090143
0.111921 0.466969 0.090143
0.146734 0.466969 0.090143
0.180626 0.466969 0.090143
0.213730 0.466969 0.090143
0.245967 0.466969 0.090143
0.277540 0.466969 0.090143
0.308562 0.466969 0.090143
0.339186 0.466969 0.090143
0.369671 0.466969 0.090143
0.400029 0.466969 0.090143
0.436132 0.472841 0.090143
0.473941 0.479408 0.090143
0.515312 0.488439 0.090143
0.011475 0.508168 0.110026
0.023838 0.508168 0.090143
0.076158 0.508168 0.090143
0.113315 0.508168 0.090143
0.148586 0.508168 0.090143
0.182932 0.508168 0.090143
0.216445 0.508168 0.090143
0.249062 0.508168 0.090143
0.281018 0.508168 0.090143
0.312426 0.508168 0.090143
0.343435 0.508168 0.090143
0.374328 0.508168 0.090143
0.405108 0.508168 0.090143
0.436132 0.508168 0.090143
0.473941 0.515069 0.090143
0.515312 0.524590 0.090143
0.011475 0.549417 0.110506
0.023838 0.549417 0.090143
0.077133 0.549417 0.090143
0.114851 0.549417 0.090143
0.150656 0.549417 0.090143
0.185510 0.549417 0.090143
0.219481 0.549417 0.090143
0.252525 0.549417 0.090143
0.284907 0.549417 0.090143
0.316708 0.549417 0.090143
0.348181 0.549417 0.090143
0.379513 0.549417 0.090143
0.410801 0.549417 0.090143
0.442292 0.549417 0.090143
0.473941 0.549417 0.090143
0.515312 0.559306 0.090143
0.011475 0.593442 0.111165
0.023838 0.593442 0.090143
0.078476 0.593442 0.090143
0.116976 0.593442 0.090143
0.153507 0.593442 0.090143
0.189058 0.593442 0.090143
0.223672 0.593442 0.090143
0.257274 0.593442 0.090143
0.290260 0.593442 0.090143
0.322645 0.593442 0.090143
0.354725 0.593442 0.090143
0.386697 0.593442 0.090143
0.418621 0.593442 0.090143
0.450833 0.593442 0.090143
0.483190 0.593442 0.090143
0.515312 0.593442 0.090143
0.011475 0.000000 0.109900
0.028928 0.000000 0.109900
0.046381 0.000000 0.109900
0.074886 0.000000 0.116476
0.107440 0.000000 0.121638
0.142587 0.000000 0.125956
0.179315 0.000000 0.129491
0.216609 0.000000 0.132364
0.253772 0.000000 0.134726
0.290587 0.000000 0.136661
0.327015 0.000000 0.138278
0.363811 0.000000 0.139736
0.400029 0.000000 0.140851
0.436132 0.000000 0.141755
0.473941 0.000000 0.142756
0.515312 0.000000 0.144132
0.011475 0.023313 0.109900
0.023838 0.016514 0.109900
0.046381 0.016514 0.109900
0.074886 0.016514 0.115001
0.107440 0.016514 0.119291
0.142587 0.016514 0.122905
0.179315 0.016514 0.125985
0.216609 0.016514 0.128513
0.253772 0.016514 0.130603
0.290587 0.016514 0.132324
0.327015 0.016514 0.133772
0.363811 0.016514 0.135065
0.400029 0.016514 0.136075
0.436132 0.016514 0.136873
0.473941 0.016514 0.137772
0.515312 0.016514 0.139009
0.011475 0.046554 0.109900
0.023838 0.046554 0.109900
0.046381 0.046554 0.109900
0.074886 0.046554 0.109900
0.107440 0.046554 0.109900
0.142587 0.046554 0.109900
0.179315 0.046554 0.109900
0.216609 0.046554 0.109900
0.253772 0.046554 0.109900
0.290587 0.046554 0.109900
0.327015 0.046554 0.109900
0.363811 0.046554 0.109900
0.400029 0.046554 0.109900
0.436132 0.046554 0.109900
0.473941 0.046554 0.109900
0.515312 0.046554 0.109900
0.011475 0.084231 0.116476
0.023838 0.084231 0.115001
0.046381 0.084231 0.109900
0.074886 0.084231 0.109900
0.107440 0.090466 0.109900
0.142587 0.096049 0.109900
0.179315 0.100899 0.109900
0.216609 0.104992 0.109900
0.253772 0.108455 0.109900
0.290587 0.111328 0.109900
0.327015 0.113769 0.109900
0.363811 0.115984 0.109900
0.400029 0.117687 0.109900
0.436132 0.119016 0.109900
0.473941 0.120531 0.109900
0.515312 0.122643 0.109900
0.011475 0.126233 0.121638
0.023838 0.126233 0.119291
0.046381 0.126233 0.109900
0.079705 0.126233 0.109900
0.107440 0.126233 0.109900
0.142587 0.134840 0.109900
0.179315 0.142253 0.109900
0.216609 0.148464 0.109900
0.253772 0.153680 0.109900
0.290587 0.157796 0.109900
0.327015 0.161281 0.109900
0.363811 0.164429 0.109900
0.400029 0.166887 0.109900
0.436132 0.168845 0.109900
0.473941 0.171059 0.109900
0.515312 0.174161 0.109900
0.011475 0.169990 0.125956
0.023838 0.169990 0.122905
0.046381 0.169990 0.109900
0.084021 0.169990 0.109900
0.114284 0.169990 0.109900
0.142587 0.169990 0.109900
0.179315 0.179322 0.109900
0.216609 0.187111 0.109900
0.253772 0.193381 0.109900
0.290587 0.198518 0.109900
0.327015 0.202861 0.109900
0.363811 0.206796 0.109900
0.400029 0.209852 0.109900
0.436132 0.212297 0.109900
0.473941 0.215029 0.109900
0.515312 0.218899 0.109900
0.011475 0.213495 0.129491
0.023838 0.213495 0.125985
0.046381 0.213495 0.109900
0.087742 0.213495 0.109900
0.120166 0.213495 0.109900
0.150289 0.213495 0.109900
0.179315 0.213495 0.109900
0.216609 0.222559 0.109900
0.253772 0.229811 0.109900
0.290587 0.235821 0.109900
0.327015 0.240916 0.109900
0.363811 0.245492 0.109900
0.400029 0.249070 0.109900
0.436132 0.251921 0.109900
0.473941 0.255083 0.109900
0.515312 0.259477 0.109900
0.011475 0.255740 0.132364
0.023838 0.255740 0.128513
0.046381 0.255740 0.109900
0.090881 0.255740 0.109900
0.125032 0.255740 0.109900
0.156700 0.255740 0.109900
0.187127 0.255740 0.109900
0.216609 0.255740 0.109900
0.253772 0.264052 0.109900
0.290587 0.270946 0.109900
0.327015 0.276770 0.109900
0.363811 0.282035 0.109900
0.400029 0.286091 0.109900
0.436132 0.289287 0.109900
0.473941 0.292919 0.109900
0.515312 0.297988 0.109900
0.011475 0.297075 0.134726
0.023838 0.297075 0.130603
0.046381 0.297075 0.109900
0.093526 0.297075 0.109900
0.129130 0.297075 0.109900
0.162018 0.297075 0.109900
0.193601 0.297075 0.109900
0.224176 0.297075 0.109900
0.253772 0.297075 0.109900
0.290587 0.304880 0.109900
0.327015 0.311458 0.109900
0.363811 0.317401 0.109900
0.400029 0.322027 0.109900
0.436132 0.325727 0.109900
0.473941 0.329908 0.109900
0.515312 0.335732 0.109900
0.011475 0.338384 0.136661
0.023838 0.338384 0.132324
0.046381 0.338384 0.109900
0.095743 0.338384 0.109900
0.132528 0.338384 0.109900
0.166436 0.338384 0.109900
0.198923 0.338384 0.109900
0.230326 0.338384 0.109900
0.260763 0.338384 0.109900
0.290587 0.338384 0.109900
0.327015 0.345852 0.109900
0.363811 0.352630 0.109900
0.400029 0.357931 0.109900
0.436132 0.362165 0.109900
0.473941 0.366930 0.109900
0.515312 0.373602 0.109900
0.011475 0.380542 0.138278
0.023838 0.380542 0.133772
0.046381 0.380542 0.109900
0.097616 0.380542 0.109900
0.135399 0.380542 0.109900
0.170171 0.380542 0.109900
0.203425 0.380542 0.109900
0.235504 0.380542 0.109900
0.266622 0.380542 0.109900
0.297108 0.380542 0.109900
0.327015 0.380542 0.109900
0.363811 0.388270 0.109900
0.400029 0.394255 0.109900
0.436132 0.399044 0.109900
0.473941 0.404420 0.109900
0.515312 0.412006 0.109900
0.011475 0.424150 0.139736
0.023838 0.424150 0.135065
0.046381 0.424150 0.109900
0.099313 0.424150 0.109900
0.138003 0.424150 0.109900
0.173540 0.424150 0.109900
0.207466 0.424150 0.109900
0.240169 0.424150 0.109900
0.271918 0.424150 0.109900
0.302975 0.424150 0.109900
0.333518 0.424150 0.109900
0.363811 0.424150 0.109900
0.400029 0.430765 0.109900
0.436132 0.436066 0.109900
0.473941 0.441976 0.109900
0.515312 0.450255 0.109900
0.011475 0.466969 0.140851
0.023838 0.466969 0.136075
0.046381 0.466969 0.109900
0.100642 0.466969 0.109900
0.140021 0.466969 0.109900
0.176163 0.466969 0.109900
0.210630 0.466969 0.109900
0.243808 0.466969 0.109900
0.276038 0.466969 0.109900
0.307553 0.466969 0.109900
0.338558 0.466969 0.109900
0.369393 0.466969 0.109900
0.400029 0.466969 0.109900
0.436132 0.472575 0.109900
0.473941 0.478896 0.109900
0.515312 0.487742 0.109900
0.011475 0.508168 0.141755
0.023838 0.508168 0.136873
0.046381 0.508168 0.109900
0.101701 0.508168 0.109900
0.141640 0.508168 0.109900
0.178258 0.508168 0.109900
0.213164 0.508168 0.109900
0.246707 0.508168 0.109900
0.279322 0.508168 0.109900
0.311199 0.508168 0.109900
0.342633 0.508168 0.109900
0.373817 0.508168 0.109900
0.404843 0.508168 0.109900
0.436132 0.508168 0.109900
0.473941 0.514849 0.109900
0.515312 0.524154 0.109900
0.011475 0.549417 0.142756
0.023838 0.549417 0.137772
0.046381 0.549417 0.109900
0.102901 0.549417 0.109900
0.143477 0.549417 0.109900
0.180630 0.549417 0.109900
0.216021 0.549417 0.109900
0.249998 0.549417 0.109900
0.283042 0.549417 0.109900
0.315347 0.549417 0.109900
0.347200 0.549417 0.109900
0.378838 0.549417 0.109900
0.410350 0.549417 0.109900
0.442096 0.549417 0.109900
0.473941 0.549417 0.109900
0.515312 0.559140 0.109900
0.011475 0.593442 0.144132
0.023838 0.593442 0.139009
0.046381 0.593442 0.109900
0.104578 0.593442 0.109900
0.146033 0.593442 0.109900
0.183944 0.593442 0.109900
0.220007 0.593442 0.109900
0.254597 0.593442 0.109900
0.288228 0.593442 0.109900
0.321112 0.593442 0.109900
0.353573 0.593442 0.109900
0.385840 0.593442 0.109900
0.418020 0.593442 0.109900
0.450489 0.593442 0.109900
0.483005 0.593442 0.109900
0.515312 0.593442 0.109900
0.011475 0.000000 0.135710
0.032644 0.000000 0.135710
0.053794 0.000000 0.135710
0.074886 0.000000 0.135710
0.107440 0.000000 0.143739
0.142587 0.000000 0.150561
0.179315 0.000000 0.156146
0.216609 0.000000 0.160689
0.253772 0.000000 0.164420
0.290587 0.000000 0.167493
0.327015 0.000000 0.170230
0.363811 0.000000 0.172672
0.400029 0.000000 0.174574
0.436132 0.000000 0.176091
0.473941 0.000000 0.177777
0.515312 0.000000 0.180088
0.011475 0.028279 0.135710
0.023838 0.016514 0.135710
0.052130 0.016514 0.135710
0.074886 0.016514 0.135710
0.107440 0.016514 0.142919
0.142587 0.016514 0.149157
0.179315 0.016514 0.154377
0.216609 0.016514 0.158652
0.253772 0.016514 0.162188
0.290587 0.016514 0.165092
0.327015 0.016514 0.167548
0.363811 0.016514 0.169879
0.400029 0.016514 0.171692
0.436132 0.016514 0.173140
0.473941 0.016514 0.174757
0.515312 0.016514 0.176981
0.011475 0.056385 0.135710
0.023838 0.054173 0.135710
0.046381 0.046554 0.135710
0.074886 0.046554 0.135710
0.107440 0.046554 0.140141
0.142587 0.046554 0.144126
0.179315 0.046554 0.147768
0.216609 0.046554 0.150839
0.253772 0.046554 0.153432
0.290587 0.046554 0.155590
0.327015 0.046554 0.157421
0.363811 0.046554 0.159082
0.400029 0.046554 0.160380
0.436132 0.046554 0.161418
0.473941 0.046554 0.162589
0.515312 0.046554 0.164240
0.011475 0.084231 0.135710
0.023838 0.084231 0.135710
0.046381 0.084231 0.135710
0.074886 0.084231 0.135710
0.107440 0.084231 0.135710
0.142587 0.084231 0.135710
0.179315 0.084231 0.135710
0.216609 0.084231 0.135710
0.253772 0.084231 0.135710
0.290587 0.084231 0.135710
0.327015 0.084231 0.135710
0.363811 0.084231 0.135710
0.400029 0.084231 0.135710
0.436132 0.084231 0.135710
0.473941 0.084231 0.135710
0.515312 0.084231 0.135710
0.011475 0.126233 0.143739
0.023838 0.126233 0.142919
0.046381 0.126233 0.140141
0.074886 0.126233 0.135710
0.107440 0.126233 0.135710
0.142587 0.131029 0.135710
0.179315 0.135391 0.135710
0.216609 0.139181 0.135710
0.253772 0.142456 0.135710
0.290587 0.145239 0.135710
0.327015 0.147632 0.135710
0.363811 0.149835 0.135710
0.400029 0.151555 0.135710
0.436132 0.152948 0.135710
0.473941 0.154503 0.135710
0.515312 0.156703 0.135710
0.011475 0.169990 0.150561
0.023838 0.169990 0.149157
0.046381 0.169990 0.144126
0.074886 0.169990 0.135710
0.111257 0.169990 0.135710
0.142587 0.169990 0.135710
0.179315 0.176761 0.135710
0.216609 0.182579 0.135710
0.253772 0.187584 0.135710
0.290587 0.191621 0.135710
0.327015 0.195042 0.135710
0.363811 0.198179 0.135710
0.400029 0.200630 0.135710
0.436132 0.202594 0.135710
0.473941 0.204853 0.135710
0.515312 0.208117 0.135710
0.011475 0.213495 0.156146
0.023838 0.213495 0.154377
0.046381 0.213495 0.147768
0.074886 0.213495 0.135710
0.114715 0.213495 0.135710
0.148178 0.213495 0.135710
0.179315 0.213495 0.135710
0.216609 0.220796 0.135710
0.253772 0.226772 0.135710
0.290587 0.231771 0.135710
0.327015 0.236055 0.135710
0.363811 0.239956 0.135710
0.400029 0.242994 0.135710
0.436132 0.245452 0.135710
0.473941 0.248250 0.135710
0.515312 0.252292 0.135710
0.011475 0.255740 0.160689
0.023838 0.255740 0.158652
0.046381 0.255740 0.150839
0.074886 0.255740 0.135710
0.117733 0.255740 0.135710
0.152978 0.255740 0.135710
0.185581 0.255740 0.135710
0.216609 0.255740 0.135710
