Assets/LUTs/Vintage City.cube
TITLE "Generated by Resolve"
LUT_3D_SIZE 9
0 0 0
0.0998856 0 0
0.226673 0 0
0.356695 0 0
0.471092 0 0
0.574228 0 0
0.65771 0 0
0.72755 0.0074464 0
0.794903 0.0227512 0
0 0.0726329 0
0.122957 0.0647593 0
0.237964 0.0691997 0
0.366567 0.070222 0
0.482902 0.0713512 0
0.589563 0.0770123 0
0.67776 0.0899214 0
0.753109 0.108659 0
0.826413 0.130236 0
0.011841 0.162188 0
0.144121 0.157382 0
0.270146 0.160586 0
0.39202 0.169177 0
0.508217 0.177768 0
0.617578 0.190616 0
0.709606 0.210239 0
0.788861 0.234821 0
0.865324 0.260975 0
0.0161898 0.279225 0
0.154421 0.280552 0
0.296483 0.285496 0
0.425086 0.297261 0
0.538582 0.312093 0
0.645823 0.329885 0
0.735973 0.352758 0
0.813062 0.378882 0
0.887404 0.405646 0
0.024979 0.423713 0
0.167651 0.429709 0
0.318303 0.43563 0
0.455924 0.445274 0
0.569619 0.458885 0
0.67126 0.47747 0
0.756649 0.50164 0
0.830488 0.529427 0
0.902373 0.557565 0
0.0408637 0.579171 0
0.183459 0.58529 0
0.337392 0.590143 0
0.481193 0.59765 0
0.600458 0.609506 0
0.702342 0.627207 0
0.782773 0.651194 0
0.850736 0.678111 0
0.916426 0.704417 0
0.0694591 0.730983 0
0.212802 0.737987 0
0.368704 0.742061 0
0.515633 0.746853 0
0.637247 0.754635 0
0.739742 0.7673 0
0.816403 0.786419 0
0.876402 0.809186 0
0.9337 0.831281 0
0.118502 0.873671 0
0.259464 0.878401 0
0.413474 0.878706 0
0.559243 0.878172 0
0.679759 0.879759 0
0.781003 0.885786 0.00724804
0.855634 0.898482 0.0083772
0.911345 0.91574 0.00233463
0.961608 0.933913 0
0.165301 1 0
0.301503 1 0
0.451713 0.99617 0
0.59498 0.990112 0
0.713878 0.986038 0
0.814282 0.986648 0.00831617
0.888716 0.994492 0.0134585
0.944121 1 0.0128939
0.993027 1 0.00462348
0 0 0.0293889
0.127794 0 0.0259403
0.262501 0 0
0.389654 0 0
0.502693 0 0
0.605127 0 0
0.688334 0 0
0.758206 0.00321965 0
0.825803 0.0192416 0
0 0.0838331 0
0.11165 0.0721141 0.0313726
0.256596 0.067628 0.00123598
0.389471 0.0680247 0
0.507713 0.069276 0
0.615747 0.0753185 0
0.705043 0.088716 0
0.781369 0.107988 0
0.855558 0.130129 0
0 0.17528 0
0.133745 0.167178 0.010605
0.278965 0.163485 0.0402533
0.404761 0.172122 0.0039826
0.525673 0.180438 0
0.638407 0.193179 0
0.732754 0.212757 0
0.813626 0.237278 0
0.891218 0.263325 0
0 0.293706 0
0.146471 0.292439 0
0.30367 0.292317 0.0314488
0.436469 0.302541 0.0373083
0.551537 0.317464 0.0140078
0.661387 0.334905 0
0.753887 0.357183 0
0.832792 0.382696 0
0.908888 0.409262 0
0.00972 0.439307 0
0.161028 0.442847 0
0.322667 0.444739 0.0142672
0.466514 0.451423 0.0397803
0.581277 0.464424 0.0376135
0.683696 0.483162 0.0205081
0.770825 0.507118 0.00108339
0.846464 0.534524 0
0.919921 0.562188 0
0.0272068 0.594385 0
0.176898 0.598444 0
0.339544 0.600305 0
0.489906 0.605127 0.028809
0.611795 0.615595 0.042649
0.714076 0.632822 0.0409247
0.794675 0.656535 0.0302586
0.863355 0.682963 0.0152132
0.929931 0.708583 0
0.0572519 0.746227 0
0.206348 0.751247 0
0.36907 0.752621 0
0.521706 0.754711 0.0247501
0.646403 0.76054 0.0449989
0.749966 0.771908 0.0525826
0.826429 0.790341 0.0499123
0.886244 0.812604 0.0386969
0.943801 0.834134 0.0205081
0.106432 0.887984 0
0.252033 0.890669 0
0.411429 0.888365 0
0.562036 0.885267 0.0289158
0.685756 0.884764 0.0495918
0.788739 0.889265 0.0608835
0.863996 0.900923 0.0640879
0.919432 0.917723 0.0584268
0.969619 0.935607 0.0436103
0.15227 1 0
0.292439 1 0
0.447257 1 0
0.594842 0.996216 0.0256199
0.716991 0.990326 0.045243
0.819715 0.989502 0.0585031
0.895476 0.996399 0.0666056
0.9514 1 0.0677806
1 1 0.0600443
0 0 0.111116
0.131762 0 0.113466
0.295048 0 0.0515755
0.427131 0 0
0.538903 0 0
0.639902 0 0
0.722087 0 0
0.791394 0 0
0.858717 0.012604 0
0 0.0881666 0.0809033
0.107332 0.0733501 0.115984
0.289723 0.0576181 0.0918441
0.423667 0.0594492 0.026688
0.540017 0.0623178 0
0.647211 0.0694896 0
0.736263 0.0838331 0
0.812634 0.103975 0
0.887007 0.126879 0
0 0.185565 0.0415198
0.107469 0.178561 0.0813001
0.278325 0.167452 0.117281
0.42385 0.171252 0.0798047
0.548898 0.179278 0.0398871
0.663737 0.192111 0.00500496
0.759365 0.211826 0
0.841031 0.236454 0
0.919112 0.262486 0
0 0.307362 0.00250248
0.124636 0.306111 0.051133
0.299718 0.300969 0.0995804
0.445991 0.305928 0.123018
0.564309 0.320577 0.0956436
0.678172 0.337179 0.0644999
0.773342 0.358648 0.0379187
0.854154 0.383658 0.0149233
0.931762 0.410025 0
0 0.454414 0
0.143496 0.456809 0.0289006
0.317357 0.454749 0.0812238
0.473564 0.456245 0.119615
0.591028 0.46804 0.123537
0.694835 0.486763 0.104356
0.784451 0.510323 0.0823072
0.862409 0.537163 0.0616465
0.937682 0.564202 0.0409247
0.00622568 0.609094 0
0.161471 0.611887 0.00848402
0.333471 0.610834 0.0614328
0.493828 0.611826 0.103868
0.620661 0.619898 0.125841
0.723751 0.636362 0.126787
0.804654 0.659754 0.114473
0.874571 0.685542 0.0970016
0.942458 0.710338 0.0757916
0.0382849 0.760815 0
0.192233 0.764279 0.00199893
0.362158 0.762997 0.0542458
0.522454 0.761791 0.0962844
0.652201 0.764874 0.123186
0.757809 0.774472 0.135485
0.834318 0.792096 0.133989
0.894057 0.81384 0.121416
0.952163 0.83476 0.101167
0.0880446 0.901427 0
0.237705 0.902312 0.0107271
0.402777 0.897459 0.0590066
0.559503 0.891478 0.0972
0.687861 0.888411 0.123049
0.793729 0.890898 0.139284
0.870024 0.901335 0.145541
0.925444 0.917601 0.140612
0.975631 0.93521 0.124926
0.133349 1 0
0.27715 1 0.0138552
0.436805 1 0.0573129
0.589548 1 0.0913252
0.71603 0.993362 0.11519
0.822095 0.990768 0.133104
0.899855 0.996445 0.145113
0.956756 1 0.148684
1 1 0.14168
0 0 0.233982
0.129946 0 0.238148
0.309361 0 0.192432
0.458198 0 0.120821
0.574624 0 0.0577096
0.676066 0 0.0033875
0.757656 0 0
0.826291 0 0
0.893095 0.00149538 0
0 0.0865949 0.209339
0.105119 0.0704356 0.239841
0.297642 0.0508888 0.22887
0.457527 0.0455329 0.165331
0.577096 0.049134 0.107713
0.683268 0.0579385 0.0610208
0.771145 0.0737163 0.0247044
0.846769 0.0951095 0
0.920577 0.118975 0
0 0.189624 0.16878
0.0903944 0.181857 0.210636
0.276463 0.167315 0.244572
0.458839 0.160555 0.212039
0.583078 0.170581 0.163546
0.696056 0.184878 0.126589
0.790677 0.205447 0.0979477
0.871733 0.230579 0.0745556
0.949294 0.25687 0.0528115
0 0.316869 0.12343
0.096437 0.316716 0.170062
0.273701 0.312169 0.212451
0.452369 0.306401 0.250843
0.582132 0.318624 0.215854
0.699931 0.334127 0.183993
0.796857 0.354864 0.157382
0.878981 0.379644 0.134798
0.957549 0.40589 0.113878
0 0.466712 0.088777
0.115602 0.469383 0.140124
0.295308 0.466011 0.187533
0.470558 0.46096 0.233082
0.597879 0.468605 0.25182
0.704753 0.486992 0.228565
0.798352 0.509682 0.203571
0.879072 0.535729 0.181552
0.9561 0.562081 0.160082
0 0.621668 0.0622568
0.135866 0.624262 0.116152
0.314672 0.6215 0.167056
0.487724 0.618204 0.214405
0.625086 0.621775 0.248356
0.730388 0.636728 0.254871
0.812222 0.659663 0.24004
0.884169 0.684581 0.219455
0.953918 0.708354 0.195972
0.0117189 0.773419 0.0523995
0.168688 0.776043 0.108064
0.34464 0.772717 0.15938
0.513985 0.768002 0.204807
0.652064 0.767193 0.239384
0.762097 0.774014 0.259342
0.839078 0.790585 0.260182
0.898924 0.81181 0.245792
0.95819 0.831998 0.222995
0.0620737 0.912856 0.0614023
0.214649 0.912398 0.114977
0.384848 0.905394 0.162783
0.548501 0.896406 0.203479
0.683543 0.890166 0.234653
0.794354 0.889876 0.257511
0.872786 0.898619 0.268589
0.928405 0.914275 0.265003
0.978775 0.931609 0.248219
0.107103 1 0.0667124
0.253803 1 0.116258
0.418006 1 0.15964
0.576516 1 0.195789
0.708644 0.994568 0.223743
0.819638 0.98967 0.247196
0.900618 0.993683 0.264515
0.958968 1 0.27155
1 1 0.265629
0 0 0.405066
0.124468 0 0.410056
0.311009 0 0.376379
0.475944 0 0.313191
0.603281 0 0.248478
0.709819 0 0.189425
0.793133 0 0.140734
0.862119 0 0.100725
0.928756 0 0.0657664
0 0.0807202 0.385061
0.100084 0.0642252 0.411673
0.294942 0.0439765 0.406424
0.474022 0.0321202 0.358297
0.608606 0.0322576 0.298985
0.719783 0.0410925 0.24596
0.808362 0.0580453 0.204837
0.883497 0.0807813 0.172869
0.956542 0.105776 0.145571
0 0.187823 0.348119
0.0805371 0.17882 0.389838
0.27393 0.1635 0.418494
0.471595 0.151278 0.40415
0.61828 0.155642 0.354055
0.734188 0.170611 0.30808
0.827375 0.192538 0.274479
0.906722 0.218647 0.248478
0.982818 0.245533 0.225147
0 0.320745 0.300923
0.073579 0.320439 0.349142
0.256245 0.314641 0.393454
0.451881 0.304707 0.426642
0.616632 0.30605 0.397971
0.732692 0.322942 0.356619
0.826917 0.34461 0.327016
0.907683 0.370199 0.303349
0.985321 0.396933 0.281773
0 0.474495 0.260578
0.0842145 0.477577 0.31043
0.263081 0.474632 0.354421
0.442069 0.4692 0.393133
0.601633 0.465782 0.428885
0.719463 0.481895 0.396933
0.8168 0.503609 0.370565
0.899046 0.529091 0.347982
0.97673 0.555016 0.326024
0 0.630869 0.227863
0.102571 0.633951 0.27892
0.282811 0.631281 0.325292
0.463264 0.626154 0.368368
0.618997 0.62324 0.410407
0.733791 0.633555 0.431571
0.818311 0.65568 0.412085
0.893904 0.679255 0.387961
0.96611 0.701793 0.362631
0 0.78323 0.213642
0.13608 0.785687 0.266117
0.314885 0.781491 0.313726
0.491417 0.774304 0.357321
0.641123 0.768887 0.396674
0.761532 0.770718 0.428672
0.840543 0.785458 0.434958
0.901183 0.806088 0.417807
0.962493 0.825345 0.391745
0.0285039 0.921721 0.218692
0.182376 0.920485 0.269261
0.355886 0.912077 0.314366
0.525795 0.900633 0.354421
0.669245 0.890898 0.388952
0.788647 0.88661 0.419821
0.871778 0.892638 0.438987
0.928115 0.907423 0.438025
0.978882 0.924514 0.419654
0.0730602 1 0.220478
0.221546 1 0.267613
0.389242 1 0.309209
0.553307 1 0.345464
0.692164 0.994492 0.376181
0.810376 0.986618 0.405478
0.896849 0.988128 0.430106
0.957778 0.99826 0.442512
1 1 0.438331
0 0 0.588479
0.117968 0 0.593942
0.307744 0 0.568032
0.483146 0 0.514839
0.622019 0 0.454093
0.73727 0 0.393896
0.825666 0 0.341894
0.897154 0 0.298436
0.964843 0 0.260609
0 0.0735943 0.57203
0.094316 0.0571756 0.595895
0.290166 0.0369573 0.593591
0.478202 0.0219577 0.55819
0.627695 0.017792 0.506142
0.750011 0.0243076 0.451835
0.843976 0.0410315 0.406302
0.920989 0.0644694 0.370108
0.994247 0.0903639 0.339574
0 0.183658 0.539849
0.0737926 0.174075 0.579797
0.270726 0.158968 0.60499
0.472038 0.145693 0.599313
0.636881 0.144076 0.562509
0.767452 0.155444 0.514641
0.865278 0.17702 0.474342
0.944793 0.203769 0.442985
1 0.231296 0.415991
0 0.321324 0.494652
0.0594492 0.320211 0.543908
0.24947 0.312825 0.587182
0.450599 0.302083 0.614923
0.630213 0.297246 0.604334
0.767788 0.307836 0.560555
0.86453 0.329732 0.521508
0.94374 0.356542 0.49276
1 0.384192 0.468482
0 0.479011 0.451347
0.0593729 0.481666 0.5019
0.240314 0.477791 0.546868
0.424994 0.470726 0.587167
0.600519 0.46334 0.61735
0.753567 0.46836 0.592248
0.849561 0.491295 0.556939
0.929488 0.517525 0.531868
1 0.543618 0.508934
0 0.637598 0.413031
0.0709087 0.641032 0.463264
0.250446 0.638758 0.507927
0.430198 0.634089 0.547402
0.589578 0.630503 0.582971
0.736126 0.629313 0.620737
0.831556 0.648539 0.592615
0.910033 0.670817 0.566125
0.983398 0.692424 0.539849
0 0.791241 0.393515
0.101579 0.79382 0.443687
0.280018 0.789654 0.487739
0.457877 0.781994 0.52639
0.614206 0.774334 0.561639
0.752636 0.769345 0.601404
0.840879 0.779217 0.622126
0.904082 0.798917 0.600168
0.969024 0.816815 0.570565
0 0.929229 0.393286
0.14641 0.927687 0.440925
0.320638 0.918776 0.482399
0.493492 0.906157 0.518776
0.643488 0.893996 0.551751
0.774533 0.885145 0.587457
0.868223 0.886336 0.618814
0.926802 0.899519 0.623545
0.978637 0.916304 0.602716
0.0360266 1 0.390417
0.184924 1 0.434791
0.354269 1 0.473457
0.521996 1 0.507439
0.666804 0.996048 0.537926
0.793713 0.985 0.570932
0.889174 0.982879 0.603967
0.955169 0.990662 0.624826
1 1 0.623636
0 0 0.756603
0.112673 0 0.762417
0.304143 0 0.741726
0.485863 0 0.697124
0.634028 0 0.642649
0.758663 0 0.585016
0.854459 0 0.53228
0.930785 0 0.486412
1 0 0.445838
0 0.0676432 0.742901
0.0899062 0.0514534 0.764965
0.286458 0.0315251 0.764569
0.47892 0.0151522 0.737896
0.638483 0.00793469 0.694987
0.77258 0.0114137 0.644907
0.875471 0.0265049 0.598474
0.957565 0.0495155 0.559014
1 0.0756695 0.524849
0 0.180117 0.715496
0.0697642 0.170474 0.753353
0.268925 0.155825 0.776486
0.471717 0.142535 0.775357
0.645197 0.137881 0.750179
0.790311 0.144717 0.709194
0.898833 0.163561 0.667216
0.983124 0.189471 0.630854
1 0.216999 0.598993
0 0.321614 0.674037
0.0520027 0.319753 0.722988
0.24715 0.311528 0.763699
0.450538 0.300664 0.788098
0.633219 0.294072 0.785763
0.788174 0.298039 0.754452
0.89929 0.316091 0.713252
0.983032 0.342412 0.677714
1 0.370642 0.648035
0 0.482582 0.630335
0.0433356 0.484276 0.68162
0.228779 0.478889 0.726909
0.4206 0.470146 0.765545
0.600626 0.462089 0.790677
0.76849 0.460899 0.783597
0.88603 0.477562 0.745907
0.968292 0.503822 0.711208
1 0.530694 0.68275
0 0.643595 0.588342
0.0464637 0.646845 0.639139
0.227222 0.644114 0.684565
0.409232 0.638498 0.725063
0.573571 0.633036 0.761685
0.735592 0.62742 0.793423
0.865354 0.635279 0.77116
0.942458 0.658167 0.735805
1 0.680171 0.706722
0 0.798932 0.563943
0.071107 0.801434 0.613245
0.248661 0.797192 0.65594
0.425361 0.789456 0.692348
0.580667 0.781796 0.723842
0.722423 0.77583 0.756832
0.842237 0.773999 0.793973
0.916274 0.790707 0.763317
0.984909 0.807019 0.732464
0 0.936889 0.557931
0.111879 0.935149 0.603571
0.285222 0.926116 0.642298
0.457664 0.913329 0.674983
0.608896 0.900603 0.703395
0.746639 0.889616 0.735103
0.858534 0.884184 0.774411
0.926604 0.892744 0.79382
0.981308 0.908904 0.768536
0 1 0.549661
0.14818 1 0.591638
0.317494 1 0.627405
0.486275 1 0.658061
0.634058 1 0.685512
0.767865 0.987991 0.717281
0.875364 0.981704 0.75555
0.952285 0.985016 0.788998
1 0.998306 0.793835
0 0 0.889891
0.110124 0 0.895979
0.302602 0 0.879011
0.488258 0 0.841215
0.643122 0 0.793362
0.776135 0 0.740322
0.879957 0 0.689418
0.962692 0 0.64303
1 0 0.600687
0 0.0644083 0.878569
0.088365 0.0485847 0.899321
0.285542 0.0290684 0.900359
0.480537 0.012192 0.879774
0.646403 0.00314336 0.844968
0.790036 0.00404364 0.801404
0.902495 0.016907 0.757702
0.991897 0.038529 0.717433
1 0.0640726 0.680629
0 0.17911 0.855467
0.0693828 0.16968 0.891569
0.270039 0.155612 0.91339
0.473762 0.142611 0.915099
0.651453 0.136522 0.897963
0.806302 0.139986 0.865721
0.92607 0.155337 0.827451
1 0.178958 0.789548
1 0.205371 0.753719
0 0.323781 0.81825
0.0501869 0.321447 0.866133
0.2486 0.312856 0.904173
0.453193 0.301976 0.926467
0.636698 0.294667 0.928145
0.799695 0.294957 0.907805
0.92517 0.308354 0.873304
1 0.331884 0.835996
1 0.359228 0.801312
0 0.487282 0.775723
0.0353704 0.487892 0.826963
0.225254 0.481315 0.87126
0.421637 0.471748 0.906966
0.603433 0.463554 0.929213
0.774365 0.460609 0.930404
0.909346 0.47068 0.905196
1 0.492729 0.868009
1 0.518685 0.832319
0 0.650507 0.732052
0.0309758 0.653162 0.783642
0.214679 0.649409 0.829786
0.401205 0.642252 0.870405
0.571603 0.634852 0.904921
0.737621 0.628107 0.931182
0.881758 0.629297 0.926482
0.97998 0.645502 0.888334
1 0.667231 0.849317
0 0.807584 0.70396
0.0482032 0.809628 0.753338
0.226139 0.80473 0.796185
0.403632 0.796048 0.832883
0.560647 0.787152 0.864927
0.707088 0.779034 0.898711
0.842191 0.772625 0.929656
0.95053 0.77789 0.904799
1 0.795254 0.864118
0 0.945785 0.692515
0.0828107 0.943694 0.737224
0.255253 0.934356 0.774823
0.426703 0.921386 0.805982
0.576852 0.908553 0.832319
0.713726 0.897688 0.86041
0.829145 0.891478 0.893156
0.929046 0.888609 0.929244
0.994492 0.902296 0.895064
0 1 0.678691
0.115068 1 0.719081
0.283574 1 0.752926
0.451743 1 0.781064
0.599435 1 0.805417
0.734813 0.99617 0.833021
0.849409 0.988113 0.867643
0.944915 0.985153 0.909407
1 0.994202 0.929274
0 0 1
0.10808 0 1
0.301259 0 1
0.489525 0 0.976577
0.649119 0 0.934691
0.788907 0 0.886992
0.900175 0 0.839658
0.989807 0 0.794644
1 0 0.751949
0 0.0617227 1
0.0874495 0.0463417 1
0.285237 0.0273442 1
0.481895 0.0103456 1
0.651835 0.000320439 0.985336
0.80238 0 0.948592
0.923262 0.0101015 0.909575
1 0.0298619 0.87097
1 0.0541238 0.833356
0 0.178561 0.988495
0.0699931 0.169497 1
0.271855 0.156085 1
0.476249 0.143435 1
0.656229 0.13666 1
0.816983 0.137957 1
0.945724 0.150179 0.97937
1 0.170901 0.943465
1 0.195315 0.906233
0 0.325948 0.955505
0.0503853 0.323339 1
0.251087 0.31458 1
0.456291 0.303746 1
0.640024 0.295979 1
0.806775 0.294423 1
0.941848 0.304341 1
1 0.324315 0.990051
1 0.349371 0.953811
0 0.491325 0.914839
0.0312657 0.490913 0.965255
0.224796 0.483635 1
0.424079 0.473686 1
0.606714 0.465492 1
0.77847 0.461814 1
0.921416 0.468208 1
1 0.485176 1
1 0.507881 0.98349
0 0.656443 0.870939
0.0209812 0.65832 0.922927
0.208057 0.653468 0.968933
0.398672 0.644968 1
0.572641 0.636439 1
0.739971 0.629114 1
0.886702 0.628077 1
1 0.637324 1
1 0.654597 0.997757
0 0.815 0.840497
0.0308995 0.816266 0.890227
0.210483 0.810254 0.93341
0.390478 0.800122 0.970336
0.551247 0.789456 1
0.703456 0.779187 1
0.842451 0.771542 1
0.965118 0.770138 1
1 0.780987 1
0 0.95349 0.824537
0.05832 0.950774 0.869032
0.230823 0.94078 0.906523
0.402594 0.927047 0.937774
0.55346 0.913375 0.964355
0.692164 0.901442 0.993149
0.812467 0.893309 1
0.927932 0.886168 1
1 0.888655 1
0 1 0.805524
0.0851453 1 0.845212
0.253056 1 0.878248
0.420584 1 0.905516
0.567666 1 0.928771
0.702342 1 0.954681
0.816403 0.995956 0.986068
0.915801 0.992569 1
1 0.990616 1
