Assets/LUTs/Vintage City.cube
TITLE "Generated by Resolve"
LUT_3D_SIZE 33
0 0 0
0.00433356 0 0
0.042298 0 0
0.0726024 0 0
0.0998856 0 0
0.129137 0 0
0.160159 0 0
0.192996 0 0
0.226673 0 0
0.260227 0 0
0.29337 0 0
0.325628 0 0
0.356695 0 0
0.385824 0 0
0.414527 0 0
0.44303 0 0
0.471092 0 0
0.498482 0 0
0.524956 0 0
0.550256 0 0
0.574228 0 0
0.596887 0 0
0.618326 0 0
0.638575 0 0
0.65771 0 0
0.675975 0 0
0.693568 0.000579843 0
0.710704 0.00392157 0
0.72755 0.0074464 0
0.74432 0.0111238 0
0.761166 0.0149081 0
0.778317 0.0187533 0
0.794903 0.0227512 0
0 0.0141604 0
0.010544 0.0110628 0
0.0453803 0.00788891 0
0.0742809 0.00712596 0
0.101427 0.00854505 0
0.130831 0.00939956 0
0.161975 0.00979629 0
0.194919 0.00978103 0
0.228702 0.00943008 0
0.262348 0.00886549 0
0.295598 0.00825513 0
0.327962 0.00770581 0
0.359152 0.00730907 0
0.388403 0.00671397 0
0.417243 0.00610361 0
0.445884 0.00560006 0
0.474113 0.00526436 0
0.501671 0.00520333 0
0.528328 0.00544747 0
0.553826 0.00607309 0
0.578012 0.00715648 0
0.6009 0.00866712 0
0.622568 0.0106203 0
0.643091 0.0129702 0
0.662486 0.0157321 0
0.681041 0.0188602 0
0.698955 0.0222629 0
0.716411 0.0259403 0
0.733623 0.0298161 0
0.750744 0.0338598 0
0.767987 0.0380255 0
0.785473 0.0422522 0
0.802457 0.0466011 0
0 0.0332036 0
0.0172732 0.0301061 0
0.0517433 0.0270237 0
0.0825055 0.0252232 0
0.106493 0.0268406 0
0.133806 0.0282902 0
0.164111 0.0290227 0
0.196658 0.0292515 0
0.230243 0.029099 0
0.263828 0.0287175 0
0.297063 0.0282597 0
0.329442 0.0278782 0
0.360693 0.0276493 0
0.390066 0.0272374 0
0.419013 0.0268101 0
0.447807 0.0265049 0
0.476204 0.0263981 0
0.503944 0.0265354 0
0.5308 0.0270237 0
0.556512 0.0279088 0
0.580926 0.0292515 0
0.604089 0.0310521 0
0.626032 0.0332952 0
0.646845 0.0359808 0
0.666575 0.0390936 0
0.685481 0.0425727 0
0.703731 0.0463569 0
0.721553 0.0504005 0
0.739132 0.0546578 0
0.756619 0.0590829 0
0.774227 0.0636149 0
0.792111 0.0682231 0
0.809445 0.0729839 0
0 0.0526436 0
0.0234379 0.0496376 0
0.0573129 0.0468147 0
0.0887312 0.0448615 0
0.115282 0.0450904 0
0.140276 0.0468757 0
0.168719 0.0481575 0
0.200214 0.0487984 0
0.233204 0.0489815 0
0.266438 0.0488746 0
0.299504 0.0486915 0
0.331807 0.0485542 0
0.363073 0.0485847 0
0.392493 0.0484169 0
0.421546 0.048249 0
0.450477 0.0482032 0
0.479026 0.0483711 0
0.506966 0.0487984 0
0.53402 0.0495918 0
0.559991 0.0507973 0
0.58468 0.052491 0
0.608148 0.0546426 0
0.630411 0.0572671 0
0.651545 0.0603189 0
0.671626 0.0638132 0
0.690867 0.0676738 0
0.709484 0.0718395 0
0.727657 0.0762951 0
0.745586 0.0809339 0
0.763439 0.0857557 0
0.781415 0.0906844 0
0.79968 0.0956893 0
0.817395 0.100862 0
0 0.0726329 0
0.0290227 0.0697795 0
0.0625162 0.067216 0
0.0942397 0.0652934 0
0.122957 0.0647593 0
0.149142 0.0657969 0
0.175891 0.0674449 0
0.205921 0.068574 0
0.237964 0.0691997 0
0.270604 0.0694896 0
0.303304 0.0696574 0
0.335409 0.0698558 0
0.366567 0.070222 0
0.396002 0.0703746 0
0.425132 0.0705272 0
0.45417 0.0708324 0
0.482902 0.0713512 0
0.51104 0.0721599 0
0.538354 0.0733196 0
0.564584 0.0749218 0
0.589563 0.0770123 0
0.613321 0.0795605 0
0.635904 0.0825818 0
0.657359 0.0860304 0
0.67776 0.0899214 0
0.697337 0.0941939 0
0.716289 0.0987564 0
0.734829 0.103609 0
0.753109 0.108659 0
0.771328 0.113893 0
0.78967 0.119234 0
0.808316 0.124666 0
0.826413 0.130236 0
0.000518807 0.0933242 0
0.0341039 0.0906996 0
0.0673838 0.0883803 0
0.0993668 0.0865949 0
0.129442 0.0857252 0
0.157504 0.0860914 0
0.184741 0.0874189 0
0.213535 0.0889296 0
0.24448 0.0900282 0
0.276356 0.0907759 0
0.308537 0.0913863 0
0.340322 0.0920119 0
0.371328 0.0927901 0
0.400717 0.0933547 0
0.429908 0.0939345 0
0.459068 0.094667 0
0.487953 0.0955978 0
0.516274 0.0968338 0
0.543816 0.0984207 0
0.570275 0.100435 0
0.595514 0.102937 0
0.619547 0.105898 0
0.642405 0.109331 0
0.664179 0.113207 0
0.684886 0.11751 0
0.704799 0.122194 0
0.724086 0.127199 0
0.742962 0.132448 0
0.761608 0.137942 0
0.780179 0.143587 0
0.798871 0.14934 0
0.817823 0.155154 0
0.83624 0.161089 0
0.00512703 0.114961 0
0.0386053 0.112596 0
0.071809 0.110536 0
0.104051 0.108949 0
0.135088 0.108003 0
0.164736 0.107988 0
0.193439 0.108873 0
0.222339 0.110369 0
0.252415 0.111879 0
0.283513 0.113115 0
0.315129 0.114229 0
0.346563 0.115373 0
0.377325 0.11664 0
0.406653 0.117693 0
0.435828 0.11873 0
0.465049 0.119921 0
0.494026 0.121309 0
0.522499 0.122988 0
0.55021 0.125017 0
0.576883 0.127474 0
0.60235 0.130404 0
0.626627 0.133806 0
0.64976 0.137667 0
0.671809 0.141985 0
0.692836 0.146731 0
0.713039 0.151843 0
0.732647 0.157259 0
0.751827 0.162936 0
0.770748 0.168811 0
0.789609 0.174823 0
0.808545 0.180896 0
0.827741 0.18703 0
0.846372 0.19324 0
0.00895705 0.137789 0
0.0424048 0.135714 0
0.0756542 0.133974 0
0.108171 0.132616 0
0.140002 0.131762 0
0.170916 0.131609 0
0.201099 0.132219 0
0.23122 0.133501 0
0.26125 0.135225 0
0.291798 0.136934 0
0.322866 0.138567 0
0.353872 0.14023 0
0.38436 0.142016 0
0.41352 0.143557 0
0.442634 0.145083 0
0.471855 0.146746 0
0.500893 0.148608 0
0.529458 0.150744 0
0.557305 0.153246 0
0.584146 0.156161 0
0.609812 0.159548 0
0.634318 0.163409 0
0.657694 0.167727 0
0.680003 0.172473 0
0.701259 0.17763 0
0.721706 0.183139 0
0.741543 0.188922 0
0.760922 0.194934 0
0.780041 0.201114 0
0.799084 0.207401 0
0.818173 0.213764 0
0.837522 0.220127 0
0.856275 0.226566 0
0.011841 0.162188 0
0.0453498 0.160464 0
0.0787213 0.15906 0
0.111604 0.158022 0
0.144121 0.157382 0
0.17615 0.157275 0
0.207675 0.157794 0
0.239124 0.158923 0
0.270146 0.160586 0
0.300557 0.162615 0
0.331228 0.164706 0
0.361837 0.166888 0
0.39202 0.169177 0
0.420996 0.171221 0
0.450004 0.173266 0
0.479179 0.175418 0
0.508217 0.177768 0
0.536843 0.180407 0
0.564782 0.183383 0
0.59176 0.18677 0
0.617578 0.190616 0
0.642237 0.194903 0
0.665766 0.199603 0
0.688212 0.20473 0
0.709606 0.210239 0
0.73019 0.216052 0
0.750134 0.222126 0
0.76965 0.228397 0
0.788861 0.234821 0
0.80798 0.241337 0
0.827146 0.247883 0
0.84654 0.254414 0
0.865324 0.260975 0
0.0138705 0.188418 0
0.0475471 0.187091 0
0.0811627 0.186099 0
0.114427 0.185428 0
0.14757 0.185061 0
0.180529 0.185092 0
0.213245 0.185641 0
0.245945 0.186709 0
0.278126 0.188327 0
0.309346 0.190387 0
0.339879 0.192859 0
0.37023 0.195483 0
0.400107 0.198291 0
0.428901 0.200839 0
0.457786 0.203387 0
0.486885 0.206043 0
0.515908 0.208896 0
0.544533 0.211994 0
0.572488 0.215412 0
0.599496 0.219211 0
0.625345 0.223438 0
0.650034 0.228077 0
0.673609 0.233112 0
0.696086 0.238529 0
0.71751 0.244312 0
0.738125 0.25037 0
0.758099 0.256672 0
0.7776 0.263142 0
0.796826 0.269734 0
0.81593 0.276387 0
0.835081 0.283055 0
0.854429 0.289662 0
0.873167 0.2963 0
0.0151675 0.216648 0
0.0490425 0.215747 0
0.0829328 0.215167 0
0.116594 0.214862 0
0.150332 0.214801 0
0.184115 0.215045 0
0.217868 0.215702 0
0.251743 0.2168 0
0.285054 0.218418 0
0.31725 0.220523 0
0.348516 0.223117 0
0.378744 0.226154 0
0.408484 0.229419 0
0.437079 0.232456 0
0.465812 0.235447 0
0.494789 0.23856 0
0.523674 0.24181 0
0.552193 0.245304 0
0.580041 0.249088 0
0.606958 0.253223 0
0.632746 0.257771 0
0.657359 0.262684 0
0.680873 0.267979 0
0.703288 0.273625 0
0.724651 0.279606 0
0.74519 0.285847 0
0.765087 0.292287 0
0.784497 0.298878 0
0.803632 0.305562 0
0.822614 0.312291 0
0.841642 0.31899 0
0.860853 0.325628 0
0.879438 0.33225 0
0.0157778 0.246952 0
0.0499275 0.246464 0
0.0841077 0.246311 0
0.118166 0.246387 0
0.152453 0.246662 0
0.186984 0.247181 0
0.221683 0.248005 0
0.256626 0.24921 0
0.291035 0.250889 0
0.3243 0.253056 0
0.35639 0.255726 0
0.387198 0.258915 0
0.41677 0.262531 0
0.445258 0.265919 0
0.473823 0.269276 0
0.50251 0.27274 0
0.531197 0.276341 0
0.559518 0.28014 0
0.587182 0.284199 0
0.613931 0.288609 0
0.639521 0.293385 0
0.663981 0.298512 0
0.687312 0.30399 0
0.70956 0.309789 0
0.73077 0.315892 0
0.751125 0.32224 0
0.770825 0.328756 0
0.790066 0.335393 0
0.808988 0.342092 0
0.827771 0.348806 0
0.846571 0.355474 0
0.865553 0.362051 0
0.883894 0.368597 0
0.0161898 0.279225 0
0.0506142 0.279179 0
0.0851148 0.279438 0
0.1196 0.279927 0
0.154421 0.280552 0
0.189639 0.281361 0
0.225177 0.282429 0
0.261082 0.283757 0
0.296483 0.285496 0
0.330663 0.287678 0
0.363622 0.290349 0
0.395102 0.293568 0
0.425086 0.297261 0
0.453361 0.300908 0
0.481697 0.30454 0
0.510216 0.308232 0
0.538582 0.312093 0
0.566629 0.316121 0
0.594018 0.320394 0
0.620493 0.324971 0
0.645823 0.329885 0
0.670008 0.335149 0
0.693065 0.340734 0
0.715053 0.346609 0
0.735973 0.352758 0
0.756069 0.359121 0
0.775494 0.365637 0
0.79443 0.372244 0
0.813062 0.378882 0
0.831571 0.38555 0
0.850187 0.392248 0
0.869078 0.398917 0
0.887404 0.405646 0
0.0169375 0.313375 0
0.051667 0.313771 0
0.0865187 0.314458 0
0.121386 0.315328 0
0.156695 0.316304 0
0.192508 0.317372 0
0.228733 0.318608 0
0.265431 0.320043 0
0.301671 0.321798 0
0.33669 0.323949 0
0.370413 0.326589 0
0.402579 0.329732 0
0.433066 0.333394 0
0.461616 0.337057 0
0.489693 0.340841 0
0.517922 0.344701 0
0.546059 0.348669 0
0.573693 0.35285 0
0.600748 0.357244 0
0.626856 0.361913 0
0.651835 0.366918 0
0.675654 0.372213 0
0.698375 0.377813 0
0.719982 0.383688 0
0.740536 0.389822 0
0.76025 0.396124 0
0.77937 0.402625 0
0.798093 0.409293 0
0.816617 0.416083 0
0.835065 0.422919 0
0.853605 0.429786 0
0.872435 0.436606 0
0.890715 0.443458 0
0.0185245 0.349126 0
0.0535134 0.349905 0
0.0886702 0.350958 0
0.123857 0.352148 0
0.159548 0.353384 0
0.195834 0.35465 0
0.232624 0.356008 0
0.269963 0.357488 0
0.30692 0.359243 0
0.342641 0.361334 0
0.37702 0.363867 0
0.409781 0.366888 0
0.440726 0.370428 0
0.469688 0.373983 0
0.497948 0.377691 0
0.525856 0.381598 0
0.553613 0.385641 0
0.580957 0.389822 0
0.60763 0.394217 0
0.633234 0.398932 0
0.657771 0.403906 0
0.681147 0.409186 0
0.703426 0.41474 0
0.724681 0.42063 0
0.744976 0.426856 0
0.764538 0.433341 0
0.783536 0.440024 0
0.802152 0.44686 0
0.820539 0.453803 0
0.838865 0.460777 0
0.857298 0.467765 0
0.87599 0.474693 0
0.894133 0.481636 0
0.0212711 0.386007 0
0.0564736 0.387091 0
0.0918288 0.388418 0
0.127275 0.389853 0
0.163256 0.391272 0
0.199893 0.392691 0
0.23714 0.39411 0
0.274983 0.395605 0
0.312505 0.397284 0
0.348806 0.399268 0
0.383749 0.401648 0
0.417014 0.404486 0
0.448463 0.407813 0
0.477668 0.4112 0
0.506188 0.41471 0
0.534173 0.418448 0
0.561547 0.422431 0
0.588434 0.426566 0
0.614633 0.4309 0
0.639918 0.435523 0
0.663996 0.440574 0
0.687114 0.44596 0
0.709194 0.451713 0
0.730266 0.457786 0
0.750378 0.464179 0
0.769757 0.470817 0
0.788556 0.477638 0
0.806989 0.484596 0
0.825193 0.491646 0
0.843336 0.498711 0
0.861585 0.50576 0
0.880095 0.512749 0
0.898054 0.519722 0
0.024979 0.423713 0
0.0603189 0.42504 0
0.0958267 0.426566 0
0.131441 0.428153 0
0.167651 0.429709 0
0.204547 0.431189 0
0.2421 0.432624 0
0.280339 0.434058 0
0.318303 0.43563 0
0.355047 0.437446 0
0.390448 0.439612 0
0.424125 0.442222 0
0.455924 0.445274 0
0.485451 0.448371 0
0.514076 0.451637 0
0.542214 0.455085 0
0.569619 0.458885 0
0.596246 0.46305 0
0.622202 0.467506 0
0.647272 0.472297 0
0.67126 0.47747 0
0.694072 0.48304 0
0.715923 0.48893 0
0.736751 0.49514 0
0.756649 0.50164 0
0.775769 0.508385 0
0.794354 0.515282 0
0.812528 0.522316 0
0.830488 0.529427 0
0.848402 0.536538 0
0.866392 0.543603 0
0.884672 0.550591 0
0.902373 0.557565 0
0.028748 0.462257 0
0.0641642 0.463752 0
0.0997482 0.4654 0
0.135454 0.467079 0
0.171786 0.468681 0
0.20885 0.470146 0
0.246616 0.471534 0
0.28513 0.472847 0
0.3234 0.47425 0
0.360479 0.475837 0
0.396201 0.477745 0
0.430182 0.480049 0
0.462287 0.482811 0
0.492119 0.485679 0
0.521141 0.488777 0
0.549569 0.49221 0
0.577371 0.495964 0
0.604196 0.50013 0
0.629984 0.504692 0
0.654826 0.50959 0
0.678569 0.51487 0
0.701228 0.520516 0
0.72285 0.526467 0
0.743297 0.532784 0
0.762905 0.539345 0
0.78175 0.546136 0
0.800031 0.553079 0
0.817914 0.560128 0
0.835584 0.567239 0
0.853178 0.574334 0
0.870878 0.581384 0
0.888853 0.588327 0
0.906249 0.595239 0
0.0326085 0.501289 0
0.0680247 0.502861 0
0.103609 0.504555 0
0.139315 0.506249 0
0.175677 0.507805 0
0.212818 0.509194 0
0.250706 0.510445 0
0.289372 0.511589 0
0.32781 0.512749 0
0.365164 0.514122 0
0.401251 0.515846 0
0.435691 0.518044 0
0.468299 0.520745 0
0.498604 0.523568 0
0.528054 0.526604 0
0.556909 0.529946 0
0.584939 0.533654 0
0.61207 0.537713 0
0.63801 0.542214 0
0.662638 0.547173 0
0.686107 0.552499 0
0.708476 0.55816 0
0.729778 0.564141 0
0.750072 0.570428 0
0.769238 0.577035 0
0.787747 0.583825 0
0.805692 0.590753 0
0.82324 0.597772 0
0.840558 0.604822 0
0.857801 0.611856 0
0.875151 0.61883 0
0.892744 0.625681 0
0.909773 0.632471 0
0.0366217 0.540398 0
0.0719615 0.541955 0
0.107454 0.543618 0
0.143099 0.545235 0
0.179416 0.546685 0
0.216541 0.547936 0
0.25452 0.549065 0
0.293431 0.550149 0
0.33225 0.551308 0
0.370047 0.552682 0
0.406577 0.554376 0
0.441489 0.556512 0
0.47454 0.559136 0
0.505241 0.561868 0
0.535058 0.564797 0
0.564248 0.568017 0
0.592538 0.571603 0
0.619913 0.57554 0
0.646067 0.579904 0
0.670787 0.584726 0
0.693996 0.590021 0
0.716045 0.595682 0
0.737026 0.601633 0
0.756954 0.607874 0
0.775906 0.614389 0
0.793942 0.621149 0
0.81149 0.628 0
0.828641 0.634928 0
0.845563 0.641871 0
0.862409 0.648798 0
0.879316 0.655634 0
0.896498 0.662333 0
0.913115 0.668971 0
0.0408637 0.579171 0
0.0760357 0.580636 0
0.111421 0.582208 0
0.147036 0.58381 0
0.183459 0.58529 0
0.220783 0.586633 0
0.259022 0.587854 0
0.298222 0.588983 0
0.337392 0.590143 0
0.37554 0.59147 0
0.412482 0.593103 0
0.447761 0.595148 0
0.481193 0.59765 0
0.51223 0.600259 0
0.542367 0.603052 0
0.571832 0.606119 0
0.600458 0.609506 0
0.627909 0.613291 0
0.654246 0.617456 0
0.679118 0.62208 0
0.702342 0.627207 0
0.724102 0.632761 0
0.744686 0.638636 0
0.764233 0.644785 0
0.782773 0.651194 0
0.800534 0.657786 0
0.81767 0.664485 0
0.834272 0.671321 0
0.850736 0.678111 0
0.867124 0.684855 0
0.883574 0.691508 0
0.900282 0.697993 0
0.916426 0.704417 0
0.0456397 0.617426 0
0.0808576 0.618982 0
0.11635 0.620706 0
0.152102 0.622415 0
0.188647 0.624002 0
0.226139 0.625422 0
0.264591 0.626673 0
0.304021 0.627787 0
0.343465 0.628916 0
0.381903 0.630182 0
0.419135 0.631724 0
0.454734 0.633631 0
0.488472 0.635981 0
0.519783 0.638422 0
0.550164 0.641032 0
0.579873 0.6439 0
0.608698 0.647074 0
0.636408 0.650614 0
0.66273 0.654582 0
0.687694 0.658961 0
0.710994 0.663813 0
0.732692 0.669123 0
0.752941 0.67483 0
0.772061 0.680827 0
0.790158 0.687068 0
0.807462 0.693477 0
0.824155 0.700008 0
0.840421 0.706569 0
0.85626 0.713191 0
0.872129 0.719707 0
0.88806 0.726101 0
0.904234 0.732341 0
0.91986 0.738491 0
0.0519265 0.655604 0
0.0872053 0.657282 0
0.122759 0.659098 0
0.158587 0.660883 0
0.195239 0.662516 0
0.232853 0.663951 0
0.271427 0.665202 0
0.31104 0.666285 0
0.350652 0.667338 0
0.389319 0.668498 0
0.42678 0.669902 0
0.462623 0.671641 0
0.49659 0.673808 0
0.528115 0.676036 0
0.558679 0.678416 0
0.588556 0.681041 0
0.617533 0.683955 0
0.645365 0.687221 0
0.67187 0.690883 0
0.696742 0.695003 0
0.720058 0.69955 0
0.741756 0.70454 0
0.761883 0.709941 0
0.780606 0.715709 0
0.798215 0.721721 0
0.815015 0.727901 0
0.831189 0.734173 0
0.846922 0.740475 0
0.862379 0.746777 0
0.877592 0.753063 0
0.893004 0.759182 0
0.908644 0.765164 0
0.923735 0.771038 0
0.0599222 0.693523 0
0.0952163 0.695262 0
0.130785 0.697124 0
0.166659 0.69894 0
0.203342 0.700572 0
0.241016 0.701976 0
0.279667 0.703166 0
0.319387 0.704173 0
0.359121 0.705104 0
0.39794 0.706127 0
0.435554 0.707347 0
0.471565 0.708888 0
0.505684 0.710811 0
0.537362 0.71281 0
0.568063 0.714931 0
0.598047 0.717266 0
0.627085 0.719875 0
0.654994 0.72282 0
0.681529 0.726146 0
0.706493 0.729885 0
0.729656 0.734127 0
0.751293 0.73875 0
0.771344 0.74377 0
0.789868 0.749157 0
0.807019 0.754864 0
0.823285 0.760754 0
0.838926 0.766735 0
0.854124 0.772763 0
0.869047 0.778775 0
0.883894 0.784741 0
0.898726 0.790616 0
0.913771 0.796353 0
0.928359 0.801968 0
0.0694591 0.730983 0
0.104738 0.732754 0
0.140291 0.734615 0
0.17612 0.7364 0
0.212802 0.737987 0
0.250477 0.73933 0
0.289158 0.740414 0
0.328908 0.741283 0
0.368704 0.742061 0
0.407599 0.742885 0
0.445304 0.743893 0
0.481392 0.74519 0
0.515633 0.746853 0
0.547372 0.748547 0
0.578119 0.750362 0
0.608164 0.752377 0
0.637247 0.754635 0
0.665156 0.757214 0
0.691676 0.760159 0
0.716594 0.763516 0
0.739742 0.7673 0
0.761151 0.771542 0
0.781064 0.776135 0
0.799451 0.781109 0
0.816403 0.786419 0
0.832212 0.792004 0
0.847333 0.797696 0
0.861997 0.803449 0
0.876402 0.809186 0
0.89073 0.814862 0
0.905135 0.820447 0
0.919783 0.825879 0
0.9337 0.831281 0
0.0803693 0.767865 0
0.115587 0.769589 0
0.151049 0.771389 0
0.186816 0.773114 0
0.223423 0.774609 0
0.261051 0.775814 0
0.299687 0.776761 0
0.339422 0.777447 0
0.379232 0.778027 0
0.418112 0.778622 0
0.455848 0.779355 0
0.491966 0.780377 0
0.526223 0.78172 0
0.557961 0.783093 0
0.588708 0.784558 0
0.618738 0.786191 0
0.647776 0.788067 0
0.675639 0.790234 0
0.702083 0.792737 0
0.726909 0.795666 0
0.749981 0.799023 0
0.771267 0.802838 0
0.791012 0.807034 0
0.809277 0.811582 0
0.826078 0.816495 0
0.841688 0.821683 0
0.856367 0.82707 0
0.870542 0.832532 0
0.884443 0.837995 0
0.898253 0.843412 0
0.912139 0.848722 0
0.926299 0.85388 0
0.93991 0.858961 0
0.0924697 0.803983 0
0.12755 0.805631 0
0.16289 0.807324 0
0.198535 0.808927 0
0.235019 0.810269 0
0.272526 0.811307 0
0.31107 0.812055 0
0.350729 0.812512 0
0.390463 0.812833 0
0.429297 0.813153 0
0.466972 0.813596 0
0.503044 0.814267 0
0.537255 0.815259 0
0.568933 0.816251 0
0.599619 0.817319 0
0.629557 0.81854 0
0.658534 0.819989 0
0.68632 0.821744 0
0.712688 0.823835 0
0.737438 0.826322 0.000885023
0.760418 0.829282 0.00175479
0.781674 0.832654 0.0021973
0.801175 0.836469 0.00218204
0.819318 0.84062 0.00175479
0.835996 0.845121 0.000900282
0.851469 0.849912 0
0.865934 0.854932 0
0.879683 0.86009 0
0.893095 0.865278 0
0.906416 0.87042 0
0.919829 0.875456 0
0.933486 0.880354 0
0.946639 0.885176 0
0.105333 0.839261 0
0.14023 0.840772 0
0.175418 0.842313 0
0.21088 0.843732 0
0.247196 0.844877 0
0.28455 0.845701 0
0.322942 0.846204 0
0.362448 0.846403 0
0.402045 0.846418 0
