Assets/LUTs/Vintage City.cube
TITLE "Generated by Resolve"
LUT_3D_SIZE 5
0 0 0
0.226673 0 0
0.471092 0 0
0.65771 0 0
0.794903 0.0227512 0
0.011841 0.162188 0
0.270146 0.160586 0
0.508217 0.177768 0
0.709606 0.210239 0
0.865324 0.260975 0
0.024979 0.423713 0
0.318303 0.43563 0
0.569619 0.458885 0
0.756649 0.50164 0
0.902373 0.557565 0
0.0694591 0.730983 0
0.368704 0.742061 0
0.637247 0.754635 0
0.816403 0.786419 0
0.9337 0.831281 0
0.165301 1 0
0.451713 0.99617 0
0.713878 0.986038 0
0.888716 0.994492 0.0134585
0.993027 1 0.00462348
0 0 0.111116
0.295048 0 0.0515755
0.538903 0 0
0.722087 0 0
0.858717 0.012604 0
0 0.185565 0.0415198
0.278325 0.167452 0.117281
0.548898 0.179278 0.0398871
0.759365 0.211826 0
0.919112 0.262486 0
0 0.454414 0
0.317357 0.454749 0.0812238
0.591028 0.46804 0.123537
0.784451 0.510323 0.0823072
0.937682 0.564202 0.0409247
0.0382849 0.760815 0
0.362158 0.762997 0.0542458
0.652201 0.764874 0.123186
0.834318 0.792096 0.133989
0.952163 0.83476 0.101167
0.133349 1 0
0.436805 1 0.0573129
0.71603 0.993362 0.11519
0.899855 0.996445 0.145113
1 1 0.14168
0 0 0.405066
0.311009 0 0.376379
0.603281 0 0.248478
0.793133 0 0.140734
0.928756 0 0.0657664
0 0.187823 0.348119
0.27393 0.1635 0.418494
0.61828 0.155642 0.354055
0.827375 0.192538 0.274479
0.982818 0.245533 0.225147
0 0.474495 0.260578
0.263081 0.474632 0.354421
0.601633 0.465782 0.428885
0.8168 0.503609 0.370565
0.97673 0.555016 0.326024
0 0.78323 0.213642
0.314885 0.781491 0.313726
0.641123 0.768887 0.396674
0.840543 0.785458 0.434958
0.962493 0.825345 0.391745
0.0730602 1 0.220478
0.389242 1 0.309209
0.692164 0.994492 0.376181
0.896849 0.988128 0.430106
1 1 0.438331
0 0 0.756603
0.304143 0 0.741726
0.634028 0 0.642649
0.854459 0 0.53228
1 0 0.445838
0 0.180117 0.715496
0.268925 0.155825 0.776486
0.645197 0.137881 0.750179
0.898833 0.163561 0.667216
1 0.216999 0.598993
0 0.482582 0.630335
0.228779 0.478889 0.726909
0.600626 0.462089 0.790677
0.88603 0.477562 0.745907
1 0.530694 0.68275
0 0.798932 0.563943
0.248661 0.797192 0.65594
0.580667 0.781796 0.723842
0.842237 0.773999 0.793973
0.984909 0.807019 0.732464
0 1 0.549661
0.317494 1 0.627405
0.634058 1 0.685512
0.875364 0.981704 0.75555
1 0.998306 0.793835
0 0 1
0.301259 0 1
0.649119 0 0.934691
0.900175 0 0.839658
1 0 0.751949
0 0.178561 0.988495
0.271855 0.156085 1
0.656229 0.13666 1
0.945724 0.150179 0.97937
1 0.195315 0.906233
0 0.491325 0.914839
0.224796 0.483635 1
0.606714 0.465492 1
0.921416 0.468208 1
1 0.507881 0.98349
0 0.815 0.840497
0.210483 0.810254 0.93341
0.551247 0.789456 1
0.842451 0.771542 1
1 0.780987 1
0 1 0.805524
0.253056 1 0.878248
0.567666 1 0.928771
0.816403 0.995956 0.986068
1 0.990616 1
