Assets/LUTs/Willow.cube
LUT_3D_SIZE 6
0.167114 0.188538 0.196777
0.192627 0.217694 0.228375
0.233722 0.259125 0.272766
0.298847 0.316790 0.331659
0.400690 0.394122 0.403785
0.538045 0.485626 0.484851
0.232086 0.257581 0.271070
0.296434 0.314674 0.329507
0.396877 0.391279 0.401175
0.533176 0.482588 0.482193
0.653190 0.575823 0.565608
0.736224 0.654197 0.642218
0.392963 0.388544 0.398713
0.528474 0.479428 0.479411
0.649439 0.572709 0.562812
0.733817 0.651874 0.639875
0.784606 0.709493 0.703010
0.810572 0.748495 0.751798
0.646283 0.569922 0.560162
0.731648 0.649629 0.637533
0.783328 0.707900 0.701152
0.809940 0.747448 0.750417
0.823539 0.773567 0.787160
0.836249 0.792306 0.814000
0.782325 0.706452 0.699396
0.809427 0.746457 0.749068
0.823152 0.772883 0.786134
0.835786 0.791744 0.813275
0.852478 0.808994 0.833537
0.871544 0.827947 0.849263
0.822778 0.772205 0.785172
0.835210 0.791174 0.812550
0.851775 0.808325 0.832949
0.870831 0.827270 0.848800
0.890405 0.846972 0.861322
0.908912 0.865698 0.871294
0.175049 0.197925 0.207013
0.205530 0.231277 0.243033
0.254225 0.278115 0.292672
0.331061 0.342903 0.356686
0.449307 0.426639 0.432828
0.585941 0.520544 0.515697
0.252387 0.276401 0.290851
0.328413 0.340620 0.354470
0.444781 0.423628 0.430128
0.581229 0.517340 0.512915
0.687822 0.607057 0.595037
0.757947 0.677491 0.666915
0.440239 0.420610 0.427440
0.576992 0.514260 0.510173
0.684565 0.604157 0.592357
0.755920 0.675372 0.664703
0.796388 0.725719 0.722503
0.816240 0.759176 0.766459
0.681887 0.601611 0.589829
0.754197 0.673451 0.662616
0.795399 0.724314 0.720812
0.815770 0.758263 0.765235
0.827785 0.780971 0.797997
0.842026 0.798546 0.822013
0.794647 0.723093 0.719201
0.815339 0.757424 0.764031
0.827350 0.780338 0.797080
0.841514 0.797999 0.821353
0.859306 0.815765 0.839753
0.878741 0.835217 0.854176
0.826935 0.779739 0.796249
0.840862 0.797394 0.820674
0.858592 0.815070 0.839211
0.878069 0.834513 0.853726
0.897415 0.854047 0.865253
0.915069 0.871977 0.874422
0.184558 0.208801 0.218793
0.220829 0.246691 0.259513
0.278509 0.299538 0.314547
0.369019 0.371687 0.383382
0.500724 0.460441 0.462694
0.628760 0.554752 0.546289
0.276304 0.297589 0.312540
0.365818 0.369120 0.380998
0.495866 0.457379 0.459993
0.624596 0.551619 0.543578
0.717571 0.635485 0.623047
0.775543 0.697965 0.689639
0.491258 0.454296 0.457273
0.620664 0.548492 0.540773
0.714665 0.632745 0.620390
0.773810 0.696026 0.687523
0.805382 0.739621 0.740093
0.820851 0.768331 0.779563
0.712497 0.630531 0.618103
0.772455 0.694363 0.685644
0.804627 0.738431 0.738567
0.820457 0.767560 0.778441
0.832488 0.787689 0.807649
0.848263 0.804833 0.829222
0.804077 0.737412 0.737166
0.820087 0.766833 0.777359
0.832017 0.787106 0.806846
0.847707 0.804285 0.828639
0.866358 0.822797 0.845447
0.885955 0.842446 0.858648
0.831467 0.786514 0.806068
0.847027 0.803647 0.828005
0.865610 0.822054 0.844922
0.885271 0.841771 0.858256
0.904174 0.860890 0.868840
0.920903 0.877884 0.877270
0.195892 0.221179 0.232165
0.238918 0.264050 0.277948
0.307124 0.323606 0.338288
0.413511 0.402850 0.411601
0.551553 0.495227 0.493323
0.666636 0.587541 0.576406
0.304583 0.321443 0.336177
0.409508 0.399995 0.408997
0.546596 0.492023 0.490529
0.663016 0.584547 0.573738
0.742590 0.660903 0.649209
0.789399 0.715760 0.710374
0.542148 0.488893 0.487753
0.659507 0.581517 0.570957
0.740120 0.658434 0.646698
0.788043 0.714108 0.708471
0.812236 0.751575 0.755977
0.825019 0.776340 0.791214
0.738300 0.656455 0.644589
0.786964 0.712648 0.706731
0.811675 0.750561 0.754626
0.824683 0.775648 0.790213
0.837815 0.794038 0.816279
0.854909 0.811395 0.835833
0.811245 0.749667 0.753339
0.824287 0.775002 0.789267
0.837285 0.793469 0.815575
0.854328 0.810827 0.835298
0.873544 0.829984 0.850646
0.893038 0.849617 0.862794
0.836655 0.792859 0.814818
0.853629 0.810146 0.834704
0.872832 0.829258 0.850221
0.892361 0.848926 0.862418
0.910611 0.867431 0.872174
0.926267 0.883359 0.879862
0.209381 0.235248 0.247327
0.260425 0.283678 0.298437
0.340823 0.350486 0.363809
0.463013 0.435655 0.440801
0.597958 0.529915 0.524021
0.699452 0.617790 0.605337
0.337838 0.348070 0.361499
0.458570 0.432748 0.438216
0.593571 0.526785 0.521293
0.696384 0.615078 0.602833
0.763138 0.683371 0.673351
0.800120 0.731134 0.729201
0.589455 0.523610 0.518439
0.693314 0.612269 0.600150
0.761125 0.681232 0.671072
0.799046 0.729679 0.727440
0.817587 0.761794 0.770186
0.829377 0.783453 0.801597
0.759688 0.679503 0.669143
0.798213 0.728416 0.725841
0.817134 0.760936 0.768954
0.829017 0.782840 0.800702
0.843706 0.800279 0.824039
0.861832 0.818291 0.841868
0.816730 0.760126 0.767835
0.828557 0.782254 0.799875
0.843148 0.799712 0.823403
0.861198 0.817656 0.841361
0.880763 0.837222 0.855440
0.899919 0.856590 0.866580
0.842466 0.799067 0.822723
0.860471 0.816926 0.840831
0.880034 0.836494 0.855000
0.899285 0.855937 0.866263
0.916712 0.873644 0.875215
0.931157 0.888333 0.882220
0.225405 0.251193 0.264314
0.285813 0.305820 0.320872
0.380448 0.379931 0.390921
0.514797 0.469853 0.470977
0.639543 0.563899 0.554591
0.727442 0.645136 0.632774
0.376893 0.377264 0.388463
0.509952 0.466755 0.468269
0.635558 0.560758 0.551822
0.724854 0.642699 0.630409
0.779669 0.703109 0.695546
0.808214 0.744303 0.746148
0.631973 0.557747 0.549084
0.722225 0.640142 0.627819
0.778040 0.701187 0.693405
0.807436 0.743042 0.744572
0.822027 0.770616 0.782866
0.834283 0.790001 0.810872
0.776909 0.699718 0.691657
0.806785 0.741975 0.743152
0.821620 0.769856 0.781739
0.833874 0.789441 0.810066
0.850059 0.806620 0.831112
0.868884 0.825341 0.847350
0.821270 0.769194 0.780791
0.833350 0.788880 0.809329
0.849438 0.806003 0.830506
0.868301 0.824737 0.846930
0.887931 0.844457 0.859834
0.906570 0.863315 0.870090
0.848752 0.805325 0.829884
0.867566 0.823987 0.846416
0.887201 0.843695 0.859422
0.905920 0.862663 0.869758
0.922397 0.879414 0.877981
0.935575 0.892819 0.884308
