Assets/LUTs/Willow.cube
LUT_3D_SIZE 16
0.167114 0.188538 0.196777
0.174239 0.197017 0.206073
0.182678 0.206704 0.216552
0.192627 0.217694 0.228375
0.204228 0.229950 0.241630
0.217855 0.243754 0.256399
0.233722 0.259125 0.272766
0.252242 0.276304 0.290788
0.273781 0.295461 0.310433
0.298847 0.316790 0.331659
0.327973 0.340454 0.354370
0.361704 0.366286 0.378448
0.400690 0.394122 0.403785
0.444619 0.423574 0.430103
0.491483 0.454321 0.457308
0.538045 0.485626 0.484851
0.182353 0.206344 0.216136
0.192358 0.217363 0.228043
0.203934 0.229637 0.241267
0.217474 0.243370 0.255951
0.233278 0.258723 0.272267
0.251703 0.275801 0.290240
0.273192 0.294867 0.309826
0.298117 0.316136 0.330998
0.327106 0.339709 0.353636
0.360687 0.365462 0.377675
0.399429 0.393183 0.402907
0.443138 0.422581 0.429198
0.489746 0.453220 0.456327
0.536377 0.484629 0.483994
0.580180 0.516264 0.511920
0.619838 0.547465 0.539766
0.203489 0.229157 0.240784
0.216994 0.242860 0.255413
0.232769 0.258151 0.271748
0.251097 0.275226 0.289627
0.272463 0.294235 0.309165
0.297310 0.315417 0.330277
0.326155 0.338897 0.352863
0.359724 0.364669 0.376924
0.398288 0.392325 0.402134
0.441804 0.421660 0.428397
0.488263 0.452285 0.455488
0.534850 0.483664 0.483140
0.578792 0.515335 0.511102
0.618737 0.546686 0.539042
0.654595 0.576973 0.566652
0.686018 0.605322 0.593284
0.232086 0.257581 0.271070
0.250374 0.274583 0.288949
0.271663 0.293541 0.308425
0.296434 0.314674 0.329507
0.325144 0.338071 0.352037
0.358490 0.363693 0.375989
0.396877 0.391279 0.401175
0.440127 0.420550 0.427396
0.486441 0.451108 0.454465
0.533176 0.482588 0.482193
0.577150 0.514223 0.510124
0.617229 0.545545 0.538049
0.653190 0.575823 0.565608
0.684912 0.604373 0.592412
0.712605 0.630586 0.618112
0.736224 0.654197 0.642218
0.270964 0.292924 0.307812
0.295670 0.314050 0.328928
0.324333 0.337411 0.351436
0.357536 0.362972 0.375314
0.395859 0.390527 0.400490
0.438921 0.419738 0.426642
0.485051 0.450214 0.453646
0.531503 0.481516 0.481257
0.575596 0.513148 0.509158
0.615770 0.544434 0.537078
0.651823 0.574718 0.564635
0.683767 0.603339 0.591484
0.711577 0.629630 0.617213
0.735429 0.653456 0.641438
0.755516 0.674816 0.664027
0.772151 0.693879 0.684997
0.323191 0.336497 0.350586
0.356201 0.361974 0.374416
0.394314 0.389483 0.399526
0.437276 0.418636 0.425688
0.483375 0.449095 0.452667
0.529813 0.480380 0.480269
0.573997 0.512022 0.508183
0.614353 0.543344 0.536096
0.650591 0.573679 0.563708
0.682648 0.602338 0.590568
0.710632 0.628730 0.616340
0.734616 0.652640 0.640643
0.754805 0.674139 0.663300
0.771545 0.693216 0.684301
0.785113 0.710108 0.703706
0.795849 0.724836 0.721362
0.392963 0.388544 0.398713
0.435867 0.417688 0.424839
0.481943 0.448128 0.451821
0.528474 0.479428 0.479411
0.572713 0.511045 0.507323
0.613098 0.542346 0.535225
0.649439 0.572709 0.562812
0.681601 0.601416 0.589698
0.709680 0.627876 0.615508
0.733817 0.651874 0.639875
0.754136 0.673409 0.662569
0.770953 0.692553 0.683606
0.784606 0.709493 0.703010
0.795475 0.724347 0.720824
0.803993 0.737307 0.737064
0.810572 0.748495 0.751798
0.480296 0.447042 0.450865
0.527040 0.478382 0.478517
0.571354 0.510004 0.506441
0.611904 0.541355 0.534349
0.648322 0.571750 0.561939
0.680602 0.600505 0.588836
0.708776 0.626994 0.614637
0.732977 0.651048 0.639000
0.753436 0.672672 0.661797
0.770396 0.691917 0.682899
0.784144 0.708944 0.702365
0.795095 0.723887 0.720245
0.803712 0.736876 0.736561
0.810393 0.748197 0.751393
0.815644 0.758030 0.764846
0.819954 0.766523 0.776939
0.570144 0.509029 0.505540
0.610806 0.540420 0.533486
0.647341 0.570858 0.561097
0.679713 0.599659 0.588022
0.707998 0.626229 0.613845
0.732305 0.650324 0.638247
0.752830 0.671974 0.661049
0.769883 0.691328 0.682228
0.783713 0.708390 0.701721
0.794757 0.723388 0.719668
0.803408 0.736459 0.736016
0.810154 0.747823 0.750891
0.815473 0.757666 0.764381
0.819793 0.766274 0.776567
0.823651 0.773807 0.787509
0.827482 0.780535 0.797339
0.646283 0.569922 0.560162
0.678782 0.598778 0.587123
0.707220 0.625462 0.613064
0.731648 0.649629 0.637533
0.752299 0.671381 0.660388
0.769425 0.690763 0.681582
0.783328 0.707900 0.701152
0.794431 0.722946 0.719108
0.803167 0.736062 0.735509
0.809940 0.747448 0.750417
0.815314 0.757345 0.763957
0.819655 0.765976 0.776169
0.823539 0.773567 0.787160
0.827360 0.780312 0.797073
0.831550 0.786477 0.805995
0.836249 0.792306 0.814000
0.706411 0.624603 0.612172
0.731062 0.649002 0.636852
0.751781 0.670777 0.659729
0.769007 0.690251 0.680994
0.783003 0.707411 0.700576
0.794169 0.722487 0.718546
0.802926 0.735651 0.734994
0.809769 0.747133 0.749934
0.815116 0.757036 0.763529
0.819507 0.765694 0.775731
0.823378 0.773308 0.786787
0.827233 0.780104 0.796720
0.831427 0.786300 0.805682
0.836112 0.792131 0.813784
0.841320 0.797812 0.821120
0.846906 0.803489 0.827778
0.751286 0.670186 0.659058
0.768592 0.689684 0.680326
0.782670 0.706925 0.699990
0.793907 0.722081 0.718049
0.802733 0.735333 0.734533
0.809621 0.746824 0.749526
0.815014 0.756787 0.763134
0.819414 0.765480 0.775436
0.823278 0.773113 0.786493
0.827108 0.779920 0.796465
0.831304 0.786140 0.805441
0.835979 0.791975 0.813532
0.841144 0.797638 0.820905
0.846742 0.803323 0.827589
0.852663 0.809207 0.833742
0.858849 0.815294 0.839378
0.782325 0.706452 0.699396
0.793631 0.721632 0.717476
0.802511 0.734922 0.733998
0.809427 0.746457 0.749068
0.814880 0.756478 0.762693
0.819283 0.765187 0.775010
0.823152 0.772883 0.786134
0.826978 0.779697 0.796165
0.831114 0.785919 0.805167
0.835786 0.791744 0.813275
0.840944 0.797424 0.820650
0.846520 0.803111 0.827368
0.852478 0.808994 0.833537
0.858663 0.815132 0.839225
0.865051 0.821502 0.844462
0.871544 0.827947 0.849263
0.802372 0.734691 0.733631
0.809327 0.746209 0.748706
0.814755 0.756254 0.762352
0.819165 0.764969 0.774708
0.823051 0.772682 0.785834
0.826822 0.779484 0.795873
0.830960 0.785738 0.804881
0.835595 0.791564 0.813040
0.840765 0.797227 0.820434
0.846364 0.802946 0.827181
0.852294 0.808829 0.833380
0.858473 0.814967 0.839088
0.864891 0.821319 0.844319
0.871393 0.827811 0.849183
0.877922 0.834397 0.853639
0.884449 0.840983 0.857763
0.814634 0.755991 0.761987
0.819063 0.764752 0.774344
0.822932 0.772461 0.785523
0.826685 0.779303 0.795564
0.830771 0.785552 0.804609
0.835437 0.791372 0.812820
0.840564 0.797038 0.820225
0.846125 0.802724 0.826958
0.852033 0.808595 0.833171
0.858220 0.814687 0.838880
0.864614 0.821037 0.844130
0.871124 0.827545 0.848983
0.877696 0.834124 0.853481
0.884233 0.840737 0.857626
0.890710 0.847275 0.861484
0.897028 0.853657 0.865024
0.822778 0.772205 0.785172
0.826537 0.779101 0.795281
0.830599 0.785327 0.804349
0.835210 0.791174 0.812550
0.840312 0.796821 0.819955
0.845894 0.802497 0.826738
0.851775 0.808325 0.832949
0.857963 0.814430 0.838648
0.864347 0.820783 0.843950
0.870831 0.827270 0.848800
0.877400 0.833851 0.853300
0.883949 0.840453 0.857472
0.890405 0.846972 0.861322
0.896780 0.853384 0.864915
0.902917 0.859636 0.868212
0.908912 0.865698 0.871294
0.169606 0.191565 0.200057
0.177220 0.200467 0.209783
0.186207 0.210584 0.220751
0.196720 0.222035 0.233093
0.209020 0.234866 0.246870
0.223390 0.249205 0.262188
0.240164 0.265218 0.279179
0.259741 0.283096 0.297802
0.282521 0.302991 0.318050
0.308997 0.325167 0.339782
0.339652 0.349596 0.362983
0.375229 0.376220 0.387547
0.416106 0.404621 0.413206
0.461371 0.434573 0.439851
0.508486 0.465566 0.467222
0.554247 0.497037 0.494961
0.185857 0.210249 0.220359
0.196315 0.221619 0.232649
0.208589 0.234422 0.246405
0.222919 0.248739 0.261720
0.239647 0.264688 0.278615
0.259144 0.282505 0.297193
0.281853 0.302376 0.317373
0.308245 0.324474 0.339096
0.338871 0.348895 0.362304
0.374294 0.375429 0.386809
0.415000 0.403804 0.412462
0.460068 0.433704 0.439074
0.507040 0.464699 0.466435
0.552984 0.496336 0.494295
0.595393 0.527968 0.522288
0.633560 0.558834 0.550025
0.208134 0.233917 0.245887
0.222544 0.248353 0.261257
0.239204 0.264252 0.278154
0.258623 0.282011 0.296681
0.281236 0.301815 0.316803
0.307483 0.323844 0.338472
0.337969 0.348157 0.361583
0.373231 0.374583 0.386002
0.413731 0.402903 0.411646
0.458572 0.432722 0.438210
0.505385 0.463675 0.465527
0.551245 0.495220 0.493309
0.593749 0.526806 0.521274
0.632201 0.557821 0.549141
0.666455 0.587520 0.576436
0.696443 0.615059 0.602750
0.238534 0.263655 0.277497
0.257897 0.281354 0.295970
0.280399 0.301086 0.316046
0.306629 0.323095 0.337724
0.336990 0.347325 0.360799
0.372108 0.373706 0.385189
0.412422 0.401953 0.410780
0.457073 0.431748 0.437337
0.503815 0.462652 0.464657
0.549691 0.494189 0.492451
0.592330 0.525791 0.520416
0.630886 0.556803 0.548232
0.665328 0.586563 0.575580
0.695576 0.614320 0.602036
0.721782 0.639605 0.627209
0.744005 0.662341 0.650732
0.279512 0.300338 0.315307
0.305534 0.322214 0.336868
0.335770 0.346396 0.359931
0.370773 0.372725 0.384266
0.410860 0.400892 0.409803
0.455374 0.430623 0.436330
0.502006 0.461488 0.463616
0.548118 0.493134 0.491501
0.590848 0.524719 0.519476
0.629530 0.555746 0.547319
0.664054 0.585509 0.574647
0.694474 0.613309 0.601107
0.720796 0.638671 0.626303
0.743235 0.661574 0.649942
0.762004 0.682099 0.671942
0.777337 0.700169 0.692201
0.334785 0.345655 0.359227
0.369665 0.371939 0.383573
0.409695 0.400089 0.409079
0.454106 0.429778 0.435576
0.500679 0.460609 0.462827
0.546578 0.492103 0.490608
0.589401 0.523675 0.518541
0.628193 0.554688 0.546365
0.662876 0.584484 0.573713
0.693453 0.612403 0.600255
0.719919 0.637837 0.625495
0.742491 0.660846 0.649193
0.761358 0.681423 0.671245
0.776877 0.699696 0.691642
0.789373 0.715771 0.710405
0.799187 0.729783 0.727525
0.408105 0.399015 0.408127
0.452483 0.428697 0.434624
0.499015 0.459471 0.461833
0.544957 0.490929 0.489573
0.587885 0.522497 0.517520
0.626799 0.553548 0.545343
0.661586 0.583371 0.572710
0.692293 0.611308 0.599245
0.718928 0.636898 0.624569
0.741613 0.659977 0.648329
0.760637 0.680643 0.670414
0.776265 0.698984 0.690878
0.788874 0.715142 0.709703
0.798818 0.729298 0.726952
0.806607 0.741627 0.742653
0.812622 0.752262 0.756894
0.497558 0.458457 0.460942
0.543621 0.489928 0.488676
0.586682 0.521552 0.516657
0.625828 0.552711 0.544566
0.660716 0.582596 0.571951
0.691480 0.610574 0.598522
0.718162 0.636150 0.623805
0.740939 0.659283 0.647587
0.760059 0.680001 0.669742
0.775789 0.698417 0.690246
0.788456 0.714634 0.709112
0.798478 0.728827 0.726361
0.806330 0.741193 0.742106
0.812456 0.751923 0.756464
0.817315 0.761245 0.769402
0.821378 0.769390 0.781081
0.585488 0.520563 0.515758
0.624649 0.551694 0.543646
0.659680 0.581634 0.571045
0.690564 0.609667 0.597648
0.717365 0.635349 0.622993
0.740269 0.658545 0.646814
0.759467 0.679327 0.669004
0.775278 0.697810 0.689554
0.788030 0.714093 0.708475
0.798147 0.728353 0.725797
0.806073 0.740785 0.741633
0.812248 0.751559 0.755981
0.817156 0.760943 0.768988
0.821261 0.769142 0.780710
0.825056 0.776363 0.791259
0.828971 0.782835 0.800732
0.658741 0.580763 0.570210
0.689737 0.608876 0.596848
0.716652 0.634630 0.622235
0.739684 0.657906 0.646132
0.758985 0.678758 0.668352
0.774876 0.697292 0.688950
0.787706 0.713626 0.707908
0.797870 0.727942 0.725267
0.805826 0.740399 0.741125
0.812056 0.751254 0.755564
0.816976 0.760634 0.768551
0.821127 0.768880 0.780329
0.824924 0.776118 0.790914
0.828854 0.782667 0.800438
0.833218 0.788674 0.809043
0.838093 0.794388 0.816769
0.715910 0.633853 0.621396
0.739046 0.657226 0.645365
0.758453 0.678148 0.667664
0.774441 0.696752 0.688300
0.787373 0.713148 0.707321
0.797617 0.727517 0.724754
0.805629 0.740047 0.740638
0.811871 0.750926 0.755105
0.816845 0.760371 0.768161
0.820987 0.768615 0.779958
0.824802 0.775892 0.790590
0.828730 0.782437 0.800115
0.833106 0.788482 0.808767
0.837981 0.794217 0.816563
0.843323 0.799883 0.823628
0.849042 0.805631 0.830087
0.758058 0.677642 0.667116
0.774157 0.696300 0.687789
0.787128 0.712777 0.706808
0.797408 0.727168 0.724289
0.805462 0.739719 0.740178
0.811742 0.750621 0.754680
0.816690 0.760084 0.767768
0.820864 0.768378 0.779618
0.824679 0.775688 0.790244
0.828585 0.782242 0.799866
0.832939 0.788270 0.808478
0.837798 0.794020 0.816286
0.843153 0.799696 0.823401
0.848870 0.805432 0.829888
0.854915 0.811402 0.835871
0.861174 0.817634 0.841351
0.786812 0.712307 0.706267
0.797167 0.726759 0.723749
0.805278 0.739389 0.739737
0.811606 0.750339 0.754258
0.816570 0.759840 0.767409
0.820760 0.768141 0.779272
0.824552 0.775452 0.789954
0.828451 0.782052 0.799574
0.832779 0.788114 0.808265
0.837650 0.793866 0.816082
0.842973 0.799548 0.823214
0.848696 0.805278 0.829700
0.854728 0.811229 0.835682
0.861007 0.817440 0.841192
0.867441 0.823864 0.846280
0.873945 0.830398 0.850936
0.805097 0.739052 0.739248
0.811468 0.750073 0.753914
0.816482 0.759602 0.767069
0.820611 0.767936 0.778966
0.824420 0.775278 0.789666
0.828281 0.781869 0.799307
0.832597 0.787924 0.808002
0.837442 0.793657 0.815848
0.842765 0.799323 0.822965
0.848487 0.805059 0.829494
0.854505 0.811025 0.835489
0.860766 0.817216 0.841025
0.867212 0.823640 0.846111
0.873740 0.830178 0.850817
0.880312 0.836762 0.855148
0.886803 0.843313 0.859179
0.816386 0.759356 0.766678
0.820522 0.767693 0.778631
0.824320 0.775075 0.789363
0.828140 0.781680 0.799012
0.832414 0.787727 0.807755
0.837246 0.793484 0.815629
0.842550 0.799122 0.822775
0.848288 0.804877 0.829317
0.854295 0.810823 0.835334
0.860592 0.817030 0.840878
0.867024 0.823448 0.845976
0.873540 0.829990 0.850681
0.880125 0.836615 0.855074
0.886656 0.843171 0.859095
0.893104 0.849674 0.862818
0.899333 0.855994 0.866264
0.824138 0.774768 0.788932
0.827936 0.781403 0.798680
0.832192 0.787499 0.807401
0.836981 0.793200 0.815312
0.842294 0.798865 0.822489
0.847979 0.804572 0.829034
0.854015 0.810526 0.835078
0.860279 0.816745 0.840651
0.866686 0.823119 0.845748
0.873257 0.829692 0.850496
0.879827 0.836295 0.854884
0.886379 0.842885 0.858928
0.892777 0.849390 0.862666
0.899062 0.855744 0.866154
0.905154 0.861904 0.869378
0.910936 0.867808 0.872339
0.172188 0.194621 0.203426
0.180287 0.203999 0.213579
0.189804 0.214605 0.225062
0.200942 0.226496 0.237904
0.213979 0.239883 0.252269
0.229202 0.254841 0.268197
0.246984 0.271518 0.285790
0.267654 0.290079 0.304990
0.291748 0.310839 0.325829
0.319733 0.333849 0.348128
0.352135 0.359151 0.371849
0.389633 0.386450 0.396849
0.432416 0.415490 0.422912
0.478715 0.445935 0.449903
0.525754 0.477205 0.477475
0.570292 0.508762 0.505277
0.189525 0.214289 0.224741
0.200639 0.226179 0.237556
0.213621 0.239538 0.251867
0.228795 0.254405 0.267757
0.246485 0.271066 0.285278
0.267105 0.289569 0.304442
0.291085 0.310217 0.325196
0.318937 0.333172 0.347448
0.351248 0.358392 0.371126
0.388584 0.385606 0.396053
0.431042 0.414568 0.422077
0.477128 0.444924 0.448997
0.524031 0.476176 0.476566
0.568851 0.507863 0.504449
0.609740 0.539278 0.532447
0.646326 0.569739 0.559970
0.213130 0.238998 0.251340
0.228272 0.253883 0.267177
0.245886 0.270447 0.284652
0.266426 0.288932 0.303779
0.290302 0.309527 0.324474
0.318038 0.332389 0.346674
0.350231 0.357540 0.370315
0.387444 0.384740 0.395238
0.429755 0.413664 0.421262
0.475605 0.443940 0.448155
0.522426 0.475173 0.475670
0.567280 0.506817 0.503579
0.608343 0.538280 0.531549
0.645284 0.568922 0.559266
0.678053 0.598002 0.586340
0.706546 0.624680 0.612209
0.245317 0.269927 0.284121
0.265810 0.288385 0.303222
0.289623 0.308952 0.323879
0.317286 0.331749 0.346044
0.349297 0.356808 0.369624
0.386359 0.383907 0.394494
0.428433 0.412759 0.420422
0.474111 0.442976 0.447283
0.520838 0.474153 0.474782
0.565746 0.505796 0.502665
0.606891 0.537228 0.530635
0.643918 0.567851 0.558305
0.676804 0.596944 0.585362
0.705564 0.623796 0.611382
0.730312 0.648193 0.635981
0.751166 0.670029 0.658887
0.288652 0.308122 0.323065
0.316183 0.330909 0.345233
0.348120 0.355884 0.368788
0.385025 0.382933 0.393591
0.426970 0.411761 0.419533
0.472541 0.441925 0.446352
0.519175 0.473069 0.473846
0.564141 0.504697 0.501699
0.605439 0.536162 0.529681
0.642635 0.566808 0.557384
0.675661 0.595909 0.584454
0.704562 0.622869 0.610517
0.729447 0.647357 0.635151
0.750528 0.669378 0.658220
0.768024 0.689032 0.679607
0.782228 0.706331 0.699262
0.346859 0.354980 0.367900
0.383593 0.381953 0.392683
0.425363 0.410689 0.418576
0.471141 0.441018 0.445515
0.517767 0.472141 0.472981
0.562706 0.503704 0.500833
0.604078 0.535131 0.528776
0.641365 0.565796 0.556463
0.674532 0.594961 0.583544
0.703569 0.621953 0.609621
0.728561 0.646494 0.634312
0.749783 0.668634 0.657445
0.767385 0.688332 0.678858
0.781739 0.705780 0.698655
0.793213 0.721107 0.716859
0.802209 0.734448 0.733404
0.424007 0.409769 0.417779
0.469504 0.439927 0.444559
0.516194 0.471045 0.472040
0.561262 0.502624 0.499905
0.602753 0.534079 0.527823
0.640182 0.564791 0.555558
0.673441 0.593984 0.582654
0.702581 0.621056 0.608751
0.727710 0.645691 0.633497
0.749061 0.667887 0.656669
0.766778 0.687662 0.678156
0.781239 0.705189 0.698012
0.792828 0.720585 0.716255
0.801905 0.734044 0.732911
0.808982 0.745721 0.748088
0.814527 0.755790 0.761771
0.514646 0.469940 0.471065
0.559784 0.501504 0.498885
0.601406 0.532992 0.526860
0.638953 0.563731 0.554585
0.672328 0.592978 0.581695
0.701598 0.620115 0.607838
0.726849 0.644797 0.632608
0.748260 0.667043 0.655783
0.766113 0.686937 0.677364
0.780755 0.704605 0.697331
0.792422 0.720077 0.715623
0.801601 0.733564 0.732332
0.808749 0.745297 0.747556
0.814314 0.755481 0.761360
0.818872 0.764368 0.773835
0.822766 0.772104 0.785017
0.600286 0.532037 0.525963
0.637930 0.562792 0.553723
0.671445 0.592133 0.580884
0.700907 0.619432 0.607140
0.726261 0.644190 0.631980
0.747757 0.666503 0.655195
0.765680 0.686413 0.676777
0.780304 0.704048 0.696713
0.792035 0.719565 0.715022
0.801293 0.733143 0.731788
0.808500 0.744925 0.747051
0.814149 0.755154 0.760898
0.818708 0.764060 0.773410
0.822665 0.771879 0.784695
0.826464 0.778830 0.794869
0.830541 0.785120 0.803991
0.670572 0.591317 0.580081
0.700062 0.618589 0.606272
0.725524 0.643418 0.631161
0.747120 0.665790 0.654423
0.765165 0.685788 0.676078
0.779894 0.703489 0.696045
0.791711 0.719072 0.714420
0.801014 0.732706 0.731242
0.808281 0.744536 0.746535
0.813959 0.754801 0.760432
0.818549 0.763765 0.772981
0.822531 0.771613 0.784320
0.826331 0.778590 0.794501
0.830391 0.784913 0.803682
0.834972 0.790796 0.811949
0.840034 0.796455 0.819441
0.724893 0.642743 0.630419
0.746609 0.665207 0.653789
0.764724 0.685246 0.675470
0.779538 0.703024 0.695474
0.791406 0.718645 0.713888
0.800798 0.732317 0.730749
0.808112 0.744207 0.746087
0.813808 0.754525 0.760011
0.818426 0.763489 0.772599
0.822406 0.771395 0.783982
0.826206 0.778369 0.794206
0.830273 0.784710 0.803399
0.834815 0.790603 0.811704
0.839890 0.796307 0.819220
0.845401 0.801982 0.826070
0.851221 0.807779 0.832316
0.764278 0.684674 0.674780
0.779196 0.702536 0.694896
0.791152 0.718253 0.713397
0.800596 0.731936 0.730274
0.807931 0.743888 0.745658
0.813668 0.754243 0.759642
0.818295 0.763257 0.772248
0.822283 0.771147 0.783628
0.826074 0.778153 0.793887
0.830123 0.784511 0.803121
0.834674 0.790411 0.811443
0.839726 0.796102 0.818983
0.845206 0.801793 0.825833
0.851079 0.807620 0.832159
0.857194 0.813682 0.837956
0.863517 0.819971 0.843250
0.790942 0.717871 0.712891
0.800392 0.731652 0.729842
0.807793 0.743578 0.745261
0.813558 0.753994 0.759255
0.818183 0.763007 0.771906
0.822154 0.770919 0.783307
0.825930 0.777956 0.793585
0.829962 0.784309 0.802843
0.834492 0.790224 0.811190
0.839532 0.795922 0.818767
0.845025 0.801604 0.825640
0.850858 0.807411 0.831941
0.856995 0.813461 0.837743
0.863338 0.819759 0.843117
0.869812 0.826239 0.848038
0.876305 0.832800 0.852566
0.807644 0.743268 0.744778
0.813410 0.753683 0.758847
0.818076 0.762770 0.771554
0.822047 0.770716 0.782981
0.825796 0.777742 0.793286
0.829814 0.784127 0.802581
0.834304 0.790047 0.810958
0.839340 0.795748 0.818515
0.844827 0.801416 0.825449
0.850679 0.807230 0.831763
0.856804 0.813274 0.837576
0.863132 0.819571 0.842937
0.869635 0.826057 0.847901
0.876183 0.832630 0.852462
0.882741 0.839224 0.856697
0.889187 0.845744 0.860575
0.817982 0.762540 0.771158
0.821926 0.770533 0.782734
0.825683 0.777590 0.793061
0.829637 0.783975 0.802360
0.834158 0.789879 0.810741
0.839161 0.795554 0.818346
0.844631 0.801227 0.825254
0.850455 0.807016 0.831585
0.856552 0.813075 0.837420
0.862901 0.819352 0.842776
0.869383 0.825812 0.847749
0.875952 0.832375 0.852304
0.882501 0.838970 0.856566
0.888980 0.845509 0.860463
0.895336 0.851959 0.864089
0.901559 0.858249 0.867467
0.825493 0.777313 0.792671
0.829425 0.783693 0.802001
0.833904 0.789632 0.810399
0.838906 0.795324 0.818044
0.844378 0.800981 0.824973
0.850183 0.806750 0.831345
0.856303 0.812776 0.837206
0.862643 0.819064 0.842590
0.869103 0.825543 0.847552
0.875680 0.832123 0.852152
0.882222 0.838699 0.856391
0.888751 0.845282 0.860312
0.895130 0.851728 0.863987
0.901338 0.858024 0.867376
0.907362 0.864118 0.870490
0.913073 0.869946 0.873406
0.175049 0.197925 0.207013
0.183616 0.207742 0.217657
0.193720 0.218803 0.229637
0.205530 0.231277 0.243033
0.219327 0.245225 0.257959
0.235433 0.260756 0.274479
0.254225 0.278115 0.292672
0.276111 0.297460 0.312460
0.301546 0.319018 0.333831
0.331061 0.342903 0.356686
0.365257 0.368927 0.380875
0.404968 0.397060 0.406409
0.449307 0.426639 0.432828
0.496234 0.457449 0.460085
0.542819 0.488997 0.487833
0.585941 0.520544 0.515697
0.193339 0.218414 0.229186
0.205124 0.230828 0.242581
0.218863 0.244727 0.257425
0.234893 0.260243 0.273915
0.253642 0.277561 0.292077
0.275417 0.296818 0.311802
0.300782 0.318347 0.333142
0.330197 0.342136 0.355916
0.364277 0.368110 0.380082
0.403568 0.396021 0.405461
0.447660 0.425545 0.431846
0.494372 0.456286 0.459039
0.540839 0.487748 0.486758
0.584378 0.519504 0.514775
0.623823 0.550747 0.542727
0.658854 0.580689 0.570032
0.218428 0.244299 0.256980
0.234441 0.259796 0.273435
0.253106 0.277071 0.291528
0.274815 0.296271 0.311224
0.300071 0.317699 0.332511
0.329399 0.341457 0.355271
0.363318 0.367325 0.379346
0.402438 0.395174 0.404683
0.446267 0.424623 0.431011
0.492829 0.455306 0.458176
0.539229 0.486746 0.485879
0.582742 0.518376 0.513825
0.622286 0.549605 0.541706
0.657701 0.579718 0.569211
0.688908 0.608012 0.595886
0.715922 0.633789 0.621308
0.252387 0.276401 0.290851
0.274034 0.295607 0.310529
0.299169 0.316971 0.331766
0.328413 0.340620 0.354470
0.362215 0.366444 0.378519
0.401119 0.394222 0.403824
0.444781 0.423628 0.430128
0.491232 0.454285 0.457273
0.537587 0.485718 0.484949
0.581229 0.517340 0.512915
0.620890 0.548587 0.540824
0.656454 0.578734 0.568329
0.687822 0.607057 0.595037
0.715095 0.633046 0.620598
0.738433 0.656507 0.644621
0.757947 0.677491 0.666915
0.298303 0.316230 0.331075
0.327397 0.339827 0.353723
0.361113 0.365621 0.377780
0.399934 0.393371 0.403037
0.443459 0.422737 0.429330
0.489745 0.453327 0.456422
0.536046 0.484677 0.484062
0.579749 0.516275 0.511987
0.619560 0.547534 0.539896
0.655209 0.577705 0.567390
0.686708 0.606063 0.594148
0.714120 0.632116 0.619699
0.737567 0.655676 0.643783
0.757322 0.676842 0.666221
0.773558 0.695616 0.687013
0.786672 0.712121 0.706051
0.359778 0.364671 0.376917
0.398422 0.392335 0.402123
0.441838 0.421659 0.428360
0.488070 0.452225 0.455430
0.534415 0.483586 0.483073
0.578190 0.515187 0.510998
0.618130 0.546434 0.538911
0.653936 0.576630 0.566431
0.685583 0.605076 0.593193
0.713173 0.631241 0.618863
0.736742 0.654882 0.642963
0.756597 0.676103 0.665471
0.772960 0.694966 0.686295
0.786238 0.711618 0.705497
0.796771 0.726218 0.723110
0.804978 0.738880 0.739123
0.440239 0.420610 0.427440
0.486717 0.451294 0.454612
0.533127 0.482636 0.482235
0.576992 0.514260 0.510173
0.616980 0.545503 0.538055
0.652862 0.575716 0.565584
0.684565 0.604157 0.592357
0.712241 0.630357 0.617988
0.735964 0.654090 0.642168
0.755920 0.675372 0.664703
0.772393 0.694312 0.685577
0.785779 0.711042 0.704837
0.796388 0.725719 0.722503
0.804706 0.738490 0.738613
0.811172 0.749581 0.753256
0.816240 0.759176 0.766459
0.531591 0.481514 0.481277
0.575599 0.513174 0.509186
0.615712 0.544430 0.537109
0.651730 0.574722 0.564652
0.683601 0.603265 0.591481
0.711369 0.629527 0.617168
0.735179 0.653318 0.641371
0.755231 0.674670 0.663950
